; generated by PrusaSlicer 2.5.1+win64 on 2023-04-04 at 00:24:34 UTC


;
;
; 

; external perimeters extrusion width = 0.45mm
; perimeters extrusion width = 0.45mm
; infill extrusion width = 0.45mm
; solid infill extrusion width = 0.45mm
; top infill extrusion width = 0.40mm
; support material extrusion width = 0.35mm
; first layer extrusion width = 0.42mm

M73 P0 R103
M73 C85
M201 X9000 Y9000 Z500 E10000 ; sets maximum accelerations, mm/sec^2
M203 X500 Y500 Z12 E120 ; sets maximum feedrates, mm / sec
M204 P2000 R1500 T2000 ; sets acceleration (P, T) and retract acceleration (R), mm/sec^2
M205 X10.00 Y10.00 Z0.20 E4.50 ; sets the jerk limits, mm/sec
M205 S0 T0 ; sets the minimum extruding and travel feed rate, mm/sec
M107
;TYPE:Custom
M862.3 P "MK2.5S" ; printer model check
M862.1 P0.4 ; nozzle diameter check
M115 U3.12.1 ; tell printer latest fw version
G90 ; use absolute coordinates
M83 ; extruder relative mode
M104 S215 ; set extruder temp
M140 S60 ; set bed temp
M190 S60 ; wait for bed temp
M109 S215 ; wait for extruder temp
G28 W ; home all without mesh bed level
G80 ; mesh bed leveling

G1 Z0.2 F720
G1 Y-3 F1000 ; go outside print area
G92 E0
G1 X60 E9 F1000 ; intro line
G1 X100 E12.5 F1000 ; intro line

G92 E0
G21 ; set units to millimeters
G90 ; use absolute coordinates
M83 ; use relative distances for extrusion
M900 K0.05 ; Filament gcode LA 1.5
M900 K30 ; Filament gcode LA 1.0
M107
;LAYER_CHANGE
;Z:0.2
;HEIGHT:0.2
;BEFORE_LAYER_CHANGE
G92 E0.0
;0.2


G1 E-.8 F2100
G1 Z.4 F720
;AFTER_LAYER_CHANGE
;0.2
G1 X54.15 Y66.183 F10800
G1 Z.2 F720
G1 E.8 F2100
M204 S800
;TYPE:Skirt/Brim
;WIDTH:0.42
G1 F1200
G1 X54.947 Y65.993 E.0257
G1 X195.344 Y57.577 E4.40994
G1 X205.486 Y57.573 E.318
G1 X206.793 Y57.965 E.04278
G1 X207.67 Y59.01 E.04278
G1 X207.863 Y59.939 E.02973
G1 X208.24 Y137.955 E2.44616
G1 X208.24 Y147.955 E.31354
G1 X207.849 Y149.262 E.04278
G1 X206.803 Y150.138 E.04278
G1 X205.863 Y150.332 E.03008
G1 X195.736 Y150.328 E.31753
G1 X54.962 Y142.79 E4.42018
G1 X53.678 Y142.329 E.04278
G1 X52.859 Y141.238 E.04278
G1 X52.712 Y140.416 E.02617
G1 X52.712 Y68.366 E2.25908
G1 X53.104 Y67.059 E.04278
M73 P0 R102
G1 X54.104 Y66.221 E.0409
M204 S1000
; printing object CardboardTray_Lid2.stl id:0 copy 0
;WIPE_START
G1 F8640
G1 X54.947 Y65.993 E-.20175
G1 X57.361 Y65.849 E-.55825
;WIPE_END
G1 E-.04 F2100
G1 Z.6 F720
G1 X194.752 Y136.554 F10800
G1 Z.2 F720
G1 E.8 F2100
M204 S800
;TYPE:Perimeter
;WIDTH:0.419999
G1 F1200
G1 X187.904 Y136.554 E.21471
G1 X187.393 Y136.691 E.01661
G1 X187.205 Y136.795 E.00673
G1 X186.88 Y137.213 E.0166
G1 X186.793 Y137.392 E.00624
G1 X186.772 Y137.937 E.01709
G1 X186.88 Y138.269 E.01096
G1 X187.11 Y138.586 E.01226
;WIDTH:0.467304
G1 X187.309 Y138.713 E.00835
;WIDTH:0.514609
G1 X187.508 Y138.841 E.00928
;WIDTH:0.561913
G1 X187.708 Y138.968 E.01021
;WIDTH:0.581881
G1 X187.904 Y139.009 E.00901
G1 X191.532 Y139.009 E.16256
G1 X191.156 Y139.285 E.0209
G1 X190.945 Y139.548 E.01511
G1 X187.904 Y139.548 E.13627
;WIDTH:0.58765
G1 X187.707 Y139.538 E.00896
G1 X187.608 Y139.561 E.0046
;WIDTH:0.545738
G1 X187.509 Y139.584 E.00425
;WIDTH:0.503825
G1 X187.41 Y139.606 E.00389
;WIDTH:0.461912
G1 X187.311 Y139.629 E.00354
;WIDTH:0.419999
G1 X55.877 Y139.629 E4.12103
G1 X55.877 Y69.153 E2.20972
G1 X187.26 Y69.153 E4.11943
;WIDTH:0.46047
G1 X187.421 Y69.173 E.00564
;WIDTH:0.50094
M73 C84
G1 X187.582 Y69.194 E.00618
;WIDTH:0.541411
G1 X187.743 Y69.214 E.00673
;WIDTH:0.581881
G1 X187.904 Y69.234 E.00728
G1 X190.945 Y69.234 E.13628
G1 X191.227 Y69.573 E.01976
G1 X191.508 Y69.773 E.01545
G1 X187.904 Y69.773 E.16149
;WIDTH:0.588822
G1 X187.792 Y69.779 E.00511
G1 X187.692 Y69.832 E.00513
;WIDTH:0.546617
G1 X187.592 Y69.885 E.00473
;WIDTH:0.504411
G1 X187.493 Y69.938 E.00434
;WIDTH:0.462205
G1 X187.393 Y69.991 E.00394
;WIDTH:0.419999
G1 X187.11 Y70.197 E.01096
G1 X186.88 Y70.513 E.01226
G1 X186.772 Y70.846 E.01096
G1 X186.772 Y71.237 E.01226
G1 X186.835 Y71.496 E.00837
G1 X187.177 Y71.962 E.01811
G1 X187.393 Y72.091 E.0079
G1 X187.904 Y72.228 E.01661
G1 X194.752 Y72.228 E.21471
G1 X194.752 Y136.494 E2.01501
M204 S1000
;WIPE_START
G1 F8640
G1 X191.461 Y136.523 E-.76
;WIPE_END
G1 E-.04 F2100
G1 Z.6 F720
G1 X196.463 Y139.55 F10800
G1 Z.2 F720
G1 E.8 F2100
M204 S800
G1 F1200
G1 X196.419 Y139.463 E.00305
G1 X196.026 Y139.288 E.01349
;WIDTH:0.411018
G1 X195.811 Y139.257 E.00664
;WIDTH:0.429016
G1 X195.667 Y139.296 E.00479
;WIDTH:0.4703
G1 X195.523 Y139.335 E.00531
;WIDTH:0.511584
G1 X195.379 Y139.374 E.00582
;WIDTH:0.546732
G1 X195.267 Y139.461 E.00594
;WIDTH:0.58188
G1 X195.155 Y139.548 E.00635
G1 X194.745 Y139.548 E.01837
G1 X194.464 Y139.209 E.01972
G1 X194.183 Y139.009 E.01548
G1 X195.043 Y139.009 E.03858
G1 X195.204 Y138.986 E.00727
;WIDTH:0.534711
G1 X195.364 Y138.962 E.00663
;WIDTH:0.487541
G1 X195.525 Y138.938 E.006
;WIDTH:0.440371
G1 X195.685 Y138.915 E.00536
;WIDTH:0.409885
G1 X196.085 Y138.923 E.01218
;WIDTH:0.419999
G1 X196.301 Y138.885 E.00689
G1 X196.419 Y138.819 E.00424
G1 X196.458 Y138.742 E.00272
G1 X205.076 Y138.742 E.27021
G1 X205.076 Y142.955 E.13209
G1 X205.076 Y147.167 E.13209
G1 X196.65 Y147.167 E.26419
G1 X196.65 Y139.92 E.22725
G1 X196.49 Y139.604 E.01111
M204 S1000
;WIPE_START
G1 F8640
G1 X196.419 Y139.463 E-.0363
G1 X196.026 Y139.288 E-.09937
G1 X195.811 Y139.257 E-.0501
G1 X195.667 Y139.296 E-.03448
G1 X195.523 Y139.335 E-.03448
G1 X195.379 Y139.374 E-.03448
G1 X195.267 Y139.461 E-.03273
G1 X195.155 Y139.548 E-.03273
G1 X194.745 Y139.548 E-.09465
G1 X194.464 Y139.209 E-.10162
G1 X194.183 Y139.009 E-.07978
G1 X194.742 Y139.009 E-.12929
;WIPE_END
G1 E-.04 F2100
G1 Z.6 F720
G1 X195.08 Y69.782 F10800
G1 Z.2 F720
G1 E.8 F2100
M204 S800
;WIDTH:0.564807
G1 F1200
G1 X194.149 Y69.782 E.04039
G1 X194.458 Y69.567 E.0163
G1 X194.741 Y69.226 E.01925
G1 X195.118 Y69.205 E.0164
;WIDTH:0.522742
G1 X195.368 Y69.184 E.01002
;WIDTH:0.480677
G1 X195.619 Y69.162 E.00914
G1 X195.448 Y69.29 E.00776
;WIDTH:0.522742
G1 X195.277 Y69.418 E.00851
;WIDTH:0.564807
G1 X195.107 Y69.546 E.00926
G1 X195.087 Y69.722 E.00768
M204 S1000
;WIPE_START
G1 F8640
G1 X194.149 Y69.782 E-.21692
G1 X194.458 Y69.567 E-.08672
G1 X194.741 Y69.226 E-.10245
G1 X195.118 Y69.205 E-.08728
G1 X195.368 Y69.184 E-.058
G1 X195.619 Y69.162 E-.058
G1 X195.448 Y69.29 E-.04925
G1 X195.277 Y69.418 E-.04925
G1 X195.107 Y69.546 E-.04925
G1 X195.105 Y69.559 E-.00289
;WIPE_END
G1 E-.04 F2100
G1 Z.6 F720
G1 X204.699 Y69.163 F10800
G1 Z.2 F720
G1 E.8 F2100
M204 S800
;WIDTH:0.419999
G1 F1200
G1 X196.849 Y69.163 E.24614
;WIDTH:0.430062
G1 X195.718 Y69.158 E.0364
G1 X196.273 Y68.588 E.02563
;WIDTH:0.419999
G1 X196.273 Y60.737 E.24614
G1 X204.699 Y60.737 E.26419
G1 X204.699 Y69.103 E.2623
M204 S1000
;WIPE_START
G1 F8640
G1 X201.408 Y69.128 E-.76
;WIPE_END
G1 E-.04 F2100
G1 Z.6 F720
G1 X196.196 Y139.768 F10800
G1 Z.2 F720
G1 E.8 F2100
M204 S800
;TYPE:External perimeter
G1 F1200
G1 X195.811 Y139.618 E.01295
G1 X195.678 Y139.673 E.00452
G1 X195.345 Y140.006 E.01477
G1 X194.483 Y140.006 E.02702
G1 X194.361 Y139.794 E.00767
G1 X194.118 Y139.51 E.01172
G1 X193.771 Y139.306 E.01262
G1 X193.381 Y139.231 E.01246
G1 X192.31 Y139.231 E.03358
G1 X191.977 Y139.285 E.01055
G1 X191.507 Y139.579 E.01741
G1 X191.207 Y140.006 E.01634
G1 X55.5 Y140.006 E4.25502
G1 X55.5 Y68.776 E2.23336
M73 P1 R102
G1 X191.207 Y68.776 E4.25502
G1 X191.33 Y68.988 E.00767
G1 X191.573 Y69.273 E.01174
G1 X191.919 Y69.477 E.0126
G1 X192.31 Y69.551 E.01246
G1 X193.381 Y69.551 E.03358
G1 X193.712 Y69.497 E.01053
G1 X194.067 Y69.314 E.01251
G1 X194.307 Y69.055 E.01109
G1 X194.483 Y68.776 E.01034
G1 X195.708 Y68.776 E.0384
G1 X195.896 Y68.588 E.00836
G1 X195.896 Y60.36 E.25796
G1 X205.076 Y60.36 E.28783
G1 X205.076 Y69.54 E.28783
G1 X195.718 Y69.54 E.29341
G1 X195.537 Y69.675 E.00706
G1 X195.53 Y70.231 E.01744
G1 X187.904 Y70.231 E.23908
G1 X187.509 Y70.35 E.01294
G1 X187.415 Y70.418 E.00365
G1 X187.185 Y70.735 E.01226
G1 X187.149 Y70.846 E.00365
G1 X187.156 Y71.288 E.01387
G1 X187.447 Y71.698 E.01575
G1 X187.904 Y71.851 E.01514
G1 X195.13 Y71.851 E.22654
G1 X195.13 Y136.931 E2.04053
G1 X187.904 Y136.931 E.22654
G1 X187.478 Y137.063 E.014
G1 X187.17 Y137.459 E.01573
G1 X187.149 Y137.937 E.01499
G1 X187.185 Y138.047 E.00365
G1 X187.415 Y138.364 E.01226
G1 X187.509 Y138.432 E.00365
G1 X187.904 Y138.551 E.01294
G1 X195.213 Y138.551 E.22916
G1 X196.157 Y138.537 E.02959
G1 X196.272 Y138.365 E.0065
G1 X205.453 Y138.365 E.28786
G1 X205.453 Y147.545 E.28783
G1 X196.273 Y147.545 E.28783
G1 X196.273 Y139.92 E.23907
G1 X196.223 Y139.821 E.00347
M204 S1000
G1 X196.293 Y139.379 F10800
;WIPE_START
G1 F8640
G1 X195.811 Y139.618 E-.10607
G1 X195.678 Y139.673 E-.03332
G1 X195.345 Y140.006 E-.10877
G1 X194.483 Y140.006 E-.19898
G1 X194.361 Y139.794 E-.05651
G1 X194.118 Y139.51 E-.0863
G1 X193.771 Y139.306 E-.09294
G1 X193.443 Y139.243 E-.07711
;WIPE_END
G1 E-.04 F2100
G1 Z.6 F720
G1 X191.914 Y138.921 F10800
G1 Z.2 F720
G1 E.8 F2100
M204 S800
;TYPE:Perimeter
;WIDTH:0.405486
G1 F1200
G1 X192.112 Y138.906 E.00599
;WIDTH:0.375664
G1 X192.31 Y138.891 E.0055
;WIDTH:0.345842
G1 X193.381 Y138.891 E.02698
;WIDTH:0.375458
G1 X193.578 Y138.906 E.00546
;WIDTH:0.405074
G1 X193.774 Y138.921 E.00594
M204 S1000
;WIPE_START
G1 F8640
G1 X193.578 Y138.906 E-.04559
G1 X193.381 Y138.891 E-.04558
G1 X192.31 Y138.891 E-.2473
G1 X192.112 Y138.906 E-.04586
G1 X191.914 Y138.921 E-.04586
;WIPE_END
G1 E-.3698 F2100
G1 Z.6 F720
G1 X193.777 Y69.861 F10800
G1 Z.2 F720
G1 E.8 F2100
M204 S800
;WIDTH:0.405486
G1 F1200
G1 X193.579 Y69.876 E.00599
;WIDTH:0.375664
G1 X193.381 Y69.891 E.0055
;WIDTH:0.345842
G1 X192.31 Y69.891 E.02698
;WIDTH:0.375458
G1 X192.113 Y69.876 E.00546
;WIDTH:0.405074
G1 X191.916 Y69.861 E.00595
M204 S1000
;WIPE_START
G1 F8640
G1 X192.113 Y69.876 E-.04559
G1 X192.31 Y69.891 E-.04559
G1 X193.381 Y69.891 E-.2473
G1 X193.579 Y69.876 E-.04586
G1 X193.777 Y69.861 E-.04586
;WIPE_END
G1 E-.3698 F2100
G1 Z.6 F720
G1 X195.718 Y69.158 F10800
G1 Z.2 F720
G1 E.8 F2100
M204 S800
;WIDTH:0.438612
G1 F1200
G1 X195.619 Y69.162 E.00327
M204 S1000
;WIPE_START
G1 F8640
G1 X195.718 Y69.158 E-.02296
;WIPE_END
G1 E-.77704 F2100
G1 Z.6 F720
G1 X193.819 Y72.398 F10800
G1 Z.2 F720
G1 E.8 F2100
M204 S800
;TYPE:Solid infill
;WIDTH:0.420668
G1 F1200
G1 X194.413 Y72.992 E.02639
G1 X194.413 Y73.526 E.01678
M73 P1 R101
G1 X193.455 Y72.568 E.04258
G1 X192.92 Y72.568 E.01678
G1 X194.413 Y74.06 E.06631
G1 X194.413 Y74.595 E.01678
G1 X192.386 Y72.568 E.09004
G1 X191.852 Y72.568 E.01678
G1 X194.413 Y75.129 E.11377
G1 X194.413 Y75.663 E.01678
G1 X191.318 Y72.568 E.1375
G1 X190.783 Y72.568 E.01678
G1 X194.413 Y76.197 E.16123
G1 X194.413 Y76.731 E.01678
G1 X190.249 Y72.568 E.18496
G1 X189.715 Y72.568 E.01678
G1 X194.413 Y77.266 E.20869
G1 X194.413 Y77.8 E.01678
G1 X189.181 Y72.568 E.23242
G1 X188.647 Y72.568 E.01678
G1 X194.413 Y78.334 E.25615
G1 X194.413 Y78.868 E.01678
G1 X187.943 Y72.398 E.28742
M204 S1000
;WIPE_START
G1 F8640
G1 X190.27 Y74.725 E-.76
;WIPE_END
G1 E-.04 F2100
G1 Z.6 F720
G1 X187.439 Y69.757 F10800
G1 Z.2 F720
G1 E.8 F2100
M204 S800
G1 F1200
G1 X187.174 Y69.493 E.01176
G1 X186.64 Y69.493 E.01678
G1 X187.009 Y69.861 E.01639
G1 X186.849 Y69.978 E.00621
G1 X186.741 Y70.127 E.0058
G1 X186.106 Y69.493 E.0282
G1 X185.572 Y69.493 E.01678
G1 X186.547 Y70.468 E.04335
G1 X186.433 Y70.822 E.01167
G1 X186.433 Y70.888 E.00208
G1 X185.037 Y69.493 E.06198
G1 X184.503 Y69.493 E.01678
G1 X186.461 Y71.45 E.08696
G1 X186.598 Y71.758 E.01058
G1 X186.841 Y72.093 E.013
G1 X186.985 Y72.247 E.00665
G1 X187.142 Y72.353 E.00593
G1 X187.48 Y72.469 E.01122
G1 X194.413 Y79.402 E.30799
G1 X194.413 Y79.937 E.01678
G1 X183.969 Y69.493 E.46393
G1 X183.435 Y69.493 E.01678
G1 X194.413 Y80.471 E.48766
G1 X194.413 Y81.005 E.01678
G1 X182.901 Y69.493 E.51139
G1 X182.366 Y69.493 E.01678
G1 X194.413 Y81.539 E.53512
G1 X194.413 Y82.074 E.01678
G1 X181.832 Y69.493 E.55885
G1 X181.298 Y69.493 E.01678
G1 X194.413 Y82.608 E.58258
G1 X194.413 Y83.142 E.01678
G1 X180.764 Y69.493 E.60631
G1 X180.229 Y69.493 E.01678
G1 X194.413 Y83.676 E.63004
G1 X194.413 Y84.21 E.01678
G1 X179.695 Y69.493 E.65377
G1 X179.161 Y69.493 E.01678
G1 X194.413 Y84.745 E.6775
G1 X194.413 Y85.279 E.01678
G1 X178.627 Y69.493 E.70123
G1 X178.093 Y69.493 E.01678
G1 X194.413 Y85.813 E.72496
G1 X194.413 Y86.347 E.01678
M73 C83
G1 X177.558 Y69.493 E.74869
G1 X177.024 Y69.493 E.01678
G1 X194.413 Y86.881 E.77242
G1 X194.413 Y87.416 E.01678
G1 X176.49 Y69.493 E.79615
G1 X175.956 Y69.493 E.01678
G1 X194.413 Y87.95 E.81988
G1 X194.413 Y88.484 E.01678
G1 X175.422 Y69.493 E.84361
G1 X174.887 Y69.493 E.01678
G1 X194.413 Y89.018 E.86734
G1 X194.413 Y89.553 E.01678
G1 X174.353 Y69.493 E.89107
G1 X173.819 Y69.493 E.01678
G1 X194.413 Y90.087 E.9148
G1 X194.413 Y90.621 E.01678
G1 X173.285 Y69.493 E.93853
G1 X172.75 Y69.493 E.01678
G1 X194.413 Y91.155 E.96226
G1 X194.413 Y91.689 E.01678
G1 X172.216 Y69.493 E.98599
G1 X171.682 Y69.493 E.01678
G1 X194.413 Y92.224 E1.00972
G1 X194.413 Y92.758 E.01678
G1 X171.148 Y69.493 E1.03345
G1 X170.614 Y69.493 E.01678
M73 P2 R101
G1 X194.413 Y93.292 E1.05718
G1 X194.413 Y93.826 E.01678
G1 X170.079 Y69.493 E1.08091
G1 X169.545 Y69.493 E.01678
G1 X194.413 Y94.361 E1.10464
G1 X194.413 Y94.895 E.01678
G1 X169.011 Y69.493 E1.12837
G1 X168.477 Y69.493 E.01678
G1 X194.413 Y95.429 E1.1521
G1 X194.413 Y95.963 E.01678
G1 X167.942 Y69.493 E1.17583
G1 X167.408 Y69.493 E.01678
G1 X194.413 Y96.497 E1.19956
G1 X194.413 Y97.032 E.01678
G1 X166.874 Y69.493 E1.22329
G1 X166.34 Y69.493 E.01678
G1 X194.413 Y97.566 E1.24702
G1 X194.413 Y98.1 E.01678
G1 X165.806 Y69.493 E1.27075
G1 X165.271 Y69.493 E.01678
G1 X194.413 Y98.634 E1.29448
G1 X194.413 Y99.168 E.01678
G1 X164.737 Y69.493 E1.31821
G1 X164.203 Y69.493 E.01678
G1 X194.413 Y99.703 E1.34194
G1 X194.413 Y100.237 E.01678
M73 P2 R100
G1 X163.669 Y69.493 E1.36567
G1 X163.135 Y69.493 E.01678
G1 X194.413 Y100.771 E1.3894
G1 X194.413 Y101.305 E.01678
G1 X162.6 Y69.493 E1.41313
G1 X162.066 Y69.493 E.01678
G1 X194.413 Y101.84 E1.43686
G1 X194.413 Y102.374 E.01678
G1 X161.532 Y69.493 E1.46059
G1 X160.998 Y69.493 E.01678
G1 X194.413 Y102.908 E1.48432
G1 X194.413 Y103.442 E.01678
G1 X160.463 Y69.493 E1.50805
G1 X159.929 Y69.493 E.01678
M73 C82
G1 X194.413 Y103.976 E1.53178
G1 X194.413 Y104.511 E.01678
G1 X159.395 Y69.493 E1.55551
G1 X158.861 Y69.493 E.01678
G1 X194.413 Y105.045 E1.57924
G1 X194.413 Y105.579 E.01678
G1 X158.327 Y69.493 E1.60297
G1 X157.792 Y69.493 E.01678
G1 X194.413 Y106.113 E1.6267
G1 X194.413 Y106.647 E.01678
G1 X157.258 Y69.493 E1.65043
G1 X156.724 Y69.493 E.01678
G1 X194.413 Y107.182 E1.67416
G1 X194.413 Y107.716 E.01678
G1 X156.19 Y69.493 E1.69789
G1 X155.656 Y69.493 E.01678
M73 P3 R100
G1 X194.413 Y108.25 E1.72162
G1 X194.413 Y108.784 E.01678
G1 X155.121 Y69.493 E1.74535
G1 X154.587 Y69.493 E.01678
G1 X194.413 Y109.319 E1.76908
G1 X194.413 Y109.853 E.01678
G1 X154.053 Y69.493 E1.79281
G1 X153.519 Y69.493 E.01678
G1 X194.413 Y110.387 E1.81654
G1 X194.413 Y110.921 E.01678
G1 X152.984 Y69.493 E1.84027
G1 X152.45 Y69.493 E.01678
G1 X194.413 Y111.455 E1.864
G1 X194.413 Y111.99 E.01678
G1 X151.916 Y69.493 E1.88773
G1 X151.382 Y69.493 E.01678
M73 P3 R99
G1 X194.413 Y112.524 E1.91146
G1 X194.413 Y113.058 E.01678
G1 X150.848 Y69.493 E1.93519
G1 X150.313 Y69.493 E.01678
G1 X194.413 Y113.592 E1.95892
G1 X194.413 Y114.127 E.01678
G1 X149.779 Y69.493 E1.98265
G1 X149.245 Y69.493 E.01678
G1 X194.413 Y114.661 E2.00638
G1 X194.413 Y115.195 E.01678
M73 C81
G1 X148.711 Y69.493 E2.03011
G1 X148.176 Y69.493 E.01678
G1 X194.413 Y115.729 E2.05384
G1 X194.413 Y116.263 E.01678
G1 X147.642 Y69.493 E2.07757
G1 X147.108 Y69.493 E.01678
G1 X194.413 Y116.798 E2.1013
G1 X194.413 Y117.332 E.01678
G1 X146.574 Y69.493 E2.12503
G1 X146.04 Y69.493 E.01678
G1 X194.413 Y117.866 E2.14876
G1 X194.413 Y118.4 E.01678
G1 X145.505 Y69.493 E2.17249
G1 X144.971 Y69.493 E.01678
M73 P4 R99
G1 X194.413 Y118.934 E2.19622
G1 X194.413 Y119.469 E.01678
G1 X144.437 Y69.493 E2.21995
G1 X143.903 Y69.493 E.01678
G1 X194.413 Y120.003 E2.24368
G1 X194.413 Y120.537 E.01678
G1 X143.369 Y69.493 E2.26741
