; generated by PrusaSlicer 2.5.1+win64 on 2023-04-04 at 00:24:03 UTC


;
;
; 

; external perimeters extrusion width = 0.45mm
; perimeters extrusion width = 0.45mm
; infill extrusion width = 0.45mm
; solid infill extrusion width = 0.45mm
; top infill extrusion width = 0.40mm
; support material extrusion width = 0.35mm
; first layer extrusion width = 0.42mm

M73 P0 R112
M73 C87
M201 X9000 Y9000 Z500 E10000 ; sets maximum accelerations, mm/sec^2
M203 X500 Y500 Z12 E120 ; sets maximum feedrates, mm / sec
M204 P2000 R1500 T2000 ; sets acceleration (P, T) and retract acceleration (R), mm/sec^2
M205 X10.00 Y10.00 Z0.20 E4.50 ; sets the jerk limits, mm/sec
M205 S0 T0 ; sets the minimum extruding and travel feed rate, mm/sec
M107
;TYPE:Custom
M862.3 P "MK2.5S" ; printer model check
M862.1 P0.4 ; nozzle diameter check
M115 U3.12.1 ; tell printer latest fw version
G90 ; use absolute coordinates
M83 ; extruder relative mode
M104 S215 ; set extruder temp
M140 S60 ; set bed temp
M190 S60 ; wait for bed temp
M109 S215 ; wait for extruder temp
G28 W ; home all without mesh bed level
G80 ; mesh bed leveling

G1 Z0.2 F720
G1 Y-3 F1000 ; go outside print area
G92 E0
G1 X60 E9 F1000 ; intro line
G1 X100 E12.5 F1000 ; intro line

G92 E0
G21 ; set units to millimeters
G90 ; use absolute coordinates
M83 ; use relative distances for extrusion
M900 K0.05 ; Filament gcode LA 1.5
M900 K30 ; Filament gcode LA 1.0
M107
;LAYER_CHANGE
;Z:0.2
;HEIGHT:0.2
;BEFORE_LAYER_CHANGE
G92 E0.0
;0.2


G1 E-.8 F2100
G1 Z.4 F720
;AFTER_LAYER_CHANGE
;0.2
G1 X53.635 Y66.792 F10800
G1 Z.2 F720
G1 E.8 F2100
M204 S800
;TYPE:Skirt/Brim
;WIDTH:0.42
G1 F1200
G1 X54.443 Y66.602 E.02602
G1 X195.141 Y58.779 E4.41829
G1 X205.273 Y58.775 E.31768
G1 X206.58 Y59.167 E.04278
G1 X207.456 Y60.213 E.04278
G1 X207.65 Y61.152 E.03008
G1 X207.639 Y148.476 E2.73798
G1 X207.247 Y149.783 E.04278
G1 X206.201 Y150.659 E.04278
G1 X205.262 Y150.853 E.03007
G1 X195.136 Y150.85 E.31748
G1 X54.449 Y143.399 E4.41732
G1 X53.165 Y142.939 E.04278
M73 C86
G1 X52.345 Y141.848 E.04278
G1 X52.198 Y141.025 E.02621
G1 X52.198 Y68.975 E2.25908
G1 X52.59 Y67.668 E.04278
M73 P0 R111
G1 X53.589 Y66.83 E.0409
M204 S1000
; printing object CardboardTray_Lid.stl id:0 copy 0
;WIPE_START
G1 F8640
G1 X54.443 Y66.602 E-.20408
G1 X56.847 Y66.468 E-.55592
;WIPE_END
G1 E-.04 F2100
G1 Z.6 F720
G1 X186.726 Y72.609 F10800
G1 Z.2 F720
G1 E.8 F2100
M204 S800
;TYPE:Perimeter
;WIDTH:0.419999
G1 F1200
G1 X186.878 Y72.7 E.00556
G1 X187.39 Y72.837 E.01661
G1 X194.238 Y72.837 E.21471
G1 X194.238 Y137.163 E2.01689
G1 X187.39 Y137.163 E.21471
G1 X186.878 Y137.3 E.01661
G1 X186.69 Y137.404 E.00673
G1 X186.366 Y137.822 E.0166
G1 X186.279 Y138.001 E.00624
G1 X186.258 Y138.546 E.01709
G1 X186.366 Y138.878 E.01096
G1 X186.595 Y139.194 E.01226
;WIDTH:0.467304
G1 X186.795 Y139.322 E.00835
;WIDTH:0.514609
G1 X186.994 Y139.449 E.00928
;WIDTH:0.561913
G1 X187.193 Y139.577 E.01021
;WIDTH:0.581881
G1 X187.39 Y139.618 E.00901
G1 X191.003 Y139.618 E.16191
G1 X190.671 Y139.857 E.01831
G1 X190.431 Y140.157 E.01723
G1 X187.39 Y140.157 E.13628
;WIDTH:0.58765
G1 X187.192 Y140.147 E.00896
G1 X187.093 Y140.17 E.0046
;WIDTH:0.545738
G1 X186.994 Y140.193 E.00425
;WIDTH:0.503825
G1 X186.895 Y140.215 E.00389
;WIDTH:0.461912
G1 X186.796 Y140.238 E.00354
;WIDTH:0.419999
G1 X55.362 Y140.238 E4.12103
G1 X55.362 Y69.762 E2.20972
G1 X186.746 Y69.762 E4.11943
;WIDTH:0.46047
G1 X186.907 Y69.782 E.00564
;WIDTH:0.50094
G1 X187.068 Y69.803 E.00618
;WIDTH:0.541411
G1 X187.229 Y69.823 E.00673
;WIDTH:0.58188
G1 X187.39 Y69.843 E.00728
G1 X190.431 Y69.843 E.13628
G1 X190.671 Y70.143 E.01723
G1 X191.003 Y70.382 E.01831
;WIDTH:0.581881
G1 X187.39 Y70.382 E.16191
;WIDTH:0.588822
G1 X187.278 Y70.388 E.00511
G1 X187.178 Y70.441 E.00513
;WIDTH:0.546617
G1 X187.078 Y70.494 E.00473
;WIDTH:0.504411
G1 X186.978 Y70.547 E.00434
;WIDTH:0.462205
G1 X186.878 Y70.6 E.00394
;WIDTH:0.419999
G1 X186.595 Y70.806 E.01096
G1 X186.366 Y71.122 E.01226
G1 X186.258 Y71.454 E.01096
G1 X186.258 Y71.846 E.01226
G1 X186.321 Y72.105 E.00837
G1 X186.675 Y72.578 E.01853
M204 S1000
;WIPE_START
G1 F8640
G1 X186.878 Y72.7 E-.05477
G1 X187.39 Y72.837 E-.12232
G1 X189.914 Y72.837 E-.58291
;WIPE_END
G1 E-.04 F2100
G1 Z.6 F720
G1 X193.659 Y70.382 F10800
G1 Z.2 F720
G1 E.8 F2100
M204 S800
;WIDTH:0.58188
G1 F1200
G1 X193.99 Y70.143 E.01831
G1 X194.23 Y69.843 E.01723
G1 X194.64 Y69.843 E.01838
G1 X194.719 Y69.922 E.005
G1 X194.788 Y69.957 E.00344
;WIDTH:0.547674
G1 X194.857 Y69.991 E.00323
;WIDTH:0.513467
G1 X194.925 Y70.026 E.00301
;WIDTH:0.47926
G1 X195.12 Y70.037 E.00709
;WIDTH:0.430695
G1 X195.315 Y70.047 E.0063
;WIDTH:0.419999
G1 X195.711 Y69.918 E.01304
G1 X195.993 Y69.662 E.01195
G1 X196.06 Y69.396 E.00862
G1 X196.06 Y61.939 E.23379
G1 X204.486 Y61.939 E.26419
G1 X204.486 Y66.152 E.13209
G1 X204.486 Y70.365 E.13209
G1 X195.8 Y70.365 E.27235
G1 X195.221 Y70.387 E.01816
;WIDTH:0.410916
G1 X195.116 Y70.402 E.00326
;WIDTH:0.445088
G1 X195.01 Y70.418 E.00356
;WIDTH:0.47926
G1 X194.905 Y70.433 E.00386
;WIDTH:0.513467
G1 X194.78 Y70.416 E.00495
;WIDTH:0.547674
G1 X194.654 Y70.399 E.00531
;WIDTH:0.58188
G1 X194.529 Y70.382 E.00567
G1 X193.719 Y70.382 E.03631
M204 S1000
;WIPE_START
G1 F8640
G1 X193.99 Y70.143 E-.0835
G1 X194.23 Y69.843 E-.08878
G1 X194.64 Y69.843 E-.09469
G1 X194.719 Y69.922 E-.02577
G1 X194.788 Y69.957 E-.01775
G1 X194.857 Y69.991 E-.01775
G1 X194.925 Y70.026 E-.01775
G1 X195.12 Y70.037 E-.04509
G1 X195.315 Y70.047 E-.04509
G1 X195.711 Y69.918 E-.09605
G1 X195.993 Y69.662 E-.08801
G1 X196.06 Y69.396 E-.06345
G1 X196.06 Y69.065 E-.0763
;WIPE_END
G1 E-.04 F2100
G1 Z.6 F720
G1 X193.659 Y139.618 F10800
G1 Z.2 F720
G1 E.8 F2100
M204 S800
;WIDTH:0.581881
G1 F1200
G1 X194.576 Y139.608 E.04111
;WIDTH:0.56238
G1 X194.787 Y139.586 E.00918
;WIDTH:0.518616
G1 X194.999 Y139.565 E.0084
;WIDTH:0.474852
G1 X195.21 Y139.543 E.00763
;WIDTH:0.431088
G1 X195.7 Y139.494 E.01589
;WIDTH:0.419999
G1 X195.857 Y139.396 E.00583
G1 X195.917 Y139.263 E.00456
G1 X204.475 Y139.263 E.26831
G1 X204.475 Y147.689 E.26419
G1 X196.049 Y147.689 E.26419
G1 X196.049 Y140.615 E.22178
G1 X195.857 Y140.191 E.01459
G1 X195.7 Y140.093 E.00583
;WIDTH:0.431088
G1 X195.21 Y139.931 E.01665
;WIDTH:0.474852
G1 X195.06 Y139.971 E.00558
;WIDTH:0.518616
G1 X194.91 Y140.011 E.00615
;WIDTH:0.56238
G1 X194.76 Y140.052 E.00671
;WIDTH:0.581881
G1 X194.64 Y140.157 E.00713
G1 X194.23 Y140.157 E.01838
G1 X193.99 Y139.857 E.01723
G1 X193.707 Y139.653 E.01562
M204 S1000
;WIPE_START
G1 F8640
G1 X194.576 Y139.608 E-.20083
G1 X194.787 Y139.586 E-.04905
G1 X194.999 Y139.565 E-.04905
G1 X195.21 Y139.543 E-.04905
G1 X195.7 Y139.494 E-.11367
G1 X195.857 Y139.396 E-.04294
G1 X195.917 Y139.263 E-.03362
G1 X196.878 Y139.263 E-.22179
;WIPE_END
G1 E-.04 F2100
G1 Z.6 F720
G1 X186.91 Y72.275 F10800
G1 Z.2 F720
G1 E.8 F2100
M204 S800
;TYPE:External perimeter
;WIDTH:0.419999
G1 F1200
G1 X186.932 Y72.307 E.00122
G1 X187.39 Y72.46 E.01514
G1 X194.615 Y72.46 E.22654
G1 X194.615 Y137.54 E2.04053
G1 X187.39 Y137.54 E.22654
G1 X186.964 Y137.672 E.014
G1 X186.656 Y138.068 E.01573
G1 X186.635 Y138.546 E.01499
G1 X186.671 Y138.656 E.00365
G1 X186.9 Y138.973 E.01226
G1 X186.995 Y139.041 E.00365
G1 X187.39 Y139.16 E.01294
G1 X195.483 Y139.16 E.25376
G1 X195.608 Y139.113 E.00418
G1 X195.672 Y138.886 E.00739
G1 X204.852 Y138.886 E.28783
G1 X204.852 Y148.066 E.28783
G1 X195.672 Y148.066 E.28783
G1 X195.672 Y140.615 E.23361
G1 X195.608 Y140.474 E.00486
G1 X195.21 Y140.313 E.01346
G1 X195.077 Y140.369 E.00452
G1 X194.83 Y140.615 E.01092
G1 X193.968 Y140.615 E.02702
G1 X193.638 Y140.149 E.01792
G1 X193.261 Y139.917 E.01388
G1 X192.866 Y139.84 E.0126
G1 X191.795 Y139.84 E.03358
G1 X191.463 Y139.894 E.01056
G1 X191.024 Y140.149 E.01592
G1 X190.693 Y140.615 E.01792
G1 X54.985 Y140.615 E4.25502
G1 X54.985 Y69.385 E2.23336
M73 P1 R111
G1 X190.693 Y69.385 E4.25502
G1 X191.024 Y69.851 E.01792
G1 X191.401 Y70.083 E.01389
G1 X191.795 Y70.16 E.0126
G1 X192.866 Y70.16 E.03358
G1 X193.199 Y70.106 E.01056
G1 X193.638 Y69.851 E.01592
G1 X193.968 Y69.385 E.01792
G1 X194.83 Y69.385 E.02702
G1 X195.043 Y69.598 E.00945
G1 X195.216 Y69.698 E.00626
G1 X195.566 Y69.57 E.01168
G1 X195.661 Y69.485 E.00398
G1 X195.683 Y69.396 E.00287
G1 X195.683 Y61.562 E.24561
G1 X204.863 Y61.562 E.28783
G1 X204.863 Y70.742 E.28783
G1 X195.8 Y70.742 E.28417
G1 X195.114 Y70.765 E.02151
M73 C85
G1 X195.069 Y70.84 E.00274
G1 X187.39 Y70.84 E.24078
G1 X186.995 Y70.959 E.01294
G1 X186.9 Y71.027 E.00365
G1 X186.671 Y71.344 E.01226
G1 X186.635 Y71.454 E.00365
G1 X186.642 Y71.897 E.01387
G1 X186.875 Y72.226 E.01265
M204 S1000
G1 X186.89 Y72.309 F10800
;WIPE_START
G1 F8640
G1 X186.932 Y72.307 E-.02285
G1 X187.39 Y72.46 E-.11147
G1 X190.1 Y72.46 E-.62567
;WIPE_END
G1 E-.04 F2100
G1 Z.6 F720
G1 X191.401 Y70.47 F10800
G1 Z.2 F720
G1 E.8 F2100
M204 S800
;TYPE:Perimeter
;WIDTH:0.405116
G1 F1200
G1 X191.598 Y70.485 E.00595
;WIDTH:0.375479
G1 X191.795 Y70.5 E.00546
;WIDTH:0.345842
G1 X192.866 Y70.5 E.02698
;WIDTH:0.375685
G1 X193.064 Y70.485 E.0055
;WIDTH:0.405528
G1 X193.263 Y70.47 E.00599
M204 S1000
;WIPE_START
G1 F8640
G1 X193.064 Y70.485 E-.04589
G1 X192.866 Y70.5 E-.04589
G1 X191.795 Y70.5 E-.2473
G1 X191.598 Y70.485 E-.04561
G1 X191.401 Y70.47 E-.04561
;WIPE_END
G1 E-.36969 F2100
G1 Z.6 F720
G1 X193.26 Y139.53 F10800
G1 Z.2 F720
G1 E.8 F2100
M204 S800
;WIDTH:0.40512
G1 F1200
G1 X193.063 Y139.515 E.00595
;WIDTH:0.375481
G1 X192.866 Y139.5 E.00546
;WIDTH:0.345842
G1 X191.795 Y139.5 E.02698
;WIDTH:0.375685
G1 X191.597 Y139.515 E.0055
;WIDTH:0.405528
G1 X191.399 Y139.53 E.00599
M204 S1000
;WIPE_START
G1 F8640
G1 X191.597 Y139.515 E-.04589
G1 X191.795 Y139.5 E-.04589
G1 X192.866 Y139.5 E-.2473
G1 X193.063 Y139.515 E-.04562
G1 X193.26 Y139.53 E-.04562
;WIPE_END
G1 E-.36969 F2100
G1 Z.6 F720
G1 X203.53 Y139.433 F10800
G1 Z.2 F720
G1 E.8 F2100
M204 S800
;TYPE:Solid infill
;WIDTH:0.425899
G1 F1200
G1 X204.135 Y140.038 E.02725
G1 X204.135 Y140.579 E.01725
G1 X203.158 Y139.602 E.044
G1 X202.617 Y139.602 E.01725
G1 X204.135 Y141.121 E.06839
G1 X204.135 Y141.662 E.01725
G1 X202.075 Y139.602 E.09278
G1 X201.534 Y139.602 E.01725
G1 X204.135 Y142.204 E.11718
G1 X204.135 Y142.746 E.01725
G1 X200.992 Y139.602 E.14157
G1 X200.45 Y139.602 E.01725
G1 X204.135 Y143.287 E.16596
G1 X204.135 Y143.829 E.01725
G1 X199.909 Y139.602 E.19035
G1 X199.367 Y139.602 E.01725
M73 P1 R110
G1 X204.135 Y144.371 E.21474
G1 X204.135 Y144.912 E.01725
G1 X198.825 Y139.602 E.23914
G1 X198.284 Y139.602 E.01725
G1 X204.135 Y145.454 E.26353
G1 X204.135 Y145.995 E.01725
G1 X197.742 Y139.602 E.28792
G1 X197.201 Y139.602 E.01725
G1 X204.135 Y146.537 E.31231
G1 X204.135 Y147.079 E.01725
G1 X196.659 Y139.602 E.3367
G1 X196.118 Y139.603 E.01723
G1 X203.865 Y147.349 E.34887
G1 X203.323 Y147.349 E.01725
G1 X196.25 Y140.277 E.31853
G1 X196.388 Y140.583 E.0107
G1 X196.388 Y140.956 E.0119
G1 X202.781 Y147.349 E.28791
G1 X202.24 Y147.349 E.01725
G1 X196.388 Y141.498 E.26352
G1 X196.388 Y142.04 E.01725
G1 X201.698 Y147.349 E.23913
G1 X201.156 Y147.349 E.01725
G1 X196.388 Y142.581 E.21474
G1 X196.388 Y143.123 E.01725
G1 X200.615 Y147.349 E.19035
G1 X200.073 Y147.349 E.01725
G1 X196.388 Y143.664 E.16595
G1 X196.388 Y144.206 E.01725
G1 X199.532 Y147.349 E.14156
G1 X198.99 Y147.349 E.01725
G1 X196.388 Y144.748 E.11717
G1 X196.388 Y145.289 E.01725
G1 X198.448 Y147.349 E.09278
G1 X197.907 Y147.349 E.01725
G1 X196.388 Y145.831 E.06839
G1 X196.388 Y146.372 E.01725
G1 X197.365 Y147.349 E.044
G1 X196.824 Y147.349 E.01725
G1 X196.219 Y146.744 E.02725
M204 S1000
;WIPE_START
G1 F8640
G1 X196.824 Y147.349 E-.19755
G1 X197.365 Y147.349 E-.12506
G1 X196.388 Y146.372 E-.319
G1 X196.388 Y145.86 E-.11838
;WIPE_END
G1 E-.04 F2100
G1 Z.6 F720
G1 X203.538 Y62.109 F10800
G1 Z.2 F720
G1 E.8 F2100
M204 S800
;WIDTH:0.427652
G1 F1200
G1 X204.146 Y62.718 E.02754
G1 X204.146 Y63.262 E.01741
G1 X203.163 Y62.279 E.04448
G1 X202.619 Y62.279 E.01741
G1 X204.146 Y63.806 E.0691
G1 X204.146 Y64.35 E.01741
G1 X202.075 Y62.279 E.09371
G1 X201.531 Y62.279 E.01741
G1 X204.146 Y64.894 E.11833
G1 X204.146 Y65.438 E.01741
G1 X200.987 Y62.279 E.14295
G1 X200.443 Y62.279 E.01741
G1 X204.146 Y65.982 E.16756
G1 X204.146 Y66.526 E.01741
G1 X199.899 Y62.279 E.19218
G1 X199.354 Y62.279 E.01741
G1 X204.146 Y67.071 E.21679
G1 X204.146 Y67.615 E.01741
G1 X198.81 Y62.279 E.24141
G1 X198.266 Y62.279 E.01741
G1 X204.146 Y68.159 E.26602
G1 X204.146 Y68.703 E.01741
G1 X197.722 Y62.279 E.29064
G1 X197.178 Y62.279 E.01741
G1 X204.146 Y69.247 E.31525
G1 X204.146 Y69.791 E.01741
G1 X196.634 Y62.279 E.33987
G1 X196.399 Y62.279 E.00751
G1 X196.399 Y62.588 E.00989
G1 X203.837 Y70.026 E.3365
G1 X203.293 Y70.026 E.01741
G1 X196.399 Y63.132 E.31188
G1 X196.399 Y63.676 E.01741
G1 X202.749 Y70.026 E.28727
G1 X202.205 Y70.026 E.01741
G1 X196.399 Y64.22 E.26265
G1 X196.399 Y64.764 E.01741
G1 X201.661 Y70.026 E.23804
G1 X201.117 Y70.026 E.01741
G1 X196.399 Y65.308 E.21342
G1 X196.399 Y65.853 E.01741
G1 X200.573 Y70.026 E.18881
G1 X200.028 Y70.026 E.01741
G1 X196.399 Y66.397 E.16419
G1 X196.399 Y66.941 E.01741
G1 X199.484 Y70.026 E.13957
G1 X198.94 Y70.026 E.01741
G1 X196.399 Y67.485 E.11496
G1 X196.399 Y68.029 E.01741
G1 X198.396 Y70.026 E.09034
G1 X197.852 Y70.026 E.01741
G1 X196.399 Y68.573 E.06573
G1 X196.399 Y69.117 E.01741
G1 X197.308 Y70.026 E.04111
G1 X196.764 Y70.026 E.01741
G1 X196.35 Y69.612 E.01873
G1 X196.295 Y69.832 E.00727
G1 X196.154 Y69.96 E.00608
G1 X196.389 Y70.196 E.01066
M204 S1000
;WIPE_START
G1 F8640
G1 X196.154 Y69.96 E-.07696
G1 X196.295 Y69.832 E-.04389
G1 X196.35 Y69.612 E-.05247
G1 X196.764 Y70.026 E-.13521
G1 X197.308 Y70.026 E-.12563
G1 X196.399 Y69.117 E-.29674
G1 X196.399 Y68.991 E-.02909
;WIPE_END
G1 E-.04 F2100
G1 Z.6 F720
G1 X193.305 Y73.007 F10800
G1 Z.2 F720
G1 E.8 F2100
M204 S800
;WIDTH:0.420668
G1 F1200
G1 X193.899 Y73.601 E.02639
G1 X193.899 Y74.135 E.01678
G1 X192.94 Y73.176 E.04258
G1 X192.406 Y73.176 E.01678
G1 X193.899 Y74.669 E.06631
G1 X193.899 Y75.203 E.01678
G1 X191.872 Y73.176 E.09004
G1 X191.337 Y73.176 E.01678
G1 X193.899 Y75.738 E.11377
G1 X193.899 Y76.272 E.01678
G1 X190.803 Y73.176 E.1375
G1 X190.269 Y73.176 E.01678
G1 X193.899 Y76.806 E.16123
G1 X193.899 Y77.34 E.01678
G1 X189.735 Y73.176 E.18496
G1 X189.201 Y73.176 E.01678
G1 X193.899 Y77.874 E.20869
G1 X193.899 Y78.409 E.01678
G1 X188.666 Y73.176 E.23242
G1 X188.132 Y73.176 E.01678
G1 X193.899 Y78.943 E.25615
G1 X193.899 Y79.477 E.01678
G1 X187.428 Y73.007 E.28742
M204 S1000
;WIPE_START
G1 F8640
G1 X189.756 Y75.334 E-.76
;WIPE_END
G1 E-.04 F2100
G1 Z.6 F720
G1 X186.925 Y70.366 F10800
G1 Z.2 F720
G1 E.8 F2100
M204 S800
G1 F1200
G1 X186.66 Y70.101 E.01176
G1 X186.126 Y70.101 E.01678
G1 X186.494 Y70.47 E.01639
G1 X186.335 Y70.587 E.00621
G1 X186.226 Y70.736 E.0058
G1 X185.591 Y70.101 E.0282
G1 X185.057 Y70.101 E.01678
G1 X186.033 Y71.077 E.04335
G1 X185.918 Y71.431 E.01167
G1 X185.918 Y71.497 E.00208
G1 X184.523 Y70.101 E.06198
G1 X183.989 Y70.101 E.01678
G1 X185.946 Y72.059 E.08696
G1 X186.083 Y72.367 E.01058
G1 X186.326 Y72.701 E.013
G1 X186.471 Y72.856 E.00665
G1 X186.627 Y72.962 E.00593
G1 X186.965 Y73.078 E.01122
G1 X193.899 Y80.011 E.30799
G1 X193.899 Y80.546 E.01678
G1 X183.454 Y70.101 E.46393
G1 X182.92 Y70.101 E.01678
G1 X193.899 Y81.08 E.48766
G1 X193.899 Y81.614 E.01678
G1 X182.386 Y70.101 E.51139
G1 X181.852 Y70.101 E.01678
G1 X193.899 Y82.148 E.53512
G1 X193.899 Y82.682 E.01678
G1 X181.318 Y70.101 E.55885
G1 X180.783 Y70.101 E.01678
G1 X193.899 Y83.217 E.58258
G1 X193.899 Y83.751 E.01678
G1 X180.249 Y70.101 E.60631
G1 X179.715 Y70.101 E.01678
G1 X193.899 Y84.285 E.63004
G1 X193.899 Y84.819 E.01678
G1 X179.181 Y70.101 E.65377
G1 X178.646 Y70.101 E.01678
G1 X193.899 Y85.354 E.6775
G1 X193.899 Y85.888 E.01678
G1 X178.112 Y70.101 E.70123
G1 X177.578 Y70.101 E.01678
G1 X193.899 Y86.422 E.72496
G1 X193.899 Y86.956 E.01678
G1 X177.044 Y70.101 E.74869
G1 X176.51 Y70.101 E.01678
G1 X193.899 Y87.49 E.77242
G1 X193.899 Y88.025 E.01678
G1 X175.975 Y70.101 E.79615
G1 X175.441 Y70.101 E.01678
G1 X193.899 Y88.559 E.81988
