; generated by PrusaSlicer 2.5.1+win64 on 2023-04-04 at 00:33:00 UTC


;
;
; 

; external perimeters extrusion width = 0.45mm
; perimeters extrusion width = 0.45mm
; infill extrusion width = 0.45mm
; solid infill extrusion width = 0.45mm
; top infill extrusion width = 0.40mm
; first layer extrusion width = 0.42mm

M73 P0 R140
M201 X9000 Y9000 Z500 E10000 ; sets maximum accelerations, mm/sec^2
M203 X500 Y500 Z12 E120 ; sets maximum feedrates, mm / sec
M204 P2000 R1500 T2000 ; sets acceleration (P, T) and retract acceleration (R), mm/sec^2
M205 X10.00 Y10.00 Z0.20 E4.50 ; sets the jerk limits, mm/sec
M205 S0 T0 ; sets the minimum extruding and travel feed rate, mm/sec
M107
;TYPE:Custom
M862.3 P "MK2.5S" ; printer model check
M862.1 P0.4 ; nozzle diameter check
M115 U3.12.1 ; tell printer latest fw version
G90 ; use absolute coordinates
M83 ; extruder relative mode
M104 S215 ; set extruder temp
M140 S60 ; set bed temp
M190 S60 ; wait for bed temp
M109 S215 ; wait for extruder temp
G28 W ; home all without mesh bed level
G80 ; mesh bed leveling

G1 Z0.2 F720
G1 Y-3 F1000 ; go outside print area
G92 E0
G1 X60 E9 F1000 ; intro line
G1 X100 E12.5 F1000 ; intro line

G92 E0
G21 ; set units to millimeters
G90 ; use absolute coordinates
M83 ; use relative distances for extrusion
M900 K0.05 ; Filament gcode LA 1.5
M900 K30 ; Filament gcode LA 1.0
M107
;LAYER_CHANGE
;Z:0.2
;HEIGHT:0.2
;BEFORE_LAYER_CHANGE
G92 E0.0
;0.2


M73 P0 R139
G1 E-.8 F2100
G1 Z.4 F720
;AFTER_LAYER_CHANGE
;0.2
G1 X64.373 Y15.966 F10800
G1 Z.2 F720
G1 E.8 F2100
M204 S800
;TYPE:Skirt/Brim
;WIDTH:0.42
G1 F1200
G1 X64.944 Y14.727 E.04278
G1 X66.726 Y13.923 E.0613
G1 X174.726 Y13.923 E3.38626
G1 X176.407 Y14.619 E.05704
G1 X186.407 Y24.619 E.44342
G1 X186.877 Y25.287 E.0256
G1 X194.227 Y40.893 E.54087
G1 X195.067 Y42.895 E.06807
G1 X195.251 Y43.813 E.02934
G1 X195.233 Y118.326 E2.33631
G1 X187.085 Y183.993 E2.07472
G1 X186.407 Y185.381 E.04844
G1 X176.407 Y195.381 E.44342
G1 X174.726 Y196.077 E.05704
G1 X66.726 Y196.077 E3.38626
G1 X65.419 Y195.685 E.04278
G1 X64.373 Y194.034 E.0613
G1 X54.749 Y126.1 E2.1513
G1 X54.773 Y83.566 E1.33363
G1 X64.364 Y16.025 E2.13894
M204 S1000
; printing object TI4_AgendaHolder.stl id:0 copy 0
;WIPE_START
G1 F8640
G1 X64.944 Y14.727 E-.32835
G1 X66.648 Y13.958 E-.43165
;WIPE_END
G1 E-.04 F2100
G1 Z.6 F720
G1 X184.564 Y120.418 F10800
G1 Z.2 F720
G1 E.8 F2100
M204 S800
;TYPE:Perimeter
;WIDTH:0.419999
G1 F1200
G1 X184.408 Y120.413 E.00487
G1 X184.157 Y120.525 E.00863
G1 X184.011 Y120.695 E.00704
G1 X183.939 Y120.965 E.00876
G1 X183.939 Y159.602 E1.21144
G1 X183.215 Y159.259 E.02512
G1 X182.996 Y159.206 E.00709
G1 X180.907 Y159.123 E.06552
G1 X180.684 Y159.159 E.00709
G1 X178.731 Y159.901 E.06552
G1 X178.539 Y160.022 E.00709
G1 X177.033 Y161.47 E.06552
G1 X176.905 Y161.655 E.00704
G1 X176.085 Y163.579 E.06558
G1 X176.04 Y163.801 E.00709
G1 X176.04 Y165.891 E.06552
G1 X176.085 Y166.112 E.00709
G1 X176.904 Y168.035 E.06552
G1 X177.033 Y168.221 E.00709
G1 X178.539 Y169.669 E.06552
G1 X178.731 Y169.79 E.00709
G1 X180.684 Y170.532 E.06552
G1 X180.907 Y170.569 E.00709
G1 X182.996 Y170.486 E.06552
G1 X183.215 Y170.432 E.00709
G1 X183.939 Y170.089 E.02512
G1 X183.939 Y183.01 E.40513
G1 X181.985 Y183.27 E.0618
G1 X181.843 Y183.308 E.00461
G1 X179.644 Y184.219 E.07465
G1 X179.233 Y184.421 E.01434
G1 X177.652 Y185.634 E.0625
G1 X177.004 Y186.175 E.02648
G1 X175.554 Y188.064 E.07465
G1 X175.309 Y188.451 E.01435
G1 X174.398 Y190.65 E.07465
G1 X174.268 Y191.089 E.01435
G1 X174.028 Y192.913 E.05768
G1 X148.218 Y192.913 E.80924
G1 X147.925 Y190.875 E.06456
G1 X147.787 Y190.422 E.01485
G1 X146.71 Y188.063 E.0813
G1 X146.451 Y187.667 E.01485
G1 X144.753 Y185.707 E.0813
G1 X144.393 Y185.399 E.01485
G1 X142.211 Y183.997 E.0813
G1 X141.78 Y183.802 E.01485
G1 X139.292 Y183.071 E.0813
G1 X138.827 Y183.005 E.01471
G1 X136.23 Y183.005 E.08145
G1 X135.761 Y183.071 E.01485
G1 X133.273 Y183.802 E.0813
G1 X132.841 Y183.997 E.01485
G1 X130.66 Y185.399 E.0813
G1 X130.3 Y185.707 E.01485
G1 X128.602 Y187.667 E.0813
G1 X128.343 Y188.063 E.01485
G1 X127.266 Y190.422 E.0813
G1 X127.127 Y190.875 E.01485
G1 X126.834 Y192.913 E.06456
G1 X101.018 Y192.913 E.80943
G1 X100.725 Y190.875 E.06456
G1 X100.587 Y190.422 E.01485
G1 X99.51 Y188.063 E.0813
G1 X99.251 Y187.667 E.01485
G1 X97.553 Y185.707 E.0813
G1 X97.193 Y185.399 E.01485
G1 X95.011 Y183.997 E.0813
G1 X94.58 Y183.802 E.01485
G1 X92.092 Y183.071 E.0813
G1 X91.623 Y183.005 E.01485
G1 X89.03 Y183.005 E.0813
G1 X88.561 Y183.071 E.01485
G1 X86.073 Y183.802 E.0813
G1 X85.641 Y183.997 E.01485
G1 X83.46 Y185.399 E.0813
G1 X83.1 Y185.707 E.01485
G1 X81.402 Y187.667 E.0813
G1 X81.143 Y188.063 E.01485
G1 X80.066 Y190.422 E.0813
G1 X79.927 Y190.875 E.01485
G1 X79.634 Y192.913 E.06456
G1 X67.41 Y192.913 E.3833
G1 X57.913 Y126.044 E2.11765
G1 X57.913 Y83.956 E1.31966
G1 X67.41 Y17.087 E2.11765
G1 X79.634 Y17.087 E.3833
G1 X79.927 Y19.125 E.06456
G1 X80.066 Y19.578 E.01485
G1 X81.143 Y21.937 E.0813
G1 X81.402 Y22.333 E.01485
G1 X83.1 Y24.293 E.0813
G1 X83.46 Y24.601 E.01485
G1 X85.641 Y26.003 E.0813
G1 X86.073 Y26.198 E.01485
G1 X88.561 Y26.929 E.0813
G1 X89.03 Y26.995 E.01485
G1 X91.623 Y26.995 E.0813
G1 X92.092 Y26.929 E.01485
G1 X94.58 Y26.198 E.0813
G1 X95.011 Y26.003 E.01485
G1 X97.193 Y24.601 E.0813
G1 X97.553 Y24.293 E.01486
G1 X99.251 Y22.333 E.0813
G1 X99.51 Y21.937 E.01485
G1 X100.587 Y19.578 E.0813
G1 X100.725 Y19.125 E.01485
G1 X101.018 Y17.087 E.06456
G1 X126.834 Y17.087 E.80943
G1 X127.127 Y19.125 E.06456
M73 P0 R138
G1 X127.266 Y19.578 E.01485
G1 X128.343 Y21.937 E.0813
G1 X128.602 Y22.333 E.01485
G1 X130.3 Y24.293 E.0813
G1 X130.66 Y24.601 E.01485
G1 X132.841 Y26.003 E.0813
G1 X133.273 Y26.198 E.01486
G1 X135.761 Y26.929 E.0813
G1 X136.225 Y26.995 E.01469
G1 X138.823 Y26.995 E.08147
G1 X139.292 Y26.929 E.01485
G1 X141.78 Y26.198 E.0813
G1 X142.211 Y26.003 E.01484
G1 X144.393 Y24.601 E.08132
G1 X144.753 Y24.293 E.01485
G1 X146.451 Y22.333 E.0813
G1 X146.71 Y21.937 E.01485
G1 X147.787 Y19.578 E.0813
G1 X147.925 Y19.125 E.01485
G1 X148.218 Y17.087 E.06456
G1 X174.028 Y17.087 E.80924
G1 X174.268 Y18.911 E.05768
G1 X174.398 Y19.35 E.01435
G1 X175.309 Y21.549 E.07465
G1 X175.554 Y21.936 E.01435
G1 X177.004 Y23.825 E.07465
G1 X177.344 Y24.13 E.01435
G1 X179.233 Y25.579 E.07465
G1 X179.644 Y25.781 E.01434
G1 X181.843 Y26.692 E.07465
G1 X181.985 Y26.73 E.00461
G1 X183.939 Y26.99 E.0618
G1 X183.941 Y40.913 E.43656
G1 X184.028 Y41.179 E.00878
G1 X184.226 Y41.367 E.00856
G1 X184.456 Y41.439 E.00754
G1 X184.73 Y41.394 E.00873
G1 X186.79 Y40.498 E.07043
G1 X188.541 Y40.474 E.05488
G1 X190.165 Y41.127 E.05488
G1 X191.411 Y42.356 E.05488
G1 X192.087 Y43.971 E.05488
G1 X192.087 Y45.721 E.05488
G1 X191.411 Y47.336 E.05488
G1 X190.165 Y48.565 E.05488
G1 X188.541 Y49.218 E.05488
G1 X186.79 Y49.193 E.05488
G1 X184.634 Y48.266 E.0736
G1 X184.412 Y48.258 E.00696
G1 X184.161 Y48.368 E.0086
G1 X184.012 Y48.538 E.00708
G1 X183.939 Y48.816 E.009
G1 X183.939 Y87.756 E1.22095
G1 X183.215 Y87.414 E.02512
G1 X182.996 Y87.36 E.00709
G1 X180.907 Y87.277 E.06552
G1 X180.684 Y87.313 E.00709
G1 X178.731 Y88.055 E.06552
G1 X178.539 Y88.176 E.00709
G1 X177.033 Y89.625 E.06552
G1 X176.906 Y89.806 E.00693
G1 X176.085 Y91.733 E.06569
G1 X176.04 Y91.955 E.00709
G1 X176.04 Y94.045 E.06552
G1 X176.085 Y94.267 E.00709
G1 X176.904 Y96.189 E.06552
G1 X177.033 Y96.375 E.00709
G1 X178.539 Y97.824 E.06552
G1 X178.731 Y97.945 E.00709
G1 X180.684 Y98.687 E.06552
G1 X180.907 Y98.723 E.00709
G1 X182.996 Y98.64 E.06552
G1 X183.215 Y98.586 E.00709
G1 X183.939 Y98.244 E.02512
G1 X183.94 Y113.058 E.46451
G1 X184.026 Y113.33 E.00894
G1 X184.222 Y113.519 E.00853
G1 X184.456 Y113.593 E.00769
G1 X184.73 Y113.548 E.00873
G1 X186.79 Y112.652 E.07043
G1 X188.541 Y112.628 E.05488
G1 X190.165 Y113.281 E.05488
G1 X191.411 Y114.51 E.05488
G1 X192.087 Y116.125 E.05488
G1 X192.087 Y117.875 E.05488
G1 X191.411 Y119.49 E.05488
G1 X190.165 Y120.719 E.05488
G1 X188.541 Y121.372 E.05488
G1 X186.79 Y121.348 E.05488
G1 X184.624 Y120.419 E.07391
M204 S1000
G1 X184.548 Y120.787 F10800
M204 S800
;TYPE:External perimeter
G1 F1200
G1 X184.389 Y120.822 E.00509
G1 X184.316 Y120.968 E.00511
G1 X184.316 Y160.198 E1.23003
G1 X183.054 Y159.6 E.0438
G1 X182.981 Y159.582 E.00236
G1 X180.892 Y159.5 E.06552
G1 X180.818 Y159.512 E.00236
G1 X178.864 Y160.254 E.06552
G1 X178.801 Y160.294 E.00236
G1 X177.294 Y161.742 E.06552
G1 X177.252 Y161.802 E.00227
G1 X176.417 Y163.801 E.06793
G1 X176.432 Y165.965 E.06784
G1 X176.86 Y166.969 E.03423
G1 X177.294 Y167.949 E.03362
G1 X178.864 Y169.438 E.06784
G1 X180.818 Y170.18 E.06552
G1 X180.892 Y170.192 E.00236
G1 X182.981 Y170.109 E.06552
G1 X183.054 Y170.091 E.00236
G1 X184.316 Y169.494 E.0438
G1 X184.316 Y183.341 E.43417
G1 X181.988 Y183.657 E.07368
G1 X179.788 Y184.568 E.07465
G1 X179.463 Y184.72 E.01126
G1 X177.881 Y185.933 E.0625
G1 X177.303 Y186.405 E.0234
G1 X175.853 Y188.294 E.07465
G1 X175.658 Y188.595 E.01127
G1 X174.747 Y190.795 E.07465
G1 X174.642 Y191.138 E.01127
G1 X174.359 Y193.29 E.06805
G1 X147.892 Y193.29 E.82985
G1 X147.552 Y190.929 E.0748
G1 X147.444 Y190.578 E.01149
G1 X146.367 Y188.22 E.0813
G1 X146.166 Y187.914 E.01149
G1 X144.468 Y185.954 E.0813
G1 X144.189 Y185.716 E.01149
G1 X142.008 Y184.314 E.0813
G1 X141.674 Y184.164 E.01149
G1 X139.186 Y183.433 E.0813
G1 X138.826 Y183.382 E.01139
G1 X136.23 Y183.382 E.0814
G1 X135.869 Y183.433 E.01142
G1 X133.379 Y184.164 E.08137
G1 X133.047 Y184.313 E.01142
G1 X130.864 Y185.716 E.08137
G1 X130.585 Y185.954 E.01149
G1 X128.887 Y187.914 E.0813
G1 X128.686 Y188.22 E.01149
G1 X127.609 Y190.578 E.0813
G1 X127.5 Y190.929 E.01149
G1 X127.161 Y193.29 E.0748
G1 X100.692 Y193.29 E.82992
G1 X100.352 Y190.929 E.0748
G1 X100.244 Y190.578 E.01149
G1 X99.167 Y188.22 E.0813
G1 X98.966 Y187.914 E.01149
G1 X97.268 Y185.954 E.0813
G1 X96.991 Y185.718 E.01141
G1 X94.808 Y184.314 E.08138
G1 X94.476 Y184.165 E.01139
G1 X91.986 Y183.433 E.08139
G1 X91.623 Y183.382 E.01149
G1 X89.03 Y183.382 E.0813
G1 X88.667 Y183.433 E.01149
G1 X86.179 Y184.164 E.0813
G1 X85.845 Y184.314 E.01149
G1 X83.664 Y185.716 E.0813
G1 X83.385 Y185.954 E.01149
G1 X81.687 Y187.914 E.0813
G1 X81.486 Y188.22 E.01149
G1 X80.409 Y190.578 E.0813
G1 X80.3 Y190.929 E.01149
G1 X79.961 Y193.29 E.0748
G1 X67.082 Y193.29 E.4038
G1 X57.536 Y126.071 E2.12875
G1 X57.536 Y83.929 E1.32133
M73 P1 R138
G1 X67.082 Y16.71 E2.12875
G1 X79.961 Y16.71 E.4038
G1 X80.3 Y19.071 E.0748
G1 X80.409 Y19.422 E.01149
G1 X81.486 Y21.78 E.0813
G1 X81.687 Y22.086 E.01149
G1 X83.385 Y24.046 E.0813
G1 X83.664 Y24.284 E.01149
G1 X85.845 Y25.686 E.0813
G1 X86.179 Y25.836 E.01149
G1 X88.667 Y26.567 E.0813
G1 X89.03 Y26.618 E.01149
G1 X91.623 Y26.618 E.0813
G1 X91.986 Y26.567 E.01149
G1 X94.474 Y25.836 E.0813
G1 X94.806 Y25.687 E.01142
G1 X96.989 Y24.284 E.08137
G1 X97.268 Y24.046 E.01149
G1 X98.966 Y22.086 E.0813
G1 X99.167 Y21.78 E.01149
G1 X100.244 Y19.422 E.0813
G1 X100.352 Y19.071 E.01149
G1 X100.692 Y16.71 E.0748
G1 X127.161 Y16.71 E.82992
G1 X127.5 Y19.071 E.0748
G1 X127.609 Y19.422 E.01149
G1 X128.686 Y21.78 E.0813
G1 X128.887 Y22.086 E.01149
G1 X130.585 Y24.046 E.0813
G1 X130.862 Y24.282 E.01141
G1 X133.045 Y25.686 E.08138
G1 X133.376 Y25.835 E.0114
G1 X135.867 Y26.567 E.08139
G1 X136.228 Y26.618 E.01143
G1 X138.823 Y26.618 E.08136
G1 X139.186 Y26.567 E.01149
G1 X141.674 Y25.836 E.0813
G1 X142.007 Y25.686 E.01148
G1 X144.189 Y24.284 E.08131
G1 X144.468 Y24.046 E.01149
G1 X146.166 Y22.086 E.0813
G1 X146.367 Y21.78 E.01149
G1 X147.444 Y19.422 E.0813
G1 X147.552 Y19.071 E.01149
G1 X147.892 Y16.71 E.0748
G1 X174.359 Y16.71 E.82985
G1 X174.642 Y18.862 E.06805
G1 X174.747 Y19.205 E.01127
G1 X175.658 Y21.405 E.07465
G1 X175.853 Y21.706 E.01127
G1 X177.303 Y23.595 E.07465
G1 X177.574 Y23.831 E.01126
G1 X179.463 Y25.28 E.07465
G1 X179.788 Y25.432 E.01126
G1 X181.988 Y26.343 E.07465
G1 X184.316 Y26.659 E.07368
G1 X184.326 Y40.935 E.44761
G1 X184.44 Y41.052 E.00511
G1 X184.58 Y41.048 E.00439
G1 X186.709 Y40.122 E.0728
G1 X188.611 Y40.096 E.05963
G1 X190.376 Y40.805 E.05963
G1 X191.73 Y42.14 E.05963
G1 X192.464 Y43.895 E.05963
G1 X192.464 Y45.797 E.05963
G1 X191.73 Y47.551 E.05963
G1 X190.376 Y48.887 E.05963
G1 X188.611 Y49.596 E.05963
G1 X186.709 Y49.569 E.05963
G1 X184.58 Y48.644 E.0728
G1 X184.521 Y48.629 E.0019
G1 X184.374 Y48.681 E.00491
G1 X184.316 Y48.816 E.00461
G1 X184.316 Y88.352 E1.23962
G1 X183.054 Y87.754 E.0438
G1 X182.981 Y87.736 E.00236
G1 X180.892 Y87.654 E.06552
G1 X180.818 Y87.666 E.00236
G1 X178.864 Y88.408 E.06552
G1 X178.801 Y88.448 E.00236
G1 X177.294 Y89.896 E.06552
G1 X177.252 Y89.957 E.00231
G1 X176.417 Y91.953 E.06783
G1 X176.417 Y94.045 E.0656
G1 X176.431 Y94.117 E.00229
G1 X177.251 Y96.042 E.0656
G1 X177.294 Y96.104 E.00236
G1 X178.801 Y97.552 E.06552
G1 X178.864 Y97.592 E.00236
G1 X180.818 Y98.334 E.06552
G1 X180.892 Y98.346 E.00236
G1 X182.981 Y98.264 E.06552
G1 X183.054 Y98.246 E.00236
G1 X184.316 Y97.648 E.0438
G1 X184.326 Y113.089 E.48414
G1 X184.439 Y113.206 E.00509
G1 X184.58 Y113.202 E.00444
G1 X186.709 Y112.276 E.0728
G1 X188.611 Y112.25 E.05963
G1 X190.376 Y112.959 E.05963
G1 X191.73 Y114.295 E.05963
G1 X192.464 Y116.049 E.05963
G1 X192.464 Y117.951 E.05963
G1 X191.73 Y119.705 E.05963
G1 X190.376 Y121.041 E.05963
G1 X188.611 Y121.75 E.05963
G1 X186.709 Y121.724 E.05963
G1 X184.604 Y120.808 E.07199
M204 S1000
G1 X184.457 Y120.652 F10800
;WIPE_START
G1 F8640
G1 X184.389 Y120.822 E-.0497
G1 X184.316 Y120.968 E-.03761
G1 X184.316 Y123.881 E-.67268
;WIPE_END
G1 E-.04 F2100
G1 Z.6 F720
G1 X183.345 Y170.558 F10800
G1 Z.2 F720
G1 E.8 F2100
M204 S800
;TYPE:Solid infill
;WIDTH:0.420429
G1 F1200
G1 X183.6 Y170.813 E.01132
G1 X183.6 Y171.347 E.01676
G1 X183.067 Y170.814 E.02367
G1 X182.562 Y170.843 E.01588
G1 X183.6 Y171.881 E.04609
G1 X183.6 Y172.415 E.01676
G1 X182.048 Y170.863 E.06889
G1 X181.535 Y170.884 E.01613
G1 X183.6 Y172.949 E.09169
G1 X183.6 Y173.483 E.01676
G1 X181.021 Y170.904 E.11448
G1 X180.713 Y170.894 E.00967
G1 X180.336 Y170.753 E.01265
G1 X183.6 Y174.017 E.1449
G1 X183.6 Y174.551 E.01676
G1 X179.194 Y170.145 E.19559
M204 S1000
;WIPE_START
G1 F8640
G1 X181.521 Y172.472 E-.76
;WIPE_END
G1 E-.04 F2100
G1 Z.6 F720
G1 X191.514 Y115.196 F10800
G1 Z.2 F720
G1 E.8 F2100
M204 S800
G1 F1200
G1 X189.83 Y113.512 E.07477
G1 X188.937 Y113.153 E.0302
G1 X191.582 Y115.798 E.11741
G1 X191.747 Y116.193 E.01344
G1 X191.747 Y116.497 E.00955
G1 X188.222 Y112.972 E.15649
G1 X187.695 Y112.979 E.01653
G1 X191.747 Y117.031 E.17987
G1 X191.747 Y117.565 E.01676
G1 X187.169 Y112.987 E.20324
G1 X186.863 Y112.991 E.0096
G1 X186.707 Y113.059 E.00534
G1 X191.661 Y118.013 E.21992
G1 X191.504 Y118.389 E.01281
G1 X186.335 Y113.22 E.22945
G1 X185.963 Y113.382 E.01274
G1 X191.346 Y118.765 E.23898
G1 X191.189 Y119.142 E.01281
G1 X185.591 Y113.544 E.2485
G1 X185.219 Y113.706 E.01274
G1 X190.966 Y119.453 E.25512
G1 X190.697 Y119.718 E.01185
G1 X184.706 Y113.727 E.26595
M204 S1000
;WIPE_START
G1 F8640
G1 X187.033 Y116.054 E-.76
;WIPE_END
G1 E-.04 F2100
G1 Z.6 F720
G1 X183.109 Y98.783 F10800
G1 Z.2 F720
G1 E.8 F2100
M204 S800
G1 F1200
G1 X183.6 Y99.274 E.02178
G1 X183.6 Y99.808 E.01676
G1 X182.781 Y98.988 E.03637
G1 X182.267 Y99.009 E.01613
G1 X183.6 Y100.342 E.05916
G1 X183.6 Y100.875 E.01676
G1 X181.754 Y99.029 E.08196
G1 X181.24 Y99.049 E.01613
G1 X183.6 Y101.409 E.10476
G1 X183.6 Y101.943 E.01676
G1 X180.7 Y99.043 E.12875
G1 X179.839 Y98.717 E.02888
G1 X183.77 Y102.647 E.17447
M204 S1000
;WIPE_START
G1 F8640
G1 X181.442 Y100.319 E-.76
;WIPE_END
G1 E-.04 F2100
G1 Z.6 F720
G1 X173.123 Y17.257 F10800
G1 Z.2 F720
G1 E.8 F2100
M204 S800
G1 F1200
G1 X173.801 Y17.935 E.03013
G1 X173.887 Y18.555 E.01962
G1 X172.758 Y17.426 E.05008
G1 X172.225 Y17.426 E.01676
G1 X173.993 Y19.195 E.07852
G1 X174.082 Y19.474 E.00918
G1 X174.326 Y20.062 E.01998
G1 X171.691 Y17.426 E.11699
G1 X171.157 Y17.426 E.01676
G1 X175.017 Y21.287 E.17137
M204 S1000
;WIPE_START
G1 F8640
G1 X172.69 Y18.959 E-.76
;WIPE_END
G1 E-.04 F2100
G1 Z.6 F720
G1 X182.887 Y27.021 F10800
G1 Z.2 F720
G1 E.8 F2100
M204 S800
