; generated by PrusaSlicer 2.5.1+win64 on 2023-03-23 at 22:40:44 UTC


;
;
; 

; external perimeters extrusion width = 0.45mm
; perimeters extrusion width = 0.45mm
; infill extrusion width = 0.45mm
; solid infill extrusion width = 0.45mm
; top infill extrusion width = 0.40mm
; support material extrusion width = 0.35mm
; first layer extrusion width = 0.42mm

M73 P0 R95
M201 X9000 Y9000 Z500 E10000 ; sets maximum accelerations, mm/sec^2
M203 X500 Y500 Z12 E120 ; sets maximum feedrates, mm / sec
M204 P2000 R1500 T2000 ; sets acceleration (P, T) and retract acceleration (R), mm/sec^2
M205 X10.00 Y10.00 Z0.20 E4.50 ; sets the jerk limits, mm/sec
M205 S0 T0 ; sets the minimum extruding and travel feed rate, mm/sec
M107
;TYPE:Custom
M862.3 P "MK2.5S" ; printer model check
M862.1 P0.4 ; nozzle diameter check
M115 U3.12.1 ; tell printer latest fw version
G90 ; use absolute coordinates
M83 ; extruder relative mode
M104 S215 ; set extruder temp
M140 S60 ; set bed temp
M190 S60 ; wait for bed temp
M109 S215 ; wait for extruder temp
G28 W ; home all without mesh bed level
G80 ; mesh bed leveling

G1 Z0.2 F720
G1 Y-3 F1000 ; go outside print area
G92 E0
G1 X60 E9 F1000 ; intro line
G1 X100 E12.5 F1000 ; intro line

G92 E0
G21 ; set units to millimeters
G90 ; use absolute coordinates
M83 ; use relative distances for extrusion
M900 K0.05 ; Filament gcode LA 1.5
M900 K30 ; Filament gcode LA 1.0
M107
;LAYER_CHANGE
;Z:0.2
;HEIGHT:0.2
;BEFORE_LAYER_CHANGE
G92 E0.0
;0.2


M73 P0 R94
G1 E-.8 F2100
G1 Z.4 F720
;AFTER_LAYER_CHANGE
;0.2
G1 X57.153 Y95.531 F10800
G1 Z.2 F720
G1 E.8 F2100
M204 S800
;TYPE:Skirt/Brim
;WIDTH:0.42
G1 F1200
G1 X58.435 Y94.791 E.04642
G1 X59.05 Y94.71 E.01946
G1 X190.95 Y94.71 E4.13563
G1 X191.565 Y94.791 E.01946
G1 X192.847 Y95.531 E.04642
G1 X193.463 Y96.597 E.03858
G1 X193.577 Y97.337 E.02349
G1 X193.577 Y123.237 E.81208
G1 X193.463 Y123.977 E.02348
G1 X192.847 Y125.043 E.03858
G1 X191.565 Y125.783 E.04642
G1 X190.95 Y125.864 E.01946
G1 X59.05 Y125.864 E4.13563
G1 X58.31 Y125.749 E.02349
G1 X57.244 Y125.134 E.03858
G1 X56.504 Y123.852 E.04642
G1 X56.423 Y123.237 E.01946
G1 X56.423 Y97.337 E.81208
G1 X56.537 Y96.597 E.02349
G1 X57.123 Y95.583 E.0367
M204 S1000
; printing object HexTrayRed_Insert.stl id:0 copy 0
;WIPE_START
G1 F8640
G1 X58.435 Y94.791 E-.35391
G1 X59.05 Y94.71 E-.14328
G1 X60.188 Y94.71 E-.26281
;WIPE_END
G1 E-.04 F2100
G1 Z.6 F720
G1 X190.197 Y98.09 F10800
G1 Z.2 F720
G1 E.8 F2100
M204 S800
;TYPE:Perimeter
;WIDTH:0.419999
G1 F1200
G1 X190.197 Y122.484 E.76485
G1 X59.803 Y122.484 E4.0884
G1 X59.803 Y98.09 E.76485
G1 X190.137 Y98.09 E4.08652
M204 S1000
G1 X190.574 Y97.713 F10800
M204 S800
;TYPE:External perimeter
G1 F1200
G1 X190.574 Y122.861 E.7885
G1 X59.426 Y122.861 E4.11205
G1 X59.426 Y97.713 E.7885
G1 X190.514 Y97.713 E4.11017
M204 S1000
G1 X190.396 Y98.071 F10800
;WIPE_START
G1 F8640
G1 X190.522 Y101.004 E-.76
;WIPE_END
G1 E-.04 F2100
G1 Z.6 F720
G1 X189.265 Y98.26 F10800
G1 Z.2 F720
G1 E.8 F2100
M204 S800
;TYPE:Solid infill
;WIDTH:0.420168
G1 F1200
G1 X189.858 Y98.853 E.0263
G1 X189.858 Y99.386 E.01674
G1 X188.901 Y98.429 E.04244
G1 X188.367 Y98.429 E.01674
G1 X189.858 Y99.92 E.06611
G1 X189.858 Y100.453 E.01674
G1 X187.834 Y98.429 E.08978
G1 X187.3 Y98.429 E.01674
G1 X189.858 Y100.987 E.11345
G1 X189.858 Y101.52 E.01674
M73 P1 R94
G1 X186.767 Y98.429 E.13711
G1 X186.233 Y98.429 E.01674
G1 X189.858 Y102.054 E.16078
G1 X189.858 Y102.587 E.01674
G1 X185.7 Y98.429 E.18445
G1 X185.166 Y98.429 E.01674
G1 X189.858 Y103.121 E.20811
G1 X189.858 Y103.654 E.01674
G1 X184.633 Y98.429 E.23178
G1 X184.099 Y98.429 E.01674
G1 X189.858 Y104.188 E.25545
G1 X189.858 Y104.721 E.01674
G1 X183.566 Y98.429 E.27912
G1 X183.032 Y98.429 E.01674
G1 X189.858 Y105.255 E.30278
G1 X189.858 Y105.788 E.01674
G1 X182.499 Y98.429 E.32645
G1 X181.965 Y98.429 E.01674
G1 X189.858 Y106.322 E.35012
G1 X189.858 Y106.855 E.01674
G1 X181.432 Y98.429 E.37379
G1 X180.898 Y98.429 E.01674
M73 P1 R93
G1 X189.858 Y107.389 E.39745
G1 X189.858 Y107.922 E.01674
G1 X180.365 Y98.429 E.42112
G1 X179.831 Y98.429 E.01674
G1 X189.858 Y108.456 E.44479
G1 X189.858 Y108.989 E.01674
G1 X179.298 Y98.429 E.46845
G1 X178.764 Y98.429 E.01674
G1 X189.858 Y109.523 E.49212
G1 X189.858 Y110.056 E.01674
G1 X178.231 Y98.429 E.51579
G1 X177.697 Y98.429 E.01674
G1 X189.858 Y110.59 E.53946
G1 X189.858 Y111.123 E.01674
G1 X177.164 Y98.429 E.56312
G1 X176.63 Y98.429 E.01674
G1 X189.858 Y111.657 E.58679
G1 X189.858 Y112.19 E.01674
G1 X176.097 Y98.429 E.61046
G1 X175.563 Y98.429 E.01674
G1 X189.858 Y112.724 E.63412
G1 X189.858 Y113.257 E.01674
G1 X175.03 Y98.429 E.65779
G1 X174.496 Y98.429 E.01674
G1 X189.858 Y113.791 E.68146
G1 X189.858 Y114.324 E.01674
G1 X173.963 Y98.429 E.70513
G1 X173.429 Y98.429 E.01674
G1 X189.858 Y114.858 E.72879
G1 X189.858 Y115.391 E.01674
G1 X172.896 Y98.429 E.75246
G1 X172.362 Y98.429 E.01674
G1 X189.858 Y115.925 E.77613
G1 X189.858 Y116.458 E.01674
G1 X171.829 Y98.429 E.7998
G1 X171.295 Y98.429 E.01674
G1 X189.858 Y116.992 E.82346
G1 X189.858 Y117.525 E.01674
G1 X170.762 Y98.429 E.84713
G1 X170.228 Y98.429 E.01674
G1 X189.858 Y118.059 E.8708
G1 X189.858 Y118.592 E.01674
G1 X169.695 Y98.429 E.89446
G1 X169.161 Y98.429 E.01674
G1 X189.858 Y119.126 E.91813
G1 X189.858 Y119.659 E.01674
G1 X168.627 Y98.429 E.9418
G1 X168.094 Y98.429 E.01674
G1 X189.858 Y120.193 E.96547
G1 X189.858 Y120.726 E.01674
G1 X167.56 Y98.429 E.98913
G1 X167.027 Y98.429 E.01674
G1 X189.858 Y121.26 E1.0128
G1 X189.858 Y121.793 E.01674
G1 X166.493 Y98.429 E1.03647
G1 X165.96 Y98.429 E.01674
G1 X189.675 Y122.144 E1.05204
G1 X189.142 Y122.144 E.01674
G1 X165.426 Y98.429 E1.05204
G1 X164.893 Y98.429 E.01674
G1 X188.608 Y122.144 E1.05204
G1 X188.075 Y122.144 E.01674
G1 X164.359 Y98.429 E1.05204
G1 X163.826 Y98.429 E.01674
G1 X187.541 Y122.144 E1.05204
G1 X187.008 Y122.144 E.01674
G1 X163.292 Y98.429 E1.05204
G1 X162.759 Y98.429 E.01674
G1 X186.474 Y122.144 E1.05204
G1 X185.941 Y122.144 E.01674
G1 X162.225 Y98.429 E1.05204
G1 X161.692 Y98.429 E.01674
G1 X185.407 Y122.144 E1.05204
G1 X184.874 Y122.144 E.01674
G1 X161.158 Y98.429 E1.05204
G1 X160.625 Y98.429 E.01674
G1 X184.34 Y122.144 E1.05204
G1 X183.807 Y122.144 E.01674
G1 X160.091 Y98.429 E1.05204
G1 X159.558 Y98.429 E.01674
M73 P2 R93
G1 X183.273 Y122.144 E1.05204
G1 X182.74 Y122.144 E.01674
G1 X159.024 Y98.429 E1.05204
G1 X158.491 Y98.429 E.01674
G1 X182.206 Y122.144 E1.05204
G1 X181.673 Y122.144 E.01674
G1 X157.957 Y98.429 E1.05204
G1 X157.424 Y98.429 E.01674
M73 P2 R92
G1 X181.139 Y122.144 E1.05204
G1 X180.605 Y122.144 E.01674
G1 X156.89 Y98.429 E1.05204
G1 X156.357 Y98.429 E.01674
G1 X180.072 Y122.144 E1.05204
G1 X179.538 Y122.144 E.01674
G1 X155.823 Y98.429 E1.05204
G1 X155.29 Y98.429 E.01674
G1 X179.005 Y122.144 E1.05204
G1 X178.471 Y122.144 E.01674
G1 X154.756 Y98.429 E1.05204
G1 X154.223 Y98.429 E.01674
G1 X177.938 Y122.144 E1.05204
G1 X177.404 Y122.144 E.01674
G1 X153.689 Y98.429 E1.05204
G1 X153.156 Y98.429 E.01674
G1 X176.871 Y122.144 E1.05204
G1 X176.337 Y122.144 E.01674
G1 X152.622 Y98.429 E1.05204
G1 X152.089 Y98.429 E.01674
G1 X175.804 Y122.144 E1.05204
G1 X175.27 Y122.144 E.01674
G1 X151.555 Y98.429 E1.05204
G1 X151.022 Y98.429 E.01674
G1 X174.737 Y122.144 E1.05204
G1 X174.203 Y122.144 E.01674
G1 X150.488 Y98.429 E1.05204
G1 X149.955 Y98.429 E.01674
G1 X173.67 Y122.144 E1.05204
G1 X173.136 Y122.144 E.01674
G1 X149.421 Y98.429 E1.05204
G1 X148.888 Y98.429 E.01674
G1 X172.603 Y122.144 E1.05204
G1 X172.069 Y122.144 E.01674
G1 X148.354 Y98.429 E1.05204
G1 X147.821 Y98.429 E.01674
G1 X171.536 Y122.144 E1.05204
G1 X171.002 Y122.144 E.01674
G1 X147.287 Y98.429 E1.05204
G1 X146.754 Y98.429 E.01674
G1 X170.469 Y122.144 E1.05204
G1 X169.935 Y122.144 E.01674
G1 X146.22 Y98.429 E1.05204
G1 X145.687 Y98.429 E.01674
G1 X169.402 Y122.144 E1.05204
G1 X168.868 Y122.144 E.01674
G1 X145.153 Y98.429 E1.05204
G1 X144.62 Y98.429 E.01674
G1 X168.335 Y122.144 E1.05204
G1 X167.801 Y122.144 E.01674
G1 X144.086 Y98.429 E1.05204
G1 X143.553 Y98.429 E.01674
G1 X167.268 Y122.144 E1.05204
G1 X166.734 Y122.144 E.01674
G1 X143.019 Y98.429 E1.05204
G1 X142.486 Y98.429 E.01674
G1 X166.201 Y122.144 E1.05204
G1 X165.667 Y122.144 E.01674
M73 P3 R92
G1 X141.952 Y98.429 E1.05204
G1 X141.419 Y98.429 E.01674
G1 X165.134 Y122.144 E1.05204
G1 X164.6 Y122.144 E.01674
G1 X140.885 Y98.429 E1.05204
G1 X140.351 Y98.429 E.01674
G1 X164.067 Y122.144 E1.05204
G1 X163.533 Y122.144 E.01674
G1 X139.818 Y98.429 E1.05204
G1 X139.284 Y98.429 E.01674
G1 X163 Y122.144 E1.05204
G1 X162.466 Y122.144 E.01674
M73 P3 R91
G1 X138.751 Y98.429 E1.05204
G1 X138.217 Y98.429 E.01674
G1 X161.933 Y122.144 E1.05204
G1 X161.399 Y122.144 E.01674
G1 X137.684 Y98.429 E1.05204
G1 X137.15 Y98.429 E.01674
G1 X160.866 Y122.144 E1.05204
G1 X160.332 Y122.144 E.01674
G1 X136.617 Y98.429 E1.05204
G1 X136.083 Y98.429 E.01674
G1 X159.799 Y122.144 E1.05204
G1 X159.265 Y122.144 E.01674
G1 X135.55 Y98.429 E1.05204
G1 X135.016 Y98.429 E.01674
G1 X158.732 Y122.144 E1.05204
G1 X158.198 Y122.144 E.01674
G1 X134.483 Y98.429 E1.05204
G1 X133.949 Y98.429 E.01674
G1 X157.665 Y122.144 E1.05204
G1 X157.131 Y122.144 E.01674
G1 X133.416 Y98.429 E1.05204
G1 X132.882 Y98.429 E.01674
G1 X156.598 Y122.144 E1.05204
G1 X156.064 Y122.144 E.01674
G1 X132.349 Y98.429 E1.05204
G1 X131.815 Y98.429 E.01674
G1 X155.531 Y122.144 E1.05204
G1 X154.997 Y122.144 E.01674
G1 X131.282 Y98.429 E1.05204
G1 X130.748 Y98.429 E.01674
G1 X154.464 Y122.144 E1.05204
G1 X153.93 Y122.144 E.01674
G1 X130.215 Y98.429 E1.05204
G1 X129.681 Y98.429 E.01674
G1 X153.397 Y122.144 E1.05204
G1 X152.863 Y122.144 E.01674
G1 X129.148 Y98.429 E1.05204
G1 X128.614 Y98.429 E.01674
G1 X152.329 Y122.144 E1.05204
G1 X151.796 Y122.144 E.01674
G1 X128.081 Y98.429 E1.05204
G1 X127.547 Y98.429 E.01674
G1 X151.262 Y122.144 E1.05204
G1 X150.729 Y122.144 E.01674
G1 X127.014 Y98.429 E1.05204
G1 X126.48 Y98.429 E.01674
G1 X150.195 Y122.144 E1.05204
G1 X149.662 Y122.144 E.01674
G1 X125.947 Y98.429 E1.05204
G1 X125.413 Y98.429 E.01674
G1 X149.128 Y122.144 E1.05204
G1 X148.595 Y122.144 E.01674
G1 X124.88 Y98.429 E1.05204
G1 X124.346 Y98.429 E.01674
M73 P4 R91
G1 X148.061 Y122.144 E1.05204
G1 X147.528 Y122.144 E.01674
G1 X123.813 Y98.429 E1.05204
G1 X123.279 Y98.429 E.01674
G1 X146.994 Y122.144 E1.05204
G1 X146.461 Y122.144 E.01674
G1 X122.746 Y98.429 E1.05204
G1 X122.212 Y98.429 E.01674
G1 X145.927 Y122.144 E1.05204
G1 X145.394 Y122.144 E.01674
G1 X121.679 Y98.429 E1.05204
G1 X121.145 Y98.429 E.01674
G1 X144.86 Y122.144 E1.05204
G1 X144.327 Y122.144 E.01674
G1 X120.612 Y98.429 E1.05204
G1 X120.078 Y98.429 E.01674
M73 P4 R90
G1 X143.793 Y122.144 E1.05204
G1 X143.26 Y122.144 E.01674
G1 X119.545 Y98.429 E1.05204
G1 X119.011 Y98.429 E.01674
G1 X142.726 Y122.144 E1.05204
G1 X142.193 Y122.144 E.01674
G1 X118.478 Y98.429 E1.05204
G1 X117.944 Y98.429 E.01674
G1 X141.659 Y122.144 E1.05204
G1 X141.126 Y122.144 E.01674
G1 X117.411 Y98.429 E1.05204
G1 X116.877 Y98.429 E.01674
G1 X140.592 Y122.144 E1.05204
G1 X140.059 Y122.144 E.01674
G1 X116.344 Y98.429 E1.05204
G1 X115.81 Y98.429 E.01674
G1 X139.525 Y122.144 E1.05204
G1 X138.992 Y122.144 E.01674
G1 X115.277 Y98.429 E1.05204
G1 X114.743 Y98.429 E.01674
G1 X138.458 Y122.144 E1.05204
G1 X137.925 Y122.144 E.01674
G1 X114.21 Y98.429 E1.05204
G1 X113.676 Y98.429 E.01674
G1 X137.391 Y122.144 E1.05204
G1 X136.858 Y122.144 E.01674
G1 X113.143 Y98.429 E1.05204
G1 X112.609 Y98.429 E.01674
G1 X136.324 Y122.144 E1.05204
G1 X135.791 Y122.144 E.01674
G1 X112.076 Y98.429 E1.05204
G1 X111.542 Y98.429 E.01674
G1 X135.257 Y122.144 E1.05204
G1 X134.724 Y122.144 E.01674
G1 X111.008 Y98.429 E1.05204
G1 X110.475 Y98.429 E.01674
G1 X134.19 Y122.144 E1.05204
G1 X133.657 Y122.144 E.01674
G1 X109.941 Y98.429 E1.05204
G1 X109.408 Y98.429 E.01674
G1 X133.123 Y122.144 E1.05204
G1 X132.59 Y122.144 E.01674
G1 X108.874 Y98.429 E1.05204
G1 X108.341 Y98.429 E.01674
G1 X132.056 Y122.144 E1.05204
G1 X131.523 Y122.144 E.01674
G1 X107.807 Y98.429 E1.05204
G1 X107.274 Y98.429 E.01674
G1 X130.989 Y122.144 E1.05204
G1 X130.456 Y122.144 E.01674
G1 X106.74 Y98.429 E1.05204
G1 X106.207 Y98.429 E.01674
M73 P5 R90
G1 X129.922 Y122.144 E1.05204
G1 X129.389 Y122.144 E.01674
G1 X105.673 Y98.429 E1.05204
G1 X105.14 Y98.429 E.01674
G1 X128.855 Y122.144 E1.05204
G1 X128.322 Y122.144 E.01674
G1 X104.606 Y98.429 E1.05204
G1 X104.073 Y98.429 E.01674
G1 X127.788 Y122.144 E1.05204
G1 X127.255 Y122.144 E.01674
G1 X103.539 Y98.429 E1.05204
G1 X103.006 Y98.429 E.01674
G1 X126.721 Y122.144 E1.05204
G1 X126.188 Y122.144 E.01674
G1 X102.472 Y98.429 E1.05204
G1 X101.939 Y98.429 E.01674
G1 X125.654 Y122.144 E1.05204
G1 X125.121 Y122.144 E.01674
M73 P5 R89
G1 X101.405 Y98.429 E1.05204
G1 X100.872 Y98.429 E.01674
G1 X124.587 Y122.144 E1.05204
G1 X124.054 Y122.144 E.01674
G1 X100.338 Y98.429 E1.05204
G1 X99.805 Y98.429 E.01674
G1 X123.52 Y122.144 E1.05204
G1 X122.986 Y122.144 E.01674
G1 X99.271 Y98.429 E1.05204
G1 X98.738 Y98.429 E.01674
G1 X122.453 Y122.144 E1.05204
G1 X121.919 Y122.144 E.01674
G1 X98.204 Y98.429 E1.05204
G1 X97.671 Y98.429 E.01674
G1 X121.386 Y122.144 E1.05204
G1 X120.852 Y122.144 E.01674
G1 X97.137 Y98.429 E1.05204
G1 X96.604 Y98.429 E.01674
G1 X120.319 Y122.144 E1.05204
G1 X119.785 Y122.144 E.01674
G1 X96.07 Y98.429 E1.05204
G1 X95.537 Y98.429 E.01674
G1 X119.252 Y122.144 E1.05204
G1 X118.718 Y122.144 E.01674
G1 X95.003 Y98.429 E1.05204
G1 X94.47 Y98.429 E.01674
G1 X118.185 Y122.144 E1.05204
G1 X117.651 Y122.144 E.01674
G1 X93.936 Y98.429 E1.05204
G1 X93.403 Y98.429 E.01674
G1 X117.118 Y122.144 E1.05204
G1 X116.584 Y122.144 E.01674
G1 X92.869 Y98.429 E1.05204
G1 X92.336 Y98.429 E.01674
G1 X116.051 Y122.144 E1.05204
G1 X115.517 Y122.144 E.01674
G1 X91.802 Y98.429 E1.05204
G1 X91.269 Y98.429 E.01674
G1 X114.984 Y122.144 E1.05204
G1 X114.45 Y122.144 E.01674
G1 X90.735 Y98.429 E1.05204
G1 X90.202 Y98.429 E.01674
G1 X113.917 Y122.144 E1.05204
G1 X113.383 Y122.144 E.01674
G1 X89.668 Y98.429 E1.05204
G1 X89.135 Y98.429 E.01674
G1 X112.85 Y122.144 E1.05204
G1 X112.316 Y122.144 E.01674
M73 P6 R89
G1 X88.601 Y98.429 E1.05204
G1 X88.068 Y98.429 E.01674
G1 X111.783 Y122.144 E1.05204
G1 X111.249 Y122.144 E.01674
G1 X87.534 Y98.429 E1.05204
G1 X87.001 Y98.429 E.01674
G1 X110.716 Y122.144 E1.05204
G1 X110.182 Y122.144 E.01674
G1 X86.467 Y98.429 E1.05204
G1 X85.934 Y98.429 E.01674
G1 X109.649 Y122.144 E1.05204
G1 X109.115 Y122.144 E.01674
G1 X85.4 Y98.429 E1.05204
G1 X84.867 Y98.429 E.01674
G1 X108.582 Y122.144 E1.05204
G1 X108.048 Y122.144 E.01674
G1 X84.333 Y98.429 E1.05204
G1 X83.8 Y98.429 E.01674
G1 X107.515 Y122.144 E1.05204
G1 X106.981 Y122.144 E.01674
G1 X83.266 Y98.429 E1.05204
G1 X82.733 Y98.429 E.01674
M73 P6 R88
G1 X106.448 Y122.144 E1.05204
G1 X105.914 Y122.144 E.01674
G1 X82.199 Y98.429 E1.05204
G1 X81.665 Y98.429 E.01674
G1 X105.381 Y122.144 E1.05204
G1 X104.847 Y122.144 E.01674
G1 X81.132 Y98.429 E1.05204
G1 X80.598 Y98.429 E.01674
G1 X104.314 Y122.144 E1.05204
G1 X103.78 Y122.144 E.01674
G1 X80.065 Y98.429 E1.05204
G1 X79.531 Y98.429 E.01674
G1 X103.247 Y122.144 E1.05204
G1 X102.713 Y122.144 E.01674
G1 X78.998 Y98.429 E1.05204
G1 X78.464 Y98.429 E.01674
G1 X102.18 Y122.144 E1.05204
G1 X101.646 Y122.144 E.01674
G1 X77.931 Y98.429 E1.05204
G1 X77.397 Y98.429 E.01674
G1 X101.113 Y122.144 E1.05204
G1 X100.579 Y122.144 E.01674
G1 X76.864 Y98.429 E1.05204
G1 X76.33 Y98.429 E.01674
G1 X100.046 Y122.144 E1.05204
G1 X99.512 Y122.144 E.01674
G1 X75.797 Y98.429 E1.05204
G1 X75.263 Y98.429 E.01674
G1 X98.979 Y122.144 E1.05204
G1 X98.445 Y122.144 E.01674
G1 X74.73 Y98.429 E1.05204
G1 X74.196 Y98.429 E.01674
G1 X97.912 Y122.144 E1.05204
G1 X97.378 Y122.144 E.01674
G1 X73.663 Y98.429 E1.05204
G1 X73.129 Y98.429 E.01674
G1 X96.845 Y122.144 E1.05204
G1 X96.311 Y122.144 E.01674
G1 X72.596 Y98.429 E1.05204
G1 X72.062 Y98.429 E.01674
G1 X95.778 Y122.144 E1.05204
G1 X95.244 Y122.144 E.01674
G1 X71.529 Y98.429 E1.05204
G1 X70.995 Y98.429 E.01674
M73 P7 R88
G1 X94.71 Y122.144 E1.05204
G1 X94.177 Y122.144 E.01674
G1 X70.462 Y98.429 E1.05204
G1 X69.928 Y98.429 E.01674
