; generated by PrusaSlicer 2.5.1+win64 on 2023-04-10 at 02:21:43 UTC


;
;
; 

; external perimeters extrusion width = 0.45mm
; perimeters extrusion width = 0.45mm
; infill extrusion width = 0.45mm
; solid infill extrusion width = 0.45mm
; top infill extrusion width = 0.40mm
; first layer extrusion width = 0.42mm

M73 P0 R139
M201 X9000 Y9000 Z500 E10000 ; sets maximum accelerations, mm/sec^2
M203 X500 Y500 Z12 E120 ; sets maximum feedrates, mm / sec
M204 P2000 R1500 T2000 ; sets acceleration (P, T) and retract acceleration (R), mm/sec^2
M205 X10.00 Y10.00 Z0.20 E4.50 ; sets the jerk limits, mm/sec
M205 S0 T0 ; sets the minimum extruding and travel feed rate, mm/sec
M107
;TYPE:Custom
M862.3 P "MK2.5S" ; printer model check
M862.1 P0.4 ; nozzle diameter check
M115 U3.12.1 ; tell printer latest fw version
G90 ; use absolute coordinates
M83 ; extruder relative mode
M104 S215 ; set extruder temp
M140 S60 ; set bed temp
M190 S60 ; wait for bed temp
M109 S215 ; wait for extruder temp
G28 W ; home all without mesh bed level
G80 ; mesh bed leveling

G1 Z0.2 F720
G1 Y-3 F1000 ; go outside print area
G92 E0
G1 X60 E9 F1000 ; intro line
G1 X100 E12.5 F1000 ; intro line

G92 E0
G21 ; set units to millimeters
G90 ; use absolute coordinates
M83 ; use relative distances for extrusion
M900 K0.05 ; Filament gcode LA 1.5
M900 K30 ; Filament gcode LA 1.0
M107
;LAYER_CHANGE
;Z:0.2
;HEIGHT:0.2
;BEFORE_LAYER_CHANGE
G92 E0.0
;0.2


G1 E-.8 F2100
G1 Z.4 F720
;AFTER_LAYER_CHANGE
;0.2
G1 X64.621 Y15.966 F10800
G1 Z.2 F720
G1 E.8 F2100
M204 S800
;TYPE:Skirt/Brim
;WIDTH:0.42
G1 F1200
G1 X65.193 Y14.727 E.04278
G1 X66.975 Y13.923 E.0613
G1 X174.975 Y13.923 E3.38626
G1 X176.656 Y14.619 E.05704
G1 X186.656 Y24.619 E.44342
G1 X187.157 Y25.358 E.02801
G1 X194.808 Y43.092 E.60555
G1 X195.002 Y44.033 E.03015
G1 X194.986 Y118.241 E2.32675
G1 X187.336 Y183.975 E2.07493
G1 X186.656 Y185.381 E.04897
G1 X176.656 Y195.381 E.44342
G1 X174.975 Y196.077 E.05704
G1 X66.975 Y196.077 E3.38626
G1 X65.668 Y195.685 E.04278
G1 X64.621 Y194.034 E.0613
G1 X54.998 Y126.1 E2.1513
G1 X55.021 Y83.566 E1.33363
G1 X64.613 Y16.025 E2.13894
M204 S1000
; printing object TI4_AgendaHolder.stl id:0 copy 0
;WIPE_START
G1 F8640
G1 X65.193 Y14.727 E-.32835
G1 X66.897 Y13.958 E-.43165
;WIPE_END
G1 E-.04 F2100
G1 Z.6 F720
G1 X184.772 Y119.761 F10800
G1 Z.2 F720
G1 E.8 F2100
M204 S800
;TYPE:Perimeter
;WIDTH:0.419999
G1 F1200
G1 X184.704 Y119.755 E.00213
G1 X184.445 Y119.844 E.0086
G1 X184.257 Y120.046 E.00863
G1 X184.188 Y120.313 E.00865
G1 X184.188 Y159.756 E1.23672
G1 X183.464 Y159.414 E.02512
G1 X183.244 Y159.36 E.00709
G1 X181.156 Y159.277 E.06552
G1 X180.933 Y159.313 E.00709
G1 X178.979 Y160.055 E.06552
G1 X178.788 Y160.176 E.00709
G1 X177.281 Y161.625 E.06552
G1 X177.155 Y161.806 E.00693
G1 X176.334 Y163.733 E.06569
G1 X176.289 Y163.955 E.00709
G1 X176.289 Y166.045 E.06552
G1 X176.333 Y166.264 E.00699
G1 X177.153 Y168.189 E.06563
G1 X177.281 Y168.375 E.00709
G1 X178.788 Y169.824 E.06552
G1 X178.979 Y169.945 E.00709
G1 X180.933 Y170.687 E.06552
G1 X181.156 Y170.723 E.00709
G1 X183.244 Y170.64 E.06552
G1 X183.464 Y170.586 E.00709
G1 X184.188 Y170.244 E.02512
G1 X184.188 Y183.01 E.4003
G1 X182.234 Y183.27 E.0618
G1 X182.092 Y183.308 E.00461
G1 X179.892 Y184.219 E.07465
G1 X179.481 Y184.421 E.01434
G1 X177.909 Y185.627 E.06214
G1 X177.252 Y186.175 E.02683
G1 X175.803 Y188.064 E.07465
G1 X175.558 Y188.451 E.01435
G1 X174.647 Y190.65 E.07465
G1 X174.516 Y191.089 E.01435
G1 X174.276 Y192.913 E.05768
G1 X148.467 Y192.913 E.80924
G1 X148.174 Y190.875 E.06456
G1 X148.036 Y190.422 E.01485
G1 X146.958 Y188.063 E.0813
G1 X146.699 Y187.667 E.01485
G1 X145.074 Y185.791 E.07782
G1 X144.641 Y185.399 E.0183
G1 X142.46 Y183.997 E.0813
G1 X142.028 Y183.802 E.01485
G1 X139.54 Y183.071 E.0813
G1 X139.076 Y183.005 E.01471
G1 X136.478 Y183.005 E.08145
G1 X136.009 Y183.071 E.01485
G1 X133.521 Y183.802 E.0813
G1 X133.09 Y183.997 E.01485
G1 X130.908 Y185.399 E.0813
G1 X130.548 Y185.707 E.01485
G1 X128.85 Y187.667 E.0813
G1 X128.591 Y188.063 E.01485
G1 X127.514 Y190.422 E.0813
G1 X127.376 Y190.875 E.01485
G1 X127.083 Y192.913 E.06456
G1 X101.267 Y192.913 E.80943
G1 X100.974 Y190.875 E.06456
G1 X100.836 Y190.422 E.01485
G1 X99.758 Y188.063 E.0813
G1 X99.499 Y187.667 E.01485
G1 X97.801 Y185.707 E.0813
G1 X97.441 Y185.399 E.01485
G1 X95.26 Y183.997 E.0813
G1 X94.828 Y183.802 E.01485
G1 X92.34 Y183.071 E.0813
G1 X91.871 Y183.005 E.01485
G1 X89.278 Y183.005 E.0813
G1 X88.809 Y183.071 E.01485
G1 X86.321 Y183.802 E.0813
G1 X85.89 Y183.997 E.01485
G1 X83.708 Y185.399 E.0813
G1 X83.348 Y185.707 E.01485
G1 X81.65 Y187.667 E.0813
G1 X81.391 Y188.063 E.01485
G1 X80.314 Y190.422 E.0813
G1 X80.176 Y190.875 E.01485
G1 X79.883 Y192.913 E.06456
G1 X67.658 Y192.913 E.3833
G1 X58.162 Y126.044 E2.11765
G1 X58.162 Y83.956 E1.31966
G1 X67.658 Y17.087 E2.11765
M73 P0 R138
G1 X79.883 Y17.087 E.3833
G1 X80.176 Y19.125 E.06456
G1 X80.314 Y19.578 E.01485
G1 X81.391 Y21.937 E.0813
G1 X81.65 Y22.333 E.01485
G1 X83.348 Y24.293 E.0813
G1 X83.708 Y24.601 E.01485
G1 X85.89 Y26.003 E.0813
G1 X86.321 Y26.198 E.01485
G1 X88.809 Y26.929 E.0813
G1 X89.278 Y26.995 E.01485
G1 X91.871 Y26.995 E.0813
G1 X92.34 Y26.929 E.01485
G1 X94.828 Y26.198 E.0813
G1 X95.26 Y26.003 E.01485
G1 X97.441 Y24.601 E.0813
G1 X97.801 Y24.293 E.01486
G1 X99.499 Y22.333 E.0813
G1 X99.758 Y21.937 E.01485
G1 X100.836 Y19.578 E.0813
G1 X100.974 Y19.125 E.01485
G1 X101.267 Y17.087 E.06456
G1 X127.083 Y17.087 E.80943
G1 X127.376 Y19.125 E.06456
G1 X127.514 Y19.578 E.01485
G1 X128.591 Y21.937 E.0813
G1 X128.85 Y22.333 E.01485
G1 X130.548 Y24.293 E.0813
G1 X130.908 Y24.601 E.01485
G1 X133.09 Y26.003 E.0813
G1 X133.521 Y26.198 E.01486
G1 X136.009 Y26.929 E.0813
G1 X136.473 Y26.995 E.01469
G1 X139.071 Y26.995 E.08147
G1 X139.54 Y26.929 E.01485
G1 X142.028 Y26.198 E.0813
G1 X142.46 Y26.003 E.01485
G1 X144.641 Y24.601 E.0813
G1 X145.001 Y24.293 E.01485
G1 X146.699 Y22.333 E.0813
G1 X146.958 Y21.937 E.01485
G1 X148.036 Y19.578 E.0813
G1 X148.174 Y19.125 E.01485
G1 X148.467 Y17.087 E.06456
G1 X174.276 Y17.087 E.80924
G1 X174.516 Y18.911 E.05768
G1 X174.647 Y19.35 E.01435
G1 X175.558 Y21.549 E.07465
G1 X175.803 Y21.936 E.01435
G1 X177.252 Y23.825 E.07465
G1 X177.593 Y24.13 E.01435
G1 X179.481 Y25.579 E.07465
G1 X179.892 Y25.781 E.01434
G1 X182.092 Y26.692 E.07465
G1 X182.234 Y26.73 E.00461
G1 X184.188 Y26.99 E.0618
G1 X184.191 Y41.743 E.4626
G1 X184.292 Y42.009 E.00891
G1 X184.523 Y42.198 E.00937
G1 X184.774 Y42.247 E.00801
G1 X185.014 Y42.184 E.00777
G1 X186.908 Y41.201 E.06692
G1 X188.51 Y41.09 E.05036
G1 X190.024 Y41.628 E.05036
G1 X191.198 Y42.724 E.05036
G1 X191.838 Y44.197 E.05036
G1 X191.838 Y45.803 E.05036
G1 X191.198 Y47.276 E.05036
G1 X190.024 Y48.372 E.05036
G1 X188.51 Y48.91 E.05036
G1 X186.908 Y48.799 E.05036
G1 X185.014 Y47.816 E.06692
G1 X184.905 Y47.773 E.00367
G1 X184.704 Y47.755 E.00632
G1 X184.433 Y47.852 E.00901
G1 X184.253 Y48.054 E.00848
G1 X184.188 Y48.318 E.00854
G1 X184.188 Y87.756 E1.23655
G1 X183.464 Y87.414 E.02512
G1 X183.244 Y87.36 E.00709
G1 X181.156 Y87.277 E.06552
G1 X180.933 Y87.313 E.00709
G1 X178.979 Y88.055 E.06552
G1 X178.788 Y88.176 E.00709
G1 X177.281 Y89.625 E.06552
G1 X177.155 Y89.806 E.00693
G1 X176.334 Y91.733 E.06569
G1 X176.289 Y91.955 E.00709
G1 X176.289 Y94.045 E.06552
G1 X176.334 Y94.267 E.00709
G1 X177.153 Y96.189 E.06552
G1 X177.281 Y96.375 E.00709
G1 X178.788 Y97.824 E.06552
G1 X178.979 Y97.945 E.00709
G1 X180.933 Y98.687 E.06552
G1 X181.156 Y98.723 E.00709
G1 X183.244 Y98.64 E.06552
G1 X183.464 Y98.586 E.00709
G1 X184.188 Y98.244 E.02512
G1 X184.188 Y113.682 E.48405
G1 X184.2 Y113.801 E.00377
G1 X184.331 Y114.059 E.00906
G1 X184.535 Y114.204 E.00785
G1 X184.782 Y114.247 E.00785
G1 X185.014 Y114.184 E.00753
G1 X186.908 Y113.201 E.06692
G1 X188.51 Y113.09 E.05036
G1 X190.024 Y113.628 E.05036
G1 X191.198 Y114.724 E.05036
G1 X191.838 Y116.197 E.05036
G1 X191.838 Y117.803 E.05036
G1 X191.198 Y119.276 E.05036
G1 X190.024 Y120.372 E.05036
G1 X188.51 Y120.91 E.05036
G1 X186.908 Y120.799 E.05036
G1 X185.014 Y119.816 E.06692
G1 X184.908 Y119.774 E.00356
G1 X184.831 Y119.767 E.00242
M204 S1000
G1 X184.77 Y120.13 F10800
M204 S800
;TYPE:External perimeter
G1 F1200
G1 X184.628 Y120.177 E.00467
G1 X184.565 Y120.316 E.00478
G1 X184.565 Y160.352 E1.25532
G1 X183.302 Y159.754 E.0438
G1 X183.229 Y159.736 E.00236
G1 X181.141 Y159.654 E.06552
G1 X181.066 Y159.666 E.00236
G1 X179.113 Y160.408 E.06552
G1 X179.049 Y160.448 E.00236
G1 X177.542 Y161.896 E.06552
G1 X177.5 Y161.957 E.00231
G1 X176.666 Y163.955 E.0679
G1 X176.68 Y166.118 E.06781
G1 X177.5 Y168.042 E.06556
G1 X177.542 Y168.104 E.00236
G1 X178.339 Y168.869 E.03463
G1 X179.113 Y169.592 E.03321
G1 X181.066 Y170.334 E.06552
G1 X181.141 Y170.346 E.00236
G1 X183.229 Y170.264 E.06552
G1 X183.302 Y170.246 E.00236
G1 X184.565 Y169.648 E.0438
G1 X184.565 Y183.341 E.42933
G1 X182.236 Y183.657 E.07368
G1 X180.036 Y184.568 E.07465
G1 X179.711 Y184.72 E.01126
G1 X178.139 Y185.926 E.06214
G1 X177.551 Y186.405 E.02376
G1 X176.102 Y188.294 E.07465
G1 X175.906 Y188.595 E.01127
G1 X174.995 Y190.795 E.07465
G1 X174.89 Y191.138 E.01127
G1 X174.607 Y193.29 E.06805
G1 X148.14 Y193.29 E.82985
G1 X147.801 Y190.929 E.0748
G1 X147.693 Y190.578 E.01149
G1 X146.615 Y188.22 E.0813
G1 X146.414 Y187.914 E.01149
G1 X144.789 Y186.038 E.07782
G1 X144.437 Y185.716 E.01494
G1 X142.256 Y184.314 E.0813
G1 X141.922 Y184.164 E.01149
G1 X139.434 Y183.433 E.0813
G1 X139.074 Y183.382 E.01139
G1 X136.478 Y183.382 E.0814
G1 X136.118 Y183.433 E.01142
G1 X133.628 Y184.164 E.08137
G1 X133.295 Y184.313 E.01142
G1 X131.112 Y185.716 E.08137
G1 X130.833 Y185.954 E.01149
G1 X129.135 Y187.914 E.0813
G1 X128.934 Y188.22 E.01149
G1 X127.857 Y190.578 E.0813
G1 X127.749 Y190.929 E.01149
G1 X127.409 Y193.29 E.0748
G1 X100.94 Y193.29 E.82992
G1 X100.601 Y190.929 E.0748
G1 X100.493 Y190.578 E.01149
G1 X99.415 Y188.22 E.0813
G1 X99.214 Y187.914 E.01149
G1 X97.516 Y185.954 E.0813
G1 X97.239 Y185.718 E.01141
G1 X95.056 Y184.314 E.08138
G1 X94.725 Y184.165 E.01139
G1 X92.234 Y183.433 E.08139
G1 X91.871 Y183.382 E.01149
G1 X89.278 Y183.382 E.0813
G1 X88.915 Y183.433 E.01149
G1 X86.428 Y184.164 E.0813
G1 X86.094 Y184.314 E.01149
G1 X83.912 Y185.716 E.0813
G1 X83.633 Y185.954 E.01149
G1 X81.935 Y187.914 E.0813
G1 X81.734 Y188.22 E.01149
G1 X80.657 Y190.578 E.0813
G1 X80.549 Y190.929 E.01149
G1 X80.209 Y193.29 E.0748
G1 X67.331 Y193.29 E.4038
G1 X57.785 Y126.071 E2.12875
G1 X57.785 Y83.929 E1.32133
M73 P1 R138
G1 X67.331 Y16.71 E2.12875
G1 X80.209 Y16.71 E.4038
G1 X80.549 Y19.071 E.0748
G1 X80.657 Y19.422 E.01149
G1 X81.734 Y21.78 E.0813
G1 X81.935 Y22.086 E.01149
G1 X83.633 Y24.046 E.0813
G1 X83.912 Y24.284 E.01149
G1 X86.094 Y25.686 E.0813
G1 X86.428 Y25.836 E.01149
G1 X88.915 Y26.567 E.0813
G1 X89.278 Y26.618 E.01149
G1 X91.871 Y26.618 E.0813
G1 X92.234 Y26.567 E.01149
G1 X94.722 Y25.836 E.0813
G1 X95.054 Y25.687 E.01142
G1 X97.237 Y24.284 E.08137
G1 X97.516 Y24.046 E.01149
G1 X99.214 Y22.086 E.0813
G1 X99.415 Y21.78 E.01149
G1 X100.493 Y19.422 E.0813
G1 X100.601 Y19.071 E.01149
G1 X100.94 Y16.71 E.0748
G1 X127.409 Y16.71 E.82992
G1 X127.749 Y19.071 E.0748
G1 X127.857 Y19.422 E.01149
G1 X128.934 Y21.78 E.0813
G1 X129.135 Y22.086 E.01149
G1 X130.833 Y24.046 E.0813
G1 X131.11 Y24.282 E.01141
G1 X133.294 Y25.686 E.08138
G1 X133.625 Y25.835 E.0114
G1 X136.115 Y26.567 E.08139
G1 X136.475 Y26.618 E.01138
G1 X139.071 Y26.618 E.08141
G1 X139.434 Y26.567 E.01149
G1 X141.922 Y25.836 E.0813
G1 X142.256 Y25.686 E.01149
G1 X144.437 Y24.284 E.0813
G1 X144.716 Y24.046 E.01149
G1 X146.414 Y22.086 E.0813
G1 X146.615 Y21.78 E.01149
G1 X147.693 Y19.422 E.0813
G1 X147.801 Y19.071 E.01149
G1 X148.14 Y16.71 E.0748
G1 X174.607 Y16.71 E.82985
G1 X174.89 Y18.862 E.06805
G1 X174.995 Y19.205 E.01127
G1 X175.906 Y21.405 E.07465
G1 X176.102 Y21.706 E.01127
G1 X177.551 Y23.595 E.07465
G1 X177.822 Y23.831 E.01126
G1 X179.711 Y25.28 E.07465
G1 X180.036 Y25.432 E.01126
G1 X182.236 Y26.343 E.07465
G1 X184.565 Y26.659 E.07368
G1 X184.571 Y41.729 E.47251
G1 X184.677 Y41.854 E.00512
G1 X184.84 Y41.849 E.00513
G1 X186.804 Y40.83 E.06937
G1 X188.563 Y40.709 E.05527
G1 X190.224 Y41.299 E.05528
G1 X191.513 Y42.502 E.05528
G1 X192.215 Y44.119 E.05528
G1 X192.215 Y45.881 E.05528
G1 X191.513 Y47.498 E.05528
G1 X190.224 Y48.701 E.05527
G1 X188.563 Y49.291 E.05528
G1 X186.804 Y49.17 E.05527
G1 X184.84 Y48.151 E.06937
G1 X184.77 Y48.13 E.0023
G1 X184.625 Y48.18 E.00479
G1 X184.565 Y48.318 E.00473
G1 X184.565 Y88.352 E1.25523
G1 X183.302 Y87.754 E.0438
G1 X183.229 Y87.736 E.00236
G1 X181.141 Y87.654 E.06552
G1 X181.066 Y87.666 E.00236
G1 X179.113 Y88.408 E.06552
G1 X179.049 Y88.448 E.00236
G1 X177.542 Y89.896 E.06552
G1 X177.5 Y89.957 E.00231
G1 X176.666 Y91.953 E.06783
G1 X176.666 Y94.045 E.0656
G1 X176.68 Y94.117 E.00229
G1 X177.5 Y96.042 E.0656
G1 X177.542 Y96.104 E.00236
G1 X179.049 Y97.552 E.06552
G1 X179.113 Y97.592 E.00236
G1 X181.066 Y98.334 E.06552
G1 X181.141 Y98.346 E.00236
G1 X183.229 Y98.264 E.06552
G1 X183.302 Y98.246 E.00236
G1 X184.565 Y97.648 E.0438
G1 X184.572 Y113.734 E.50437
G1 X184.681 Y113.856 E.00511
G1 X184.84 Y113.849 E.005
G1 X186.804 Y112.83 E.06937
G1 X188.563 Y112.709 E.05527
G1 X190.224 Y113.299 E.05528
G1 X191.513 Y114.502 E.05528
G1 X192.215 Y116.119 E.05528
G1 X192.215 Y117.881 E.05527
G1 X191.513 Y119.498 E.05527
G1 X190.224 Y120.701 E.05528
G1 X188.563 Y121.291 E.05528
G1 X186.804 Y121.17 E.05527
G1 X184.827 Y120.147 E.06978
M204 S1000
G1 X184.681 Y120.011 F10800
;WIPE_START
G1 F8640
G1 X184.628 Y120.177 E-.04647
G1 X184.565 Y120.316 E-.03518
G1 X184.565 Y123.253 E-.67835
;WIPE_END
G1 E-.04 F2100
G1 Z.6 F720
G1 X184.018 Y170.983 F10800
G1 Z.2 F720
G1 E.8 F2100
M204 S800
;TYPE:Solid infill
;WIDTH:0.420429
G1 F1200
G1 X183.825 Y170.791 E.00855
G1 X183.595 Y170.9 E.008
G1 X183.439 Y170.938 E.00505
G1 X183.848 Y171.347 E.01817
G1 X183.848 Y171.881 E.01676
G1 X182.958 Y170.991 E.03951
G1 X182.445 Y171.012 E.01613
G1 X183.848 Y172.415 E.0623
G1 X183.848 Y172.949 E.01676
G1 X181.931 Y171.032 E.0851
G1 X181.418 Y171.052 E.01613
G1 X183.848 Y173.483 E.1079
G1 X183.848 Y174.017 E.01676
G1 X180.83 Y170.999 E.13397
G1 X179.978 Y170.68 E.02857
G1 X184.018 Y174.72 E.17935
M204 S1000
;WIPE_START
G1 F8640
G1 X181.691 Y172.393 E-.76
;WIPE_END
G1 E-.04 F2100
G1 Z.6 F720
G1 X191.621 Y116.122 F10800
G1 Z.2 F720
G1 E.8 F2100
M204 S800
G1 F1200
G1 X189.191 Y113.692 E.10788
G1 X188.463 Y113.434 E.02422
G1 X188.403 Y113.438 E.00191
G1 X191.499 Y116.534 E.13744
G1 X191.499 Y117.068 E.01676
G1 X187.903 Y113.472 E.15962
G1 X187.404 Y113.507 E.01572
G1 X191.499 Y117.602 E.18179
G1 X191.499 Y117.733 E.0041
G1 X191.377 Y118.014 E.00962
G1 X186.933 Y113.57 E.19726
G1 X186.582 Y113.752 E.01243
G1 X191.215 Y118.386 E.20568
G1 X191.053 Y118.758 E.01274
G1 X186.23 Y113.935 E.21411
G1 X185.879 Y114.117 E.01243
G1 X190.875 Y119.114 E.2218
G1 X190.599 Y119.371 E.01186
G1 X185.527 Y114.3 E.22514
G1 X185.176 Y114.482 E.01243
G1 X190.443 Y119.749 E.23382
M204 S1000
;WIPE_START
G1 F8640
G1 X188.115 Y117.422 E-.76
;WIPE_END
G1 E-.04 F2100
G1 Z.6 F720
G1 X184.018 Y99.443 F10800
G1 Z.2 F720
G1 E.8 F2100
M204 S800
G1 F1200
G1 X183.498 Y98.923 E.02308
G1 X183.273 Y98.979 E.00728
G1 X183.029 Y98.988 E.00765
G1 X183.848 Y99.808 E.03637
G1 X183.848 Y100.342 E.01676
G1 X182.516 Y99.009 E.05916
G1 X182.002 Y99.029 E.01613
G1 X183.848 Y100.875 E.08196
G1 X183.848 Y101.409 E.01676
G1 X181.488 Y99.049 E.10476
G1 X181.161 Y99.062 E.0103
G1 X180.948 Y99.043 E.0067
G1 X183.848 Y101.943 E.12875
G1 X183.848 Y102.477 E.01676
G1 X179.795 Y98.424 E.17991
M204 S1000
;WIPE_START
G1 F8640
G1 X182.123 Y100.752 E-.76
;WIPE_END
G1 E-.04 F2100
G1 Z.6 F720
G1 X191.564 Y43.992 F10800
G1 Z.2 F720
G1 E.8 F2100
M204 S800
G1 F1200
M73 P1 R137
G1 X189.305 Y41.733 E.1003
G1 X188.477 Y41.439 E.02757
G1 X191.499 Y44.461 E.13415
G1 X191.499 Y44.994 E.01676
G1 X187.972 Y41.468 E.15656
G1 X187.473 Y41.502 E.01572
G1 X191.499 Y45.528 E.17873
G1 X191.499 Y45.733 E.00641
G1 X191.399 Y45.962 E.00787
G1 X186.982 Y41.545 E.1961
