; generated by PrusaSlicer 2.5.1+win64 on 2023-04-12 at 00:28:28 UTC


;
;
; 

; external perimeters extrusion width = 0.45mm
; perimeters extrusion width = 0.45mm
; infill extrusion width = 0.45mm
; solid infill extrusion width = 0.45mm
; top infill extrusion width = 0.40mm
; first layer extrusion width = 0.42mm

M73 P0 R188
M201 X9000 Y9000 Z500 E10000 ; sets maximum accelerations, mm/sec^2
M203 X500 Y500 Z12 E120 ; sets maximum feedrates, mm / sec
M204 P2000 R1500 T2000 ; sets acceleration (P, T) and retract acceleration (R), mm/sec^2
M205 X10.00 Y10.00 Z0.20 E4.50 ; sets the jerk limits, mm/sec
M205 S0 T0 ; sets the minimum extruding and travel feed rate, mm/sec
M107
;TYPE:Custom
M862.3 P "MK2.5S" ; printer model check
M862.1 P0.4 ; nozzle diameter check
M115 U3.12.1 ; tell printer latest fw version
G90 ; use absolute coordinates
M83 ; extruder relative mode
M104 S215 ; set extruder temp
M140 S60 ; set bed temp
M190 S60 ; wait for bed temp
M109 S215 ; wait for extruder temp
G28 W ; home all without mesh bed level
G80 ; mesh bed leveling

G1 Z0.2 F720
G1 Y-3 F1000 ; go outside print area
G92 E0
G1 X60 E9 F1000 ; intro line
G1 X100 E12.5 F1000 ; intro line

G92 E0
G21 ; set units to millimeters
G90 ; use absolute coordinates
M83 ; use relative distances for extrusion
M900 K0.05 ; Filament gcode LA 1.5
M900 K30 ; Filament gcode LA 1.0
M107
;LAYER_CHANGE
;Z:0.2
;HEIGHT:0.2
;BEFORE_LAYER_CHANGE
G92 E0.0
;0.2


G1 E-.8 F2100
G1 Z.4 F720
;AFTER_LAYER_CHANGE
;0.2
G1 X23.523 Y30.903 F10800
G1 Z.2 F720
G1 E.8 F2100
M204 S800
;TYPE:Skirt/Brim
;WIDTH:0.42
G1 F1200
G1 X24.974 Y30.409 E.04808
G1 X228.49 Y30.409 E6.3811
G1 X229.797 Y30.8 E.04278
G1 X230.673 Y31.846 E.04278
G1 X230.867 Y32.786 E.03008
G1 X230.867 Y147.571 E3.59903
M73 P0 R187
G1 X230.476 Y148.879 E.04278
G1 X229.882 Y149.499 E.02693
G1 X227.409 Y151.284 E.09562
G1 X224.962 Y152.853 E.09114
G1 X179.55 Y179.072 E1.64415
G1 X178.739 Y179.42 E.02765
G1 X177.611 Y179.591 E.03578
G1 X75.853 Y179.591 E3.19055
G1 X74.977 Y179.488 E.02765
G1 X73.915 Y179.072 E.03579
G1 X28.502 Y152.853 E1.64415
G1 X20.325 Y147.486 E.30668
G1 X19.946 Y147.157 E.01573
G1 X19.423 Y146.41 E.02861
G1 X19.221 Y145.858 E.01843
G1 X19.133 Y145.155 E.02219
G1 X19.133 Y35.702 E3.43185
G1 X19.221 Y35 E.02219
G1 X19.386 Y34.526 E.01571
G1 X19.946 Y33.7 E.03131
G1 X23.475 Y30.94 E.14048
M204 S1000
; printing object Ti4_Frame_straight_V2.stl id:0 copy 2
;WIPE_START
G1 F8640
G1 X24.974 Y30.409 E-.36716
G1 X26.675 Y30.409 E-.39284
;WIPE_END
G1 E-.04 F2100
G1 Z.6 F720
G1 X224.46 Y135.255 F10800
G1 Z.2 F720
G1 E.8 F2100
M204 S800
;TYPE:Perimeter
;WIDTH:0.419999
G1 F1200
G1 X224.369 Y135.383 E.00494
G1 X224.249 Y135.811 E.01396
G1 X224.239 Y145.215 E.29486
G1 X224.248 Y145.316 E.00317
G1 X224.357 Y145.735 E.01359
G1 X224.609 Y146.103 E.01398
G1 X224.971 Y146.363 E.01397
G1 X225.4 Y146.483 E.01397
G1 X225.834 Y146.452 E.01363
G1 X226.16 Y146.325 E.01097
G1 X227.703 Y145.435 E.05585
G1 X227.703 Y147.016 E.04958
G1 X227.674 Y147.076 E.00208
G1 X226.628 Y147.926 E.04227
G1 X225.564 Y148.713 E.04152
G1 X224.465 Y149.452 E.04152
G1 X223.326 Y150.144 E.04179
G1 X178.09 Y176.261 E1.63774
G1 X177.733 Y176.407 E.01211
G1 X177.489 Y176.407 E.00762
G1 X177.204 Y176.303 E.00954
G1 X131.896 Y150.144 E1.64034
G1 X130.757 Y149.452 E.04179
G1 X129.658 Y148.713 E.04152
G1 X128.593 Y147.925 E.04155
G1 X127.41 Y146.977 E.04755
G1 X126.886 Y146.794 E.01738
G1 X126.403 Y146.827 E.01519
G1 X126.001 Y147.014 E.01392
G1 X124.871 Y147.925 E.0455
G1 X123.806 Y148.713 E.04155
G1 X122.707 Y149.452 E.04152
G1 X121.568 Y150.144 E.04179
G1 X76.332 Y176.261 E1.63774
G1 X75.975 Y176.407 E.01211
G1 X75.731 Y176.407 E.00762
G1 X75.446 Y176.303 E.00954
G1 X30.138 Y150.144 E1.64034
G1 X28.999 Y149.452 E.0418
G1 X27.9 Y148.713 E.04152
G1 X26.836 Y147.926 E.04152
G1 X25.76 Y147.056 E.04338
G1 X25.733 Y144.621 E.07635
G1 X25.507 Y144.122 E.01717
G1 X25.15 Y143.792 E.01524
G1 X24.727 Y143.625 E.01428
G1 X24.176 Y143.646 E.01727
G1 X23.946 Y143.717 E.00755
G1 X22.297 Y144.656 E.0595
G1 X22.297 Y136.487 E.25614
G1 X23.946 Y137.426 E.0595
G1 X24.176 Y137.497 E.00755
G1 X24.55 Y137.53 E.01175
G1 X24.761 Y137.509 E.00665
G1 X25.241 Y137.287 E.01659
G1 X25.403 Y137.132 E.00702
G1 X25.685 Y136.693 E.01636
G1 X25.761 Y136.266 E.01361
G1 X25.761 Y133.859 E.07549
G1 X227.703 Y133.859 E6.33173
G1 X227.703 Y135.704 E.05785
G1 X226.159 Y134.817 E.05582
G1 X225.668 Y134.668 E.01608
G1 X225.427 Y134.658 E.00756
G1 X224.996 Y134.769 E.01396
G1 X224.628 Y135.02 E.01397
G1 X224.495 Y135.206 E.00716
M204 S1000
G1 X224.763 Y135.447 F10800
M204 S800
;TYPE:External perimeter
G1 F1200
G1 X224.626 Y135.812 E.01222
G1 X224.616 Y145.216 E.29486
G1 X224.661 Y145.486 E.00859
G1 X224.809 Y145.764 E.00988
G1 X225.043 Y145.976 E.0099
G1 X225.336 Y146.094 E.0099
G1 X225.651 Y146.106 E.00989
G1 X225.969 Y146 E.0105
G1 X227.901 Y144.885 E.06995
G1 X228.031 Y144.867 E.00411
G1 X228.08 Y144.988 E.00411
G1 X228.08 Y147.274 E.07166
G1 X227.912 Y147.369 E.00605
G1 X226.859 Y148.224 E.04253
G1 X225.781 Y149.022 E.04205
G1 X224.668 Y149.77 E.04205
G1 X223.518 Y150.469 E.0422
G1 X178.279 Y176.588 E1.63788
G1 X177.799 Y176.784 E.01624
G1 X177.423 Y176.784 E.01182
G1 X177.044 Y176.645 E.01266
G1 X131.704 Y150.469 E1.6415
G1 X130.554 Y149.77 E.0422
G1 X129.441 Y149.022 E.04205
G1 X128.362 Y148.224 E.04206
G1 X127.227 Y147.309 E.04571
G1 X126.847 Y147.172 E.01267
G1 X126.549 Y147.181 E.00934
G1 X126.238 Y147.308 E.01055
G1 X125.102 Y148.224 E.04575
G1 X124.023 Y149.022 E.04207
G1 X122.91 Y149.77 E.04205
G1 X121.76 Y150.469 E.0422
G1 X76.521 Y176.588 E1.63787
G1 X76.041 Y176.784 E.01624
G1 X75.665 Y176.784 E.01182
G1 X75.286 Y176.645 E.01266
G1 X29.946 Y150.469 E1.6415
G1 X28.796 Y149.77 E.0422
M73 P0 R186
G1 X27.683 Y149.022 E.04205
G1 X26.605 Y148.224 E.04205
G1 X25.552 Y147.369 E.04253
G1 X25.384 Y147.273 E.00606
G1 X25.374 Y144.762 E.07873
G1 X25.199 Y144.344 E.01424
G1 X24.957 Y144.117 E.01039
G1 X24.642 Y143.992 E.01062
G1 X24.133 Y144.045 E.01604
G1 X22.08 Y145.213 E.07405
G1 X21.977 Y145.227 E.00328
G1 X21.92 Y145.129 E.00355
G1 X21.92 Y136.051 E.28464
G1 X21.949 Y135.947 E.0034
G1 X22.04 Y135.907 E.00311
G1 X24.133 Y137.098 E.0755
G1 X24.583 Y137.155 E.01422
G1 X25.019 Y136.979 E.01474
G1 X25.308 Y136.61 E.0147
G1 X25.384 Y136.266 E.01103
G1 X25.384 Y133.481 E.08731
G1 X228.08 Y133.481 E6.35538
G1 X228.08 Y136.17 E.0843
G1 X228.055 Y136.251 E.00265
G1 X227.952 Y136.281 E.00336
G1 X225.971 Y135.144 E.07162
G1 X225.573 Y135.033 E.01297
G1 X225.246 Y135.073 E.01032
G1 X224.967 Y135.221 E.0099
G1 X224.803 Y135.403 E.00768
M204 S1000
G1 X224.373 Y135.439 F10800
;WIPE_START
G1 F8640
G1 X224.626 Y135.812 E-.10298
G1 X224.623 Y138.657 E-.65702
;WIPE_END
G1 E-.04 F2100
G1 Z.6 F720
G1 X226.771 Y134.028 F10800
G1 Z.2 F720
G1 E.8 F2100
M204 S800
;TYPE:Solid infill
;WIDTH:0.420087
G1 F1200
G1 X227.364 Y134.621 E.02629
G1 X227.364 Y135.117 E.01556
G1 X227.276 Y135.067 E.00315
G1 X226.407 Y134.198 E.03856
G1 X225.874 Y134.198 E.01673
G1 X226.108 Y134.432 E.01039
G1 X225.745 Y134.337 E.01178
G1 X225.524 Y134.309 E.00699
G1 X225.46 Y134.318 E.00201
G1 X225.34 Y134.198 E.00532
G1 X224.807 Y134.198 E.01673
G1 X225.013 Y134.404 E.00915
G1 X224.838 Y134.468 E.00586
G1 X224.651 Y134.576 E.00675
G1 X224.274 Y134.198 E.01676
G1 X223.74 Y134.198 E.01673
G1 X224.357 Y134.815 E.02738
G1 X224.198 Y135.005 E.00776
G1 X224.131 Y135.122 E.00425
G1 X223.207 Y134.198 E.04098
G1 X222.673 Y134.198 E.01673
G1 X223.968 Y135.492 E.05741
G1 X223.909 Y135.798 E.00976
G1 X223.909 Y135.967 E.00531
G1 X222.14 Y134.198 E.07847
G1 X221.607 Y134.198 E.01673
G1 X223.909 Y136.5 E.1021
G1 X223.908 Y137.033 E.01671
G1 X221.073 Y134.198 E.12573
G1 X220.54 Y134.198 E.01673
G1 X223.908 Y137.566 E.14937
G1 X223.907 Y138.098 E.01671
G1 X220.006 Y134.198 E.173
G1 X219.473 Y134.198 E.01673
G1 X223.906 Y138.631 E.19663
G1 X223.906 Y139.164 E.01671
G1 X218.94 Y134.198 E.22026
G1 X218.406 Y134.198 E.01673
G1 X223.905 Y139.697 E.24389
G1 X223.905 Y140.23 E.01671
G1 X217.873 Y134.198 E.26753
G1 X217.339 Y134.198 E.01673
G1 X223.904 Y140.763 E.29116
G1 X223.904 Y141.295 E.01671
G1 X216.806 Y134.198 E.31479
G1 X216.273 Y134.198 E.01673
G1 X223.903 Y141.828 E.33842
G1 X223.902 Y142.361 E.01671
G1 X215.739 Y134.198 E.36206
G1 X215.206 Y134.198 E.01673
G1 X223.902 Y142.894 E.38569
G1 X223.901 Y143.427 E.01671
G1 X214.672 Y134.198 E.40932
G1 X214.139 Y134.198 E.01673
G1 X223.901 Y143.96 E.43295
G1 X223.9 Y144.493 E.01671
G1 X213.606 Y134.198 E.45659
G1 X213.072 Y134.198 E.01673
G1 X224.069 Y145.195 E.48774
M204 S1000
;WIPE_START
G1 F8640
G1 X221.742 Y142.867 E-.76
;WIPE_END
G1 E-.04 F2100
G1 Z.6 F720
G1 X227.025 Y146.017 F10800
G1 Z.2 F720
G1 E.8 F2100
M204 S800
G1 F1200
G1 X227.364 Y146.356 E.01501
G1 X227.364 Y146.889 E.01673
G1 X226.809 Y146.335 E.02458
G1 X226.469 Y146.528 E.01227
G1 X227.07 Y147.129 E.02668
G1 X226.776 Y147.368 E.01189
G1 X226.118 Y146.711 E.02917
G1 X225.933 Y146.777 E.00617
G1 X225.692 Y146.817 E.00768
G1 X226.482 Y147.608 E.03505
G1 X226.178 Y147.837 E.01194
G1 X225.118 Y146.777 E.04702
G1 X224.843 Y146.677 E.00917
G1 X224.593 Y146.533 E.00904
G1 X224.381 Y146.355 E.0087
G1 X224.194 Y146.132 E.00913
G1 X223.99 Y145.749 E.01361
G1 X223.969 Y145.628 E.00384
G1 X212.539 Y134.198 E.50694
G1 X212.005 Y134.198 E.01673
G1 X225.871 Y148.064 E.61498
G1 X225.565 Y148.291 E.01196
G1 X211.472 Y134.198 E.62504
G1 X210.939 Y134.198 E.01673
G1 X225.254 Y148.513 E.6349
G1 X224.935 Y148.727 E.01205
G1 X210.405 Y134.198 E.6444
G1 X209.872 Y134.198 E.01673
G1 X224.616 Y148.942 E.65391
G1 X224.297 Y149.156 E.01205
G1 X209.338 Y134.198 E.66342
G1 X208.805 Y134.198 E.01673
G1 X223.965 Y149.358 E.67239
G1 X223.634 Y149.56 E.01218
G1 X208.272 Y134.198 E.68133
G1 X207.738 Y134.198 E.01673
G1 X223.302 Y149.762 E.69028
G1 X222.967 Y149.96 E.01221
G1 X207.205 Y134.198 E.69907
G1 X206.672 Y134.198 E.01673
G1 X222.629 Y150.155 E.70772
G1 X222.29 Y150.35 E.01225
M73 P1 R186
G1 X206.138 Y134.198 E.71638
G1 X205.605 Y134.198 E.01673
G1 X221.952 Y150.545 E.72504
G1 X221.614 Y150.741 E.01225
G1 X205.071 Y134.198 E.7337
G1 X204.538 Y134.198 E.01673
G1 X221.276 Y150.936 E.74236
G1 X220.938 Y151.131 E.01225
G1 X204.005 Y134.198 E.75102
G1 X203.471 Y134.198 E.01673
G1 X220.6 Y151.326 E.75968
G1 X220.261 Y151.522 E.01225
G1 X202.938 Y134.198 E.76834
G1 X202.404 Y134.198 E.01673
G1 X219.923 Y151.717 E.777
G1 X219.585 Y151.912 E.01225
G1 X201.871 Y134.198 E.78566
G1 X201.338 Y134.198 E.01673
G1 X219.247 Y152.107 E.79432
G1 X218.909 Y152.303 E.01225
G1 X200.804 Y134.198 E.80297
G1 X200.271 Y134.198 E.01673
G1 X218.571 Y152.498 E.81163
G1 X218.232 Y152.693 E.01225
G1 X199.737 Y134.198 E.82029
G1 X199.204 Y134.198 E.01673
G1 X217.894 Y152.888 E.82895
G1 X217.556 Y153.083 E.01225
G1 X198.671 Y134.198 E.83761
G1 X198.137 Y134.198 E.01673
G1 X217.218 Y153.279 E.84627
G1 X216.88 Y153.474 E.01225
G1 X197.604 Y134.198 E.85493
G1 X197.07 Y134.198 E.01673
G1 X216.542 Y153.669 E.86359
G1 X216.204 Y153.864 E.01225
G1 X196.537 Y134.198 E.87225
G1 X196.004 Y134.198 E.01673
M73 P1 R185
G1 X215.865 Y154.06 E.88091
G1 X215.527 Y154.255 E.01225
G1 X195.47 Y134.198 E.88957
G1 X194.937 Y134.198 E.01673
G1 X215.189 Y154.45 E.89822
G1 X214.851 Y154.645 E.01225
G1 X194.403 Y134.198 E.90688
G1 X193.87 Y134.198 E.01673
G1 X214.513 Y154.841 E.91554
G1 X214.175 Y155.036 E.01225
G1 X193.337 Y134.198 E.9242
G1 X192.803 Y134.198 E.01673
G1 X213.836 Y155.231 E.93286
G1 X213.498 Y155.426 E.01225
G1 X192.27 Y134.198 E.94152
G1 X191.736 Y134.198 E.01673
G1 X213.16 Y155.622 E.95018
G1 X212.822 Y155.817 E.01225
G1 X191.203 Y134.198 E.95884
G1 X190.67 Y134.198 E.01673
G1 X212.484 Y156.012 E.9675
G1 X212.146 Y156.207 E.01225
G1 X190.136 Y134.198 E.97616
G1 X189.603 Y134.198 E.01673
G1 X211.807 Y156.402 E.98482
G1 X211.469 Y156.598 E.01225
G1 X189.069 Y134.198 E.99347
G1 X188.536 Y134.198 E.01673
G1 X211.131 Y156.793 E1.00213
G1 X210.793 Y156.988 E.01225
G1 X188.003 Y134.198 E1.01079
G1 X187.469 Y134.198 E.01673
G1 X210.455 Y157.183 E1.01945
G1 X210.117 Y157.379 E.01225
G1 X186.936 Y134.198 E1.02811
G1 X186.403 Y134.198 E.01673
G1 X209.778 Y157.574 E1.03677
G1 X209.44 Y157.769 E.01225
G1 X185.869 Y134.198 E1.04543
G1 X185.336 Y134.198 E.01673
G1 X209.102 Y157.964 E1.05409
G1 X208.764 Y158.16 E.01225
G1 X184.802 Y134.198 E1.06275
G1 X184.269 Y134.198 E.01673
G1 X208.426 Y158.355 E1.07141
G1 X208.088 Y158.55 E.01225
G1 X183.736 Y134.198 E1.08007
G1 X183.202 Y134.198 E.01673
G1 X207.75 Y158.745 E1.08872
G1 X207.411 Y158.941 E.01225
G1 X182.669 Y134.198 E1.09738
G1 X182.135 Y134.198 E.01673
G1 X207.073 Y159.136 E1.10604
G1 X206.735 Y159.331 E.01225
G1 X181.602 Y134.198 E1.1147
G1 X181.069 Y134.198 E.01673
G1 X206.397 Y159.526 E1.12336
G1 X206.059 Y159.721 E.01225
G1 X180.535 Y134.198 E1.13202
G1 X180.002 Y134.198 E.01673
G1 X205.721 Y159.917 E1.14068
G1 X205.382 Y160.112 E.01225
G1 X179.468 Y134.198 E1.14934
G1 X178.935 Y134.198 E.01673
G1 X205.044 Y160.307 E1.158
G1 X204.706 Y160.502 E.01225
G1 X178.402 Y134.198 E1.16666
G1 X177.868 Y134.198 E.01673
G1 X204.368 Y160.698 E1.17532
G1 X204.03 Y160.893 E.01225
G1 X177.335 Y134.198 E1.18397
G1 X176.801 Y134.198 E.01673
M73 P1 R184
G1 X203.692 Y161.088 E1.19263
G1 X203.353 Y161.283 E.01225
G1 X176.268 Y134.198 E1.20129
G1 X175.735 Y134.198 E.01673
G1 X203.015 Y161.479 E1.20995
G1 X202.677 Y161.674 E.01225
G1 X175.201 Y134.198 E1.21861
G1 X174.668 Y134.198 E.01673
G1 X202.339 Y161.869 E1.22727
G1 X202.001 Y162.064 E.01225
G1 X174.134 Y134.198 E1.23593
G1 X173.601 Y134.198 E.01673
G1 X201.663 Y162.26 E1.24459
G1 X201.325 Y162.455 E.01225
G1 X173.068 Y134.198 E1.25325
G1 X172.534 Y134.198 E.01673
G1 X200.986 Y162.65 E1.26191
G1 X200.648 Y162.845 E.01225
G1 X172.001 Y134.198 E1.27057
G1 X171.467 Y134.198 E.01673
G1 X200.31 Y163.04 E1.27922
G1 X199.972 Y163.236 E.01225
G1 X170.934 Y134.198 E1.28788
G1 X170.401 Y134.198 E.01673
G1 X199.634 Y163.431 E1.29654
G1 X199.296 Y163.626 E.01225
G1 X169.867 Y134.198 E1.3052
G1 X169.334 Y134.198 E.01673
M73 P2 R184
G1 X198.957 Y163.821 E1.31386
G1 X198.619 Y164.017 E.01225
G1 X168.8 Y134.198 E1.32252
G1 X168.267 Y134.198 E.01673
G1 X198.281 Y164.212 E1.33118
G1 X197.943 Y164.407 E.01225
G1 X167.734 Y134.198 E1.33984
G1 X167.2 Y134.198 E.01673
G1 X197.605 Y164.602 E1.3485
G1 X197.267 Y164.798 E.01225
G1 X166.667 Y134.198 E1.35716
G1 X166.134 Y134.198 E.01673
G1 X196.928 Y164.993 E1.36582
G1 X196.59 Y165.188 E.01225
G1 X165.6 Y134.198 E1.37447
G1 X165.067 Y134.198 E.01673
G1 X196.252 Y165.383 E1.38313
G1 X195.914 Y165.579 E.01225
G1 X164.533 Y134.198 E1.39179
G1 X164 Y134.198 E.01673
G1 X195.576 Y165.774 E1.40045
G1 X195.238 Y165.969 E.01225
G1 X163.467 Y134.198 E1.40911
G1 X162.933 Y134.198 E.01673
G1 X194.9 Y166.164 E1.41777
G1 X194.561 Y166.36 E.01225
G1 X162.4 Y134.198 E1.42643
G1 X161.866 Y134.198 E.01673
M73 P2 R183
G1 X194.223 Y166.555 E1.43509
G1 X193.885 Y166.75 E.01225
G1 X161.333 Y134.198 E1.44375
G1 X160.8 Y134.198 E.01673
G1 X193.547 Y166.945 E1.45241
G1 X193.209 Y167.14 E.01225
G1 X160.266 Y134.198 E1.46107
G1 X159.733 Y134.198 E.01673
G1 X192.871 Y167.336 E1.46972
G1 X192.532 Y167.531 E.01225
G1 X159.199 Y134.198 E1.47838
G1 X158.666 Y134.198 E.01673
G1 X192.194 Y167.726 E1.48704
G1 X191.856 Y167.921 E.01225
G1 X158.133 Y134.198 E1.4957
G1 X157.599 Y134.198 E.01673
G1 X191.518 Y168.117 E1.50436
G1 X191.18 Y168.312 E.01225
G1 X157.066 Y134.198 E1.51302
G1 X156.532 Y134.198 E.01673
G1 X190.842 Y168.507 E1.52168
G1 X190.503 Y168.702 E.01225
G1 X155.999 Y134.198 E1.53034
G1 X155.466 Y134.198 E.01673
G1 X190.165 Y168.898 E1.539
G1 X189.827 Y169.093 E.01225
G1 X154.932 Y134.198 E1.54766
G1 X154.399 Y134.198 E.01673
G1 X189.489 Y169.288 E1.55632
G1 X189.151 Y169.483 E.01225
G1 X153.865 Y134.198 E1.56497
G1 X153.332 Y134.198 E.01673
G1 X188.813 Y169.679 E1.57363
G1 X188.474 Y169.874 E.01225
G1 X152.799 Y134.198 E1.58229
G1 X152.265 Y134.198 E.01673
G1 X188.136 Y170.069 E1.59095
G1 X187.798 Y170.264 E.01225
G1 X151.732 Y134.198 E1.59961
G1 X151.198 Y134.198 E.01673
G1 X187.46 Y170.459 E1.60827
