; generated by PrusaSlicer 2.5.1+win64 on 2023-03-21 at 19:29:30 UTC


;
;
; 

; external perimeters extrusion width = 0.45mm
; perimeters extrusion width = 0.45mm
; infill extrusion width = 0.45mm
; solid infill extrusion width = 0.45mm
; top infill extrusion width = 0.40mm
; first layer extrusion width = 0.42mm

M73 P0 R11
M201 X9000 Y9000 Z500 E10000 ; sets maximum accelerations, mm/sec^2
M203 X500 Y500 Z12 E120 ; sets maximum feedrates, mm / sec
M204 P2000 R1500 T2000 ; sets acceleration (P, T) and retract acceleration (R), mm/sec^2
M205 X10.00 Y10.00 Z0.20 E4.50 ; sets the jerk limits, mm/sec
M205 S0 T0 ; sets the minimum extruding and travel feed rate, mm/sec
M107
;TYPE:Custom
M862.3 P "MK2.5S" ; printer model check
M862.1 P0.4 ; nozzle diameter check
M115 U3.12.1 ; tell printer latest fw version
G90 ; use absolute coordinates
M83 ; extruder relative mode
M104 S215 ; set extruder temp
M140 S60 ; set bed temp
M190 S60 ; wait for bed temp
M109 S215 ; wait for extruder temp
G28 W ; home all without mesh bed level
G80 ; mesh bed leveling

G1 Z0.2 F720
G1 Y-3 F1000 ; go outside print area
G92 E0
G1 X60 E9 F1000 ; intro line
G1 X100 E12.5 F1000 ; intro line

G92 E0
G21 ; set units to millimeters
G90 ; use absolute coordinates
M83 ; use relative distances for extrusion
M900 K0.05 ; Filament gcode LA 1.5
M900 K30 ; Filament gcode LA 1.0
M107
;LAYER_CHANGE
;Z:0.2
;HEIGHT:0.2
;BEFORE_LAYER_CHANGE
G92 E0.0
;0.2


G1 E-.8 F2100
G1 Z.4 F720
;AFTER_LAYER_CHANGE
;0.2
G1 X112.742 Y94.24 F10800
G1 Z.2 F720
M73 P1 R11
G1 E.8 F2100
M204 S800
;TYPE:Skirt/Brim
;WIDTH:0.42
G1 F1200
G1 X113.616 Y93.254 E.04133
G1 X115.152 Y92.193 E.05853
G1 X116.385 Y91.726 E.04133
G1 X118.57 Y91.481 E.06894
G1 X132.257 Y91.481 E.42914
G1 X133.233 Y91.66 E.03113
G1 X134.979 Y92.322 E.05853
G1 X136.064 Y93.07 E.04133
G1 X137.301 Y94.468 E.05853
G1 X137.914 Y95.635 E.04133
G1 X138.361 Y97.447 E.05853
G1 X138.441 Y98.106 E.02082
G1 X138.441 Y111.894 E.43229
G1 X138.361 Y112.553 E.02082
G1 X137.914 Y114.365 E.05853
G1 X137.301 Y115.532 E.04133
G1 X136.064 Y116.93 E.05853
G1 X134.979 Y117.678 E.04133
G1 X133.233 Y118.34 E.05853
G1 X132.257 Y118.519 E.03113
G1 X118.238 Y118.499 E.43955
G1 X116.385 Y118.274 E.05853
G1 X115.152 Y117.807 E.04133
G1 X113.616 Y116.746 E.05853
G1 X112.742 Y115.76 E.04133
G1 X111.875 Y114.107 E.05853
G1 X111.559 Y112.827 E.04133
G1 X111.559 Y97.173 E.49082
G1 X111.875 Y95.893 E.04133
G1 X112.714 Y94.293 E.05665
M204 S1000
G1 X113.048 Y94.469 F10800
M204 S800
G1 F1200
G1 X113.076 Y94.416 E.00188
G1 X113.83 Y93.564 E.03567
G1 X115.367 Y92.504 E.05853
G1 X116.431 Y92.1 E.03567
G1 X118.284 Y91.875 E.05853
G1 X132.257 Y91.858 E.43812
G1 X133.1 Y92.012 E.02687
G1 X134.845 Y92.674 E.05853
G1 X135.781 Y93.32 E.03567
G1 X137.019 Y94.718 E.05853
G1 X137.548 Y95.725 E.03567
G1 X137.995 Y97.538 E.05853
G1 X138.064 Y98.106 E.01797
G1 X138.064 Y111.894 E.43229
G1 X137.995 Y112.462 E.01797
M73 P2 R11
G1 X137.548 Y114.275 E.05853
G1 X137.019 Y115.282 E.03567
G1 X135.781 Y116.68 E.05853
G1 X134.845 Y117.326 E.03567
G1 X133.1 Y117.988 E.05853
G1 X132.257 Y118.142 E.02687
G1 X118.284 Y118.125 E.43812
G1 X116.431 Y117.9 E.05853
G1 X115.367 Y117.496 E.03567
G1 X113.83 Y116.436 E.05853
G1 X113.076 Y115.584 E.03567
G1 X112.209 Y113.932 E.05853
G1 X111.936 Y112.827 E.03567
G1 X111.936 Y97.173 E.49082
G1 X112.209 Y96.068 E.03567
G1 X113.02 Y94.522 E.05477
M204 S1000
; printing object FactionTray_Pin.stl id:0 copy 3
;WIPE_START
G1 F8640
G1 X113.076 Y94.416 E-.02771
G1 X113.83 Y93.564 E-.26271
G1 X115.367 Y92.504 E-.43102
G1 X115.523 Y92.444 E-.03857
;WIPE_END
G1 E-.04 F2100
G1 Z.6 F720
G1 X134.12 Y113.234 F10800
G1 Z.2 F720
G1 E.8 F2100
M204 S800
;TYPE:Perimeter
;WIDTH:0.419999
G1 F1200
G1 X133.153 Y114.215 E.0432
G1 X132.999 Y114.274 E.00516
G1 X131.824 Y114.588 E.03812
G1 X131.66 Y114.568 E.00518
G1 X130.59 Y114.282 E.03473
G1 X130.349 Y114.159 E.00848
G1 X129.556 Y113.367 E.03514
G1 X129.411 Y113.152 E.00813
G1 X129.118 Y112.057 E.03555
G1 X129.096 Y111.811 E.00775
G1 X129.393 Y110.703 E.03595
G1 X129.488 Y110.488 E.00736
G1 X129.934 Y110.043 E.01974
G1 X130.485 Y109.534 E.02353
G1 X131.106 Y109.367 E.02015
G1 X131.824 Y109.199 E.02313
G1 X133.153 Y109.572 E.04326
G1 X134.12 Y110.553 E.0432
G1 X134.474 Y111.894 E.04346
G1 X134.135 Y113.176 E.04158
M204 S1000
G1 X134.462 Y113.417 F10800
M204 S800
;TYPE:External perimeter
G1 F1200
G1 X134.287 Y113.614 E.00827
G1 X133.362 Y114.539 E.041
G1 X133.115 Y114.633 E.0083
G1 X131.851 Y114.971 E.04101
G1 X131.588 Y114.939 E.00831
G1 X130.325 Y114.601 E.04102
G1 X130.106 Y114.45 E.00832
G1 X129.181 Y113.525 E.04102
G1 X129.058 Y113.29 E.00832
G1 X128.754 Y112.154 E.03686
G1 X128.719 Y111.761 E.01239
G1 X129.029 Y110.605 E.03751
G1 X129.181 Y110.262 E.01177
G1 X130.042 Y109.402 E.03816
G1 X130.325 Y109.186 E.01115
G1 X131.52 Y108.866 E.0388
G1 X131.851 Y108.816 E.01051
G1 X133.362 Y109.248 E.04927
G1 X134.462 Y110.37 E.04926
G1 X134.864 Y111.894 E.0494
G1 X134.477 Y113.359 E.04751
M204 S1000
M73 P2 R10
G1 X134.198 Y113.428 F10800
;WIPE_START
G1 F8640
G1 X134.287 Y113.614 E-.07356
G1 X133.362 Y114.539 E-.30192
G1 X133.115 Y114.633 E-.06111
G1 X131.851 Y114.971 E-.302
G1 X131.759 Y114.96 E-.02141
;WIPE_END
G1 E-.04 F2100
G1 Z.6 F720
G1 X134.049 Y110.95 F10800
G1 Z.2 F720
G1 E.8 F2100
M204 S800
;TYPE:Solid infill
;WIDTH:0.421738
G1 F1200
G1 X132.968 Y109.868 E.04817
G1 X132.225 Y109.662 E.02427
G1 X134.003 Y111.439 E.07917
G1 X134.123 Y111.894 E.01481
G1 X134.081 Y112.053 E.00518
G1 X131.611 Y109.583 E.11
G1 X131.189 Y109.697 E.01378
G1 X133.969 Y112.477 E.12384
G1 X133.857 Y112.9 E.01381
G1 X130.766 Y109.81 E.13768
G1 X130.63 Y109.846 E.00445
G1 X130.439 Y110.018 E.00809
G1 X133.654 Y113.234 E.14324
G1 X133.386 Y113.501 E.01193
M73 P3 R10
G1 X130.171 Y110.286 E.14324
G1 X129.903 Y110.554 E.01193
G1 X133.119 Y113.769 E.14324
G1 X132.969 Y113.918 E.00664
G1 X132.784 Y113.97 E.00608
G1 X129.696 Y110.883 E.13752
G1 X129.583 Y111.305 E.01378
G1 X132.364 Y114.086 E.12389
G1 X131.945 Y114.203 E.01371
G1 X129.47 Y111.728 E.11025
G1 X129.436 Y111.855 E.00415
G1 X129.436 Y111.932 E.00242
G1 X129.545 Y112.338 E.01325
G1 X131.337 Y114.13 E.07982
G1 X130.63 Y113.941 E.02305
G1 X130.571 Y113.9 E.00226
G1 X129.501 Y112.83 E.04766
M204 S1000
; stop printing object FactionTray_Pin.stl id:0 copy 3
; printing object FactionTray_Pin.stl id:0 copy 2
;WIPE_START
G1 F8640
G1 X130.571 Y113.9 E-.34938
G1 X130.63 Y113.941 E-.01655
G1 X131.337 Y114.13 E-.16897
G1 X130.647 Y113.441 E-.22509
;WIPE_END
G1 E-.04 F2100
G1 Z.6 F720
G1 X120.433 Y113.234 F10800
G1 Z.2 F720
G1 E.8 F2100
M204 S800
;TYPE:Perimeter
;WIDTH:0.419999
G1 F1200
G1 X119.466 Y114.215 E.0432
G1 X119.312 Y114.274 E.00516
G1 X118.138 Y114.588 E.03812
G1 X117.973 Y114.568 E.00518
G1 X116.903 Y114.282 E.03473
G1 X116.662 Y114.159 E.00848
G1 X115.87 Y113.367 E.03514
G1 X115.725 Y113.152 E.00813
G1 X115.431 Y112.057 E.03555
G1 X115.41 Y111.811 E.00775
G1 X115.707 Y110.703 E.03595
G1 X115.802 Y110.488 E.00736
G1 X116.247 Y110.043 E.01974
G1 X116.799 Y109.534 E.02353
G1 X117.419 Y109.367 E.02015
G1 X118.138 Y109.199 E.02313
G1 X119.466 Y109.572 E.04326
G1 X120.433 Y110.553 E.0432
G1 X120.787 Y111.894 E.04346
G1 X120.449 Y113.176 E.04158
M204 S1000
G1 X120.775 Y113.417 F10800
M204 S800
;TYPE:External perimeter
G1 F1200
G1 X120.6 Y113.614 E.00827
G1 X119.675 Y114.539 E.041
G1 X119.428 Y114.633 E.0083
G1 X118.165 Y114.971 E.04101
G1 X117.902 Y114.939 E.00831
G1 X116.638 Y114.601 E.04102
G1 X116.42 Y114.45 E.00832
G1 X115.495 Y113.525 E.04102
G1 X115.371 Y113.29 E.00832
G1 X115.067 Y112.154 E.03686
G1 X115.033 Y111.761 E.01239
G1 X115.342 Y110.605 E.03751
G1 X115.495 Y110.262 E.01177
G1 X116.355 Y109.402 E.03816
G1 X116.638 Y109.186 E.01115
G1 X117.833 Y108.866 E.0388
G1 X118.165 Y108.816 E.01051
G1 X119.675 Y109.248 E.04927
G1 X120.775 Y110.37 E.04926
G1 X121.177 Y111.894 E.0494
G1 X120.79 Y113.359 E.04751
M204 S1000
G1 X120.511 Y113.428 F10800
;WIPE_START
G1 F8640
G1 X120.6 Y113.614 E-.07356
G1 X119.675 Y114.539 E-.30192
G1 X119.428 Y114.633 E-.06111
G1 X118.165 Y114.971 E-.302
G1 X118.073 Y114.96 E-.02141
;WIPE_END
G1 E-.04 F2100
G1 Z.6 F720
G1 X120.362 Y110.95 F10800
G1 Z.2 F720
G1 E.8 F2100
M204 S800
;TYPE:Solid infill
;WIDTH:0.421738
G1 F1200
G1 X119.281 Y109.868 E.04817
G1 X118.539 Y109.662 E.02427
G1 X120.316 Y111.439 E.07917
G1 X120.436 Y111.894 E.01481
G1 X120.394 Y112.053 E.00518
G1 X117.925 Y109.583 E.11
G1 X117.502 Y109.697 E.01378
G1 X120.282 Y112.477 E.12384
G1 X120.17 Y112.9 E.01381
G1 X117.08 Y109.81 E.13768
G1 X116.943 Y109.846 E.00445
G1 X116.752 Y110.018 E.00809
G1 X119.968 Y113.234 E.14324
G1 X119.7 Y113.501 E.01193
G1 X116.484 Y110.286 E.14324
G1 X116.216 Y110.554 E.01193
G1 X119.432 Y113.769 E.14324
G1 X119.283 Y113.918 E.00664
G1 X119.097 Y113.97 E.00608
G1 X116.01 Y110.883 E.13752
G1 X115.896 Y111.305 E.01378
G1 X118.678 Y114.086 E.12389
G1 X118.258 Y114.203 E.01371
G1 X115.783 Y111.728 E.11025
G1 X115.749 Y111.855 E.00415
G1 X115.749 Y111.932 E.00242
G1 X115.858 Y112.338 E.01325
G1 X117.65 Y114.13 E.07982
G1 X116.943 Y113.941 E.02305
M73 P4 R10
G1 X116.884 Y113.9 E.00226
G1 X115.814 Y112.83 E.04766
M204 S1000
; stop printing object FactionTray_Pin.stl id:0 copy 2
; printing object FactionTray_Pin.stl id:0 copy 0
;WIPE_START
G1 F8640
G1 X116.884 Y113.9 E-.34938
G1 X116.943 Y113.941 E-.01655
G1 X117.65 Y114.13 E-.16897
G1 X116.961 Y113.441 E-.22509
;WIPE_END
G1 E-.04 F2100
G1 Z.6 F720
G1 X120.433 Y99.447 F10800
G1 Z.2 F720
G1 E.8 F2100
M204 S800
;TYPE:Perimeter
;WIDTH:0.419999
G1 F1200
G1 X119.466 Y100.428 E.0432
G1 X119.312 Y100.486 E.00516
G1 X118.138 Y100.801 E.03812
G1 X117.973 Y100.781 E.00518
G1 X116.903 Y100.494 E.03473
G1 X116.662 Y100.372 E.00848
G1 X115.87 Y99.58 E.03514
G1 X115.725 Y99.365 E.00813
G1 X115.431 Y98.27 E.03555
G1 X115.41 Y98.023 E.00775
G1 X115.707 Y96.916 E.03595
G1 X115.802 Y96.701 E.00736
G1 X116.247 Y96.256 E.01974
G1 X116.799 Y95.747 E.02353
G1 X117.419 Y95.58 E.02015
G1 X118.138 Y95.412 E.02313
G1 X119.466 Y95.785 E.04326
G1 X120.433 Y96.766 E.0432
G1 X120.787 Y98.106 E.04346
G1 X120.449 Y99.389 E.04158
M204 S1000
G1 X120.775 Y99.63 F10800
M204 S800
;TYPE:External perimeter
G1 F1200
G1 X120.6 Y99.827 E.00827
G1 X119.675 Y100.752 E.041
G1 X119.428 Y100.846 E.0083
G1 X118.165 Y101.184 E.04101
G1 X117.902 Y101.152 E.00831
G1 X116.638 Y100.814 E.04102
G1 X116.42 Y100.663 E.00832
G1 X115.495 Y99.738 E.04102
G1 X115.371 Y99.503 E.00832
G1 X115.067 Y98.367 E.03686
G1 X115.033 Y97.974 E.01239
G1 X115.342 Y96.818 E.03751
G1 X115.495 Y96.475 E.01177
G1 X116.355 Y95.614 E.03816
G1 X116.638 Y95.399 E.01115
G1 X117.833 Y95.079 E.0388
G1 X118.165 Y95.029 E.01051
G1 X119.675 Y95.461 E.04927
G1 X120.775 Y96.583 E.04926
G1 X121.177 Y98.106 E.0494
G1 X120.79 Y99.572 E.04751
M204 S1000
G1 X120.511 Y99.64 F10800
;WIPE_START
G1 F8640
G1 X120.6 Y99.827 E-.07356
G1 X119.675 Y100.752 E-.30192
G1 X119.428 Y100.846 E-.06111
G1 X118.165 Y101.184 E-.302
G1 X118.073 Y101.173 E-.02141
;WIPE_END
G1 E-.04 F2100
G1 Z.6 F720
G1 X120.362 Y97.162 F10800
G1 Z.2 F720
G1 E.8 F2100
M204 S800
;TYPE:Solid infill
;WIDTH:0.421738
G1 F1200
G1 X119.281 Y96.081 E.04817
G1 X118.539 Y95.874 E.02427
G1 X120.316 Y97.652 E.07917
G1 X120.436 Y98.106 E.01481
G1 X120.394 Y98.265 E.00518
G1 X117.925 Y95.796 E.11
G1 X117.502 Y95.909 E.01378
G1 X120.282 Y98.689 E.12384
G1 X120.17 Y99.113 E.01381
G1 X117.08 Y96.023 E.13768
G1 X116.943 Y96.059 E.00445
G1 X116.752 Y96.231 E.00809
G1 X119.968 Y99.446 E.14324
G1 X119.7 Y99.714 E.01193
G1 X116.484 Y96.499 E.14324
G1 X116.216 Y96.766 E.01193
G1 X119.432 Y99.982 E.14324
G1 X119.283 Y100.131 E.00664
G1 X119.097 Y100.183 E.00608
G1 X116.01 Y97.096 E.13752
G1 X115.896 Y97.518 E.01378
G1 X118.678 Y100.299 E.12389
G1 X118.258 Y100.416 E.01371
G1 X115.783 Y97.941 E.11025
G1 X115.749 Y98.068 E.00415
G1 X115.749 Y98.145 E.00242
G1 X115.858 Y98.551 E.01325
G1 X117.65 Y100.343 E.07982
G1 X116.943 Y100.154 E.02305
G1 X116.884 Y100.113 E.00226
G1 X115.814 Y99.043 E.04766
M204 S1000
; stop printing object FactionTray_Pin.stl id:0 copy 0
; printing object FactionTray_Pin.stl id:0 copy 1
;WIPE_START
G1 F8640
G1 X116.884 Y100.113 E-.34938
G1 X116.943 Y100.154 E-.01655
G1 X117.65 Y100.343 E-.16897
G1 X116.961 Y99.654 E-.22509
;WIPE_END
G1 E-.04 F2100
G1 Z.6 F720
G1 X134.12 Y99.447 F10800
G1 Z.2 F720
G1 E.8 F2100
M204 S800
;TYPE:Perimeter
;WIDTH:0.419999
G1 F1200
G1 X133.153 Y100.428 E.0432
G1 X132.999 Y100.486 E.00516
G1 X131.824 Y100.801 E.03812
G1 X131.66 Y100.781 E.00518
G1 X130.59 Y100.494 E.03473
G1 X130.349 Y100.372 E.00848
G1 X129.556 Y99.58 E.03514
G1 X129.411 Y99.365 E.00813
G1 X129.118 Y98.27 E.03555
G1 X129.096 Y98.023 E.00775
G1 X129.393 Y96.916 E.03595
G1 X129.488 Y96.701 E.00736
G1 X129.934 Y96.256 E.01974
G1 X130.485 Y95.747 E.02353
G1 X131.106 Y95.58 E.02015
G1 X131.824 Y95.412 E.02313
G1 X133.153 Y95.785 E.04326
G1 X134.12 Y96.766 E.0432
G1 X134.474 Y98.106 E.04346
M73 P5 R10
G1 X134.135 Y99.389 E.04158
M204 S1000
G1 X134.462 Y99.63 F10800
M204 S800
;TYPE:External perimeter
G1 F1200
G1 X134.287 Y99.827 E.00827
G1 X133.362 Y100.752 E.041
G1 X133.115 Y100.846 E.0083
G1 X131.851 Y101.184 E.04101
G1 X131.588 Y101.152 E.00831
G1 X130.325 Y100.814 E.04102
G1 X130.106 Y100.663 E.00832
G1 X129.181 Y99.738 E.04102
G1 X129.058 Y99.503 E.00832
G1 X128.754 Y98.367 E.03686
G1 X128.719 Y97.974 E.01239
G1 X129.029 Y96.818 E.03751
G1 X129.181 Y96.475 E.01177
G1 X130.042 Y95.614 E.03816
G1 X130.325 Y95.399 E.01115
G1 X131.52 Y95.079 E.0388
G1 X131.851 Y95.029 E.01051
G1 X133.362 Y95.461 E.04927
G1 X134.462 Y96.583 E.04926
G1 X134.864 Y98.106 E.0494
G1 X134.477 Y99.572 E.04751
M204 S1000
G1 X134.198 Y99.64 F10800
;WIPE_START
G1 F8640
G1 X134.287 Y99.827 E-.07356
G1 X133.362 Y100.752 E-.30192
G1 X133.115 Y100.846 E-.06111
G1 X131.851 Y101.184 E-.302
G1 X131.759 Y101.173 E-.02141
;WIPE_END
G1 E-.04 F2100
G1 Z.6 F720
G1 X134.049 Y97.162 F10800
G1 Z.2 F720
G1 E.8 F2100
M204 S800
;TYPE:Solid infill
;WIDTH:0.421738
G1 F1200
G1 X132.968 Y96.081 E.04817
G1 X132.225 Y95.874 E.02427
G1 X134.003 Y97.652 E.07917
G1 X134.123 Y98.106 E.01481
G1 X134.081 Y98.265 E.00518
G1 X131.611 Y95.796 E.11
G1 X131.189 Y95.909 E.01378
G1 X133.969 Y98.689 E.12384
G1 X133.857 Y99.113 E.01381
G1 X130.766 Y96.023 E.13768
G1 X130.63 Y96.059 E.00445
G1 X130.439 Y96.231 E.00809
G1 X133.654 Y99.446 E.14324
G1 X133.386 Y99.714 E.01193
G1 X130.171 Y96.499 E.14324
G1 X129.903 Y96.766 E.01193
G1 X133.119 Y99.982 E.14324
G1 X132.969 Y100.131 E.00664
G1 X132.784 Y100.183 E.00608
G1 X129.696 Y97.096 E.13752
G1 X129.583 Y97.518 E.01378
G1 X132.364 Y100.299 E.12389
G1 X131.945 Y100.416 E.01371
G1 X129.47 Y97.941 E.11025
G1 X129.436 Y98.068 E.00415
G1 X129.436 Y98.145 E.00242
G1 X129.545 Y98.551 E.01325
G1 X131.337 Y100.343 E.07982
G1 X130.63 Y100.154 E.02305
G1 X130.571 Y100.113 E.00226
G1 X129.501 Y99.043 E.04766
M204 S1000
; stop printing object FactionTray_Pin.stl id:0 copy 1
M106 S84.15
;LAYER_CHANGE
;Z:0.4
;HEIGHT:0.2
;BEFORE_LAYER_CHANGE
G92 E0.0
;0.4


;WIPE_START
G1 F8640
G1 X130.571 Y100.113 E-.34938
G1 X130.63 Y100.154 E-.01655
G1 X131.337 Y100.343 E-.16897
G1 X130.647 Y99.654 E-.22509
;WIPE_END
G1 E-.04 F2100
G1 Z.6 F720
;AFTER_LAYER_CHANGE
;0.4
M104 S210 ; set temperature
G1 X138.441 Y99.654 F10800
G1 Z.4 F720
G1 E.8 F2100
;TYPE:Skirt/Brim
;WIDTH:0.42
G1 F3600
G1 X138.441 Y111.894 E.38377
G1 X138.361 Y112.553 E.02082
G1 X137.914 Y114.365 E.05853
G1 X137.301 Y115.532 E.04133
G1 X136.064 Y116.93 E.05853
G1 X134.979 Y117.678 E.04133
G1 X133.233 Y118.34 E.05853
G1 X132.257 Y118.519 E.03113
G1 X118.238 Y118.499 E.43955
G1 X116.385 Y118.274 E.05853
G1 X115.152 Y117.807 E.04133
G1 X113.616 Y116.746 E.05853
G1 X112.742 Y115.76 E.04133
G1 X111.875 Y114.107 E.05853
G1 X111.559 Y112.827 E.04133
G1 X111.559 Y97.173 E.49082
G1 X111.875 Y95.893 E.04133
G1 X112.742 Y94.24 E.05853
G1 X113.616 Y93.254 E.04133
G1 X115.152 Y92.193 E.05853
G1 X116.385 Y91.726 E.04133
G1 X118.57 Y91.481 E.06894
G1 X132.257 Y91.481 E.42914
G1 X133.233 Y91.66 E.03113
G1 X134.979 Y92.322 E.05853
