; generated by PrusaSlicer 2.5.1+win64 on 2023-04-01 at 14:06:00 UTC


;
;
; 

; external perimeters extrusion width = 0.45mm
; perimeters extrusion width = 0.45mm
; infill extrusion width = 0.45mm
; solid infill extrusion width = 0.45mm
; top infill extrusion width = 0.40mm
; support material extrusion width = 0.35mm
; first layer extrusion width = 0.42mm

M73 P0 R89
M201 X9000 Y9000 Z500 E10000 ; sets maximum accelerations, mm/sec^2
M203 X500 Y500 Z12 E120 ; sets maximum feedrates, mm / sec
M204 P2000 R1500 T2000 ; sets acceleration (P, T) and retract acceleration (R), mm/sec^2
M205 X10.00 Y10.00 Z0.20 E4.50 ; sets the jerk limits, mm/sec
M205 S0 T0 ; sets the minimum extruding and travel feed rate, mm/sec
M107
;TYPE:Custom
M862.3 P "MK2.5S" ; printer model check
M862.1 P0.4 ; nozzle diameter check
M115 U3.12.1 ; tell printer latest fw version
G90 ; use absolute coordinates
M83 ; extruder relative mode
M104 S215 ; set extruder temp
M140 S60 ; set bed temp
M190 S60 ; wait for bed temp
M109 S215 ; wait for extruder temp
G28 W ; home all without mesh bed level
G80 ; mesh bed leveling

G1 Z0.2 F720
G1 Y-3 F1000 ; go outside print area
G92 E0
G1 X60 E9 F1000 ; intro line
G1 X100 E12.5 F1000 ; intro line

G92 E0
G21 ; set units to millimeters
G90 ; use absolute coordinates
M83 ; use relative distances for extrusion
M900 K0.05 ; Filament gcode LA 1.5
M900 K30 ; Filament gcode LA 1.0
M107
;LAYER_CHANGE
;Z:0.2
;HEIGHT:0.2
;BEFORE_LAYER_CHANGE
G92 E0.0
;0.2


G1 E-.8 F2100
G1 Z.4 F720
;AFTER_LAYER_CHANGE
;0.2
G1 X53.635 Y66.792 F10800
G1 Z.2 F720
G1 E.8 F2100
M204 S800
;TYPE:Skirt/Brim
;WIDTH:0.42
G1 F1200
G1 X54.575 Y66.598 E.03008
G1 X195 Y66.598 E4.40293
G1 X196.681 Y67.294 E.05704
G1 X197.106 Y67.719 E.01885
G1 X197.802 Y69.4 E.05704
G1 X197.802 Y140.6 E2.23243
G1 X197.106 Y142.281 E.05704
G1 X196.681 Y142.706 E.01885
G1 X195 Y143.402 E.05704
G1 X54.575 Y143.402 E4.40293
G1 X53.268 Y143.01 E.04278
G1 X52.392 Y141.965 E.04278
G1 X52.198 Y141.025 E.03008
G1 X52.198 Y68.975 E2.25908
G1 X52.59 Y67.668 E.04278
M73 P0 R88
G1 X53.589 Y66.83 E.0409
M204 S1000
; printing object CardboardTray_Lid2.stl id:0 copy 0
;WIPE_START
G1 F8640
G1 X54.575 Y66.598 E-.23384
G1 X56.854 Y66.598 E-.52616
;WIPE_END
G1 E-.04 F2100
G1 Z.6 F720
G1 X85.183 Y80.244 F10800
G1 X90.235 Y83.16
G1 X91.058 Y88.993
G1 X96.109 Y91.909
G1 X101.572 Y89.706
G1 X107.783 Y92.427
G1 X112.497 Y89.706
G1 X117.548 Y92.622
G1 X118.297 Y99.362
G1 X124.171 Y101.889
G1 X128.885 Y99.167
G1 X133.936 Y102.084
G1 X134.685 Y108.824
G1 X186.769 Y137.36
G1 Z.2 F720
G1 E.8 F2100
M204 S800
;TYPE:Perimeter
;WIDTH:0.419999
G1 F1200
G1 X186.694 Y137.401 E.00269
G1 X186.366 Y137.822 E.01674
G1 X186.279 Y138.001 E.00624
G1 X186.258 Y138.546 E.01709
G1 X186.366 Y138.878 E.01096
G1 X186.595 Y139.194 E.01226
;WIDTH:0.467304
G1 X186.795 Y139.322 E.00835
;WIDTH:0.514609
G1 X186.994 Y139.449 E.00928
;WIDTH:0.561913
G1 X187.193 Y139.577 E.01021
;WIDTH:0.581879
G1 X187.39 Y139.618 E.00901
G1 X191.017 Y139.618 E.16256
;WIDTH:0.581881
G1 X190.641 Y139.894 E.0209
G1 X190.431 Y140.157 E.01511
G1 X187.39 Y140.157 E.13627
;WIDTH:0.58765
G1 X187.192 Y140.147 E.00896
G1 X187.093 Y140.17 E.0046
;WIDTH:0.545738
G1 X186.994 Y140.193 E.00425
;WIDTH:0.503825
G1 X186.895 Y140.215 E.00389
;WIDTH:0.461912
G1 X186.796 Y140.238 E.00354
;WIDTH:0.419999
G1 X129.708 Y140.238 E1.78997
;WIDTH:0.427403
G1 X123.837 Y140.234 E.18769
;WIDTH:0.445615
G1 X123.008 Y140.238 E.02777
;WIDTH:0.419999
G1 X117.96 Y140.238 E.15828
;WIDTH:0.427403
G1 X112.912 Y140.234 E.16138
;WIDTH:0.445615
G1 X112.082 Y140.238 E.02777
;WIDTH:0.419999
G1 X107.034 Y140.238 E.15828
;WIDTH:0.427403
G1 X101.986 Y140.234 E.16138
;WIDTH:0.445615
G1 X101.157 Y140.238 E.02777
;WIDTH:0.419999
G1 X96.109 Y140.238 E.15828
;WIDTH:0.427403
G1 X91.061 Y140.234 E.16138
;WIDTH:0.445615
G1 X90.231 Y140.238 E.02777
;WIDTH:0.419999
G1 X55.362 Y140.238 E1.0933
G1 X55.362 Y69.762 E2.20972
G1 X84.361 Y69.762 E.90923
;WIDTH:0.427403
G1 X90.231 Y69.766 E.18769
;WIDTH:0.445615
G1 X91.061 Y69.762 E.02777
;WIDTH:0.419999
G1 X96.109 Y69.762 E.15828
;WIDTH:0.427403
G1 X101.157 Y69.766 E.16138
;WIDTH:0.445615
G1 X101.986 Y69.762 E.02777
;WIDTH:0.419999
G1 X107.034 Y69.762 E.15828
;WIDTH:0.427403
G1 X112.082 Y69.766 E.16138
;WIDTH:0.445615
G1 X112.912 Y69.762 E.02777
;WIDTH:0.419999
G1 X117.96 Y69.762 E.15828
;WIDTH:0.427403
G1 X123.008 Y69.766 E.16138
;WIDTH:0.445615
G1 X123.837 Y69.762 E.02777
;WIDTH:0.419999
G1 X186.746 Y69.762 E1.97245
;WIDTH:0.46047
G1 X186.907 Y69.782 E.00564
;WIDTH:0.50094
G1 X187.068 Y69.803 E.00618
;WIDTH:0.541411
G1 X187.229 Y69.823 E.00673
;WIDTH:0.581881
G1 X187.39 Y69.843 E.00728
G1 X190.431 Y69.843 E.13628
G1 X190.712 Y70.182 E.01972
G1 X190.993 Y70.382 E.01548
G1 X187.39 Y70.382 E.16149
;WIDTH:0.588822
G1 X187.278 Y70.388 E.00511
G1 X187.178 Y70.441 E.00513
;WIDTH:0.546617
G1 X187.078 Y70.494 E.00473
;WIDTH:0.504411
G1 X186.978 Y70.547 E.00434
;WIDTH:0.462205
G1 X186.878 Y70.6 E.00394
;WIDTH:0.419999
G1 X186.595 Y70.806 E.01096
G1 X186.366 Y71.122 E.01226
G1 X186.258 Y71.454 E.01096
G1 X186.258 Y71.846 E.01226
G1 X186.321 Y72.105 E.00837
G1 X186.665 Y72.573 E.01822
G1 X186.878 Y72.7 E.00779
G1 X187.39 Y72.837 E.01661
G1 X194.638 Y72.837 E.22726
G1 X194.638 Y137.163 E2.01689
G1 X187.39 Y137.163 E.22726
G1 X186.878 Y137.3 E.01661
G1 X186.822 Y137.331 E.00202
M204 S1000
;WIPE_START
G1 F8640
G1 X186.694 Y137.401 E-.03364
G1 X186.366 Y137.822 E-.12327
G1 X186.279 Y138.001 E-.04593
G1 X186.258 Y138.546 E-.12584
G1 X186.366 Y138.878 E-.08071
G1 X186.595 Y139.194 E-.09031
G1 X186.795 Y139.322 E-.05462
G1 X186.994 Y139.449 E-.05462
G1 X187.193 Y139.577 E-.05462
G1 X187.39 Y139.618 E-.0464
G1 X187.607 Y139.618 E-.05002
;WIPE_END
G1 E-.04 F2100
G1 Z.6 F720
G1 X193.62 Y139.606 F10800
G1 Z.2 F720
G1 E.8 F2100
M204 S800
;WIDTH:0.557161
G1 F1200
G1 X194.569 Y139.606 E.0406
G1 X194.569 Y140.169 E.0241
M73 P1 R88
G1 X194.224 Y140.169 E.01475
G1 X193.94 Y139.826 E.01904
G1 X193.669 Y139.64 E.01407
M204 S1000
;WIPE_START
G1 F8640
G1 X194.569 Y139.606 E-.20799
G1 X194.569 Y140.169 E-.13016
G1 X194.224 Y140.169 E-.07966
G1 X193.94 Y139.826 E-.10284
G1 X193.669 Y139.64 E-.07597
;WIPE_END
G1 E-.20339 F2100
G1 Z.6 F720
G1 X193.528 Y139.884 F10800
G1 X194.859 Y139.316
G1 X187.335 Y139.316
G1 X186.84 Y139.155
G1 X145.239 Y101.866
G1 X140.336 Y99.035
G1 X139.81 Y98.855
G1 X134.206 Y101.928
G1 X129.358 Y99.128
G1 X129.004 Y98.924
G1 X128.98 Y98.965
G1 Z.2 F720
G1 E.8 F2100
M204 S800
;TYPE:External perimeter
;WIDTH:0.42146
G1 F1200
G1 X134.064 Y101.901 E.18478
;WIDTH:0.45074
G1 X134.111 Y101.928 E.00185
;WIDTH:0.48002
G1 X134.158 Y101.955 E.00199
G1 X134.158 Y102.01 E.00199
;WIDTH:0.45074
G1 X134.158 Y102.065 E.00185
;WIDTH:0.42146
G1 X134.158 Y107.935 E.18478
;WIDTH:0.45074
G1 X134.158 Y107.99 E.00185
;WIDTH:0.48002
G1 X134.158 Y108.045 E.00199
G1 X134.111 Y108.072 E.00199
;WIDTH:0.45074
G1 X134.064 Y108.099 E.00185
;WIDTH:0.421459
G1 X128.98 Y111.035 E.18478
;WIDTH:0.450739
G1 X128.932 Y111.062 E.00185
;WIDTH:0.48002
G1 X128.885 Y111.089 E.00199
G1 X128.838 Y111.062 E.00199
;WIDTH:0.45074
G1 X128.79 Y111.035 E.00185
;WIDTH:0.42146
G1 X123.706 Y108.099 E.18478
;WIDTH:0.45074
G1 X123.659 Y108.072 E.00185
;WIDTH:0.48002
G1 X123.612 Y108.045 E.00199
G1 X123.612 Y107.99 E.00199
;WIDTH:0.45074
G1 X123.612 Y107.935 E.00185
;WIDTH:0.42146
G1 X123.612 Y102.065 E.18478
;WIDTH:0.45074
G1 X123.612 Y102.01 E.00185
;WIDTH:0.48002
G1 X123.612 Y101.955 E.00199
G1 X123.659 Y101.928 E.00199
;WIDTH:0.45074
G1 X123.706 Y101.901 E.00185
;WIDTH:0.42146
G1 X128.79 Y98.965 E.18478
;WIDTH:0.45074
G1 X128.838 Y98.938 E.00185
;WIDTH:0.48002
G1 X128.885 Y98.911 E.00199
G1 X128.928 Y98.935 E.00179
M204 S1000
G1 X129.302 Y98.728 F10800
;WIPE_START
G1 F8640
G1 X131.778 Y100.581 E-.76
;WIPE_END
G1 E-.04 F2100
G1 Z.6 F720
G1 X131.802 Y100.54 F10800
G1 X134.206 Y101.928
G1 X134.206 Y108.072
G1 X129.026 Y111.389
G1 X129.026 Y115.593
G1 X128.744 Y117.397
G1 X128.696 Y117.397
G1 Z.2 F720
G1 E.8 F2100
M204 S800
;WIDTH:0.45074
G1 F1200
G1 X128.696 Y117.452 E.00185
;WIDTH:0.48002
G1 X128.696 Y117.506 E.00199
G1 X128.648 Y117.534 E.00199
;WIDTH:0.45074
G1 X128.601 Y117.561 E.00185
;WIDTH:0.421459
G1 X123.517 Y120.496 E.18478
;WIDTH:0.45074
G1 X123.47 Y120.524 E.00185
;WIDTH:0.48002
G1 X123.422 Y120.551 E.00199
G1 X123.375 Y120.524 E.00199
;WIDTH:0.45074
G1 X123.328 Y120.496 E.00185
;WIDTH:0.421461
G1 X118.244 Y117.561 E.18478
;WIDTH:0.450741
G1 X118.196 Y117.534 E.00185
;WIDTH:0.48002
G1 X118.149 Y117.506 E.00199
G1 X118.149 Y117.452 E.00199
;WIDTH:0.45074
G1 X118.149 Y117.397 E.00185
;WIDTH:0.42146
G1 X118.149 Y111.526 E.18478
;WIDTH:0.45074
G1 X118.149 Y111.472 E.00185
;WIDTH:0.48002
G1 X118.149 Y111.417 E.00199
G1 X118.196 Y111.39 E.00199
;WIDTH:0.45074
G1 X118.244 Y111.362 E.00185
;WIDTH:0.421459
G1 X123.328 Y108.427 E.18478
;WIDTH:0.45074
G1 X123.375 Y108.4 E.00185
;WIDTH:0.48002
G1 X123.422 Y108.372 E.00199
G1 X123.47 Y108.4 E.00199
;WIDTH:0.45074
G1 X123.517 Y108.427 E.00185
;WIDTH:0.42146
G1 X128.601 Y111.362 E.18478
;WIDTH:0.45074
G1 X128.648 Y111.39 E.00185
;WIDTH:0.48002
G1 X128.696 Y111.417 E.00199
G1 X128.696 Y111.472 E.00199
;WIDTH:0.45074
G1 X128.696 Y111.526 E.00185
;WIDTH:0.42146
G1 X128.696 Y117.337 E.1829
M204 S1000
;WIPE_START
G1 F8640
G1 X128.696 Y117.452 E-.02647
G1 X128.696 Y117.506 E-.01262
G1 X128.648 Y117.534 E-.01262
G1 X128.601 Y117.561 E-.01262
G1 X125.992 Y119.067 E-.69568
;WIPE_END
G1 E-.04 F2100
G1 Z.6 F720
G1 X126.016 Y119.109 F10800
G1 X123.422 Y120.606
G1 X117.96 Y117.779
G1 X112.497 Y120.606
G1 X107.176 Y117.534
G1 X107.176 Y117.506
G1 X107.224 Y117.506
G1 Z.2 F720
G1 E.8 F2100
M204 S800
;WIDTH:0.48002
G1 F1200
G1 X107.224 Y117.452 E.00199
;WIDTH:0.45074
G1 X107.224 Y117.397 E.00185
;WIDTH:0.42146
G1 X107.224 Y111.526 E.18478
;WIDTH:0.45074
G1 X107.224 Y111.472 E.00185
;WIDTH:0.48002
G1 X107.224 Y111.417 E.00199
G1 X107.271 Y111.39 E.00199
;WIDTH:0.45074
G1 X107.318 Y111.362 E.00185
;WIDTH:0.421459
G1 X112.402 Y108.427 E.18478
;WIDTH:0.450739
G1 X112.45 Y108.4 E.00185
;WIDTH:0.480019
G1 X112.497 Y108.372 E.00199
G1 X112.544 Y108.4 E.00199
;WIDTH:0.450739
G1 X112.592 Y108.427 E.00185
;WIDTH:0.42146
G1 X117.676 Y111.362 E.18478
;WIDTH:0.45074
G1 X117.723 Y111.39 E.00185
;WIDTH:0.48002
G1 X117.77 Y111.417 E.00199
G1 X117.77 Y111.472 E.00199
;WIDTH:0.45074
G1 X117.77 Y111.526 E.00185
;WIDTH:0.42146
G1 X117.77 Y117.397 E.18478
;WIDTH:0.45074
G1 X117.77 Y117.452 E.00185
;WIDTH:0.48002
G1 X117.77 Y117.506 E.00199
G1 X117.723 Y117.534 E.00199
;WIDTH:0.45074
G1 X117.676 Y117.561 E.00185
;WIDTH:0.421459
G1 X112.592 Y120.496 E.18478
;WIDTH:0.450739
G1 X112.544 Y120.524 E.00185
;WIDTH:0.480019
G1 X112.497 Y120.551 E.00199
G1 X112.45 Y120.524 E.00199
;WIDTH:0.450739
G1 X112.402 Y120.496 E.00185
;WIDTH:0.421461
G1 X107.318 Y117.561 E.18478
;WIDTH:0.450741
G1 X107.275 Y117.536 E.00167
M204 S1000
;WIPE_START
G1 F8640
G1 X107.224 Y117.452 E-.02293
G1 X107.224 Y117.397 E-.01262
G1 X107.224 Y114.26 E-.72445
;WIPE_END
G1 E-.04 F2100
G1 Z.6 F720
G1 X107.176 Y114.26 F10800
G1 X107.176 Y111.389
G1 X112.497 Y108.317
G1 X117.96 Y111.145
G1 X123.281 Y108.072
G1 X123.281 Y107.935
G1 X123.233 Y107.935
G1 Z.2 F720
G1 E.8 F2100
M204 S800
;WIDTH:0.45074
G1 F1200
G1 X123.233 Y107.99 E.00185
;WIDTH:0.48002
G1 X123.233 Y108.045 E.00199
G1 X123.186 Y108.072 E.00199
;WIDTH:0.45074
G1 X123.138 Y108.099 E.00185
;WIDTH:0.421459
G1 X118.054 Y111.035 E.18478
;WIDTH:0.45074
G1 X118.007 Y111.062 E.00185
;WIDTH:0.48002
G1 X117.96 Y111.089 E.00199
G1 X117.912 Y111.062 E.00199
;WIDTH:0.45074
G1 X117.865 Y111.035 E.00185
;WIDTH:0.42146
G1 X112.781 Y108.099 E.18478
;WIDTH:0.450739
G1 X112.734 Y108.072 E.00185
;WIDTH:0.480019
G1 X112.686 Y108.045 E.00199
G1 X112.686 Y107.99 E.00199
;WIDTH:0.45074
G1 X112.686 Y107.935 E.00185
;WIDTH:0.42146
G1 X112.686 Y102.065 E.18478
;WIDTH:0.45074
G1 X112.686 Y102.01 E.00185
;WIDTH:0.48002
G1 X112.686 Y101.955 E.00199
G1 X112.734 Y101.928 E.00199
;WIDTH:0.45074
G1 X112.781 Y101.901 E.00185
;WIDTH:0.42146
G1 X117.865 Y98.965 E.18478
;WIDTH:0.45074
G1 X117.912 Y98.938 E.00185
;WIDTH:0.48002
G1 X117.96 Y98.911 E.00199
G1 X118.007 Y98.938 E.00199
;WIDTH:0.45074
G1 X118.054 Y98.965 E.00185
;WIDTH:0.42146
G1 X123.138 Y101.901 E.18478
;WIDTH:0.45074
G1 X123.186 Y101.928 E.00185
;WIDTH:0.48002
G1 X123.233 Y101.955 E.00199
G1 X123.233 Y102.01 E.00199
;WIDTH:0.45074
G1 X123.233 Y102.065 E.00185
;WIDTH:0.42146
G1 X123.233 Y107.875 E.1829
M204 S1000
;WIPE_START
G1 F8640
G1 X123.233 Y107.99 E-.02647
G1 X123.233 Y108.045 E-.01262
G1 X123.186 Y108.072 E-.01262
G1 X123.138 Y108.099 E-.01262
G1 X120.529 Y109.606 E-.69568
;WIPE_END
G1 E-.04 F2100
G1 Z.6 F720
G1 X120.553 Y109.647 F10800
G1 X117.96 Y111.145
G1 X112.638 Y108.072
G1 X112.356 Y101.928
G1 X108.744 Y99.843
G1 X107.176 Y98.583
G1 X107.224 Y98.583
G1 Z.2 F720
G1 E.8 F2100
M204 S800
;WIDTH:0.48002
G1 F1200
G1 X107.224 Y98.528 E.00199
;WIDTH:0.45074
G1 X107.224 Y98.474 E.00185
;WIDTH:0.42146
G1 X107.224 Y92.603 E.18478
;WIDTH:0.45074
G1 X107.224 Y92.548 E.00185
;WIDTH:0.48002
G1 X107.224 Y92.494 E.00199
G1 X107.271 Y92.466 E.00199
;WIDTH:0.45074
G1 X107.318 Y92.439 E.00185
;WIDTH:0.42146
G1 X112.402 Y89.504 E.18478
;WIDTH:0.450739
G1 X112.45 Y89.476 E.00185
;WIDTH:0.480019
G1 X112.497 Y89.449 E.00199
G1 X112.544 Y89.476 E.00199
;WIDTH:0.450739
G1 X112.592 Y89.504 E.00185
;WIDTH:0.42146
G1 X117.676 Y92.439 E.18478
;WIDTH:0.45074
G1 X117.723 Y92.466 E.00185
;WIDTH:0.48002
G1 X117.77 Y92.494 E.00199
G1 X117.77 Y92.548 E.00199
;WIDTH:0.45074
G1 X117.77 Y92.603 E.00185
;WIDTH:0.42146
G1 X117.77 Y98.474 E.18478
;WIDTH:0.45074
G1 X117.77 Y98.528 E.00185
;WIDTH:0.48002
G1 X117.77 Y98.583 E.00199
G1 X117.723 Y98.61 E.00199
;WIDTH:0.45074
G1 X117.676 Y98.638 E.00185
;WIDTH:0.42146
G1 X112.592 Y101.573 E.18478
;WIDTH:0.45074
G1 X112.544 Y101.6 E.00185
;WIDTH:0.48002
G1 X112.497 Y101.628 E.00199
G1 X112.45 Y101.6 E.00199
;WIDTH:0.45074
G1 X112.402 Y101.573 E.00185
;WIDTH:0.42146
G1 X107.318 Y98.638 E.18478
;WIDTH:0.45074
G1 X107.275 Y98.613 E.00167
M204 S1000
;WIPE_START
G1 F8640
G1 X107.224 Y98.528 E-.02293
G1 X107.224 Y98.474 E-.01262
G1 X107.224 Y95.336 E-.72445
;WIPE_END
G1 E-.04 F2100
G1 Z.6 F720
G1 X107.176 Y95.336 F10800
G1 X107.176 Y98.611
G1 X112.497 Y101.683
G1 X117.818 Y98.611
G1 X117.818 Y98.474
G1 X118.149 Y98.474
G1 Z.2 F720
G1 E.8 F2100
M204 S800
;WIDTH:0.42146
G1 F1200
G1 X118.149 Y92.603 E.18478
;WIDTH:0.45074
G1 X118.149 Y92.548 E.00185
;WIDTH:0.48002
G1 X118.149 Y92.494 E.00199
G1 X118.196 Y92.466 E.00199
;WIDTH:0.45074
G1 X118.244 Y92.439 E.00185
;WIDTH:0.42146
G1 X123.328 Y89.504 E.18478
;WIDTH:0.45074
G1 X123.375 Y89.476 E.00185
;WIDTH:0.48002
G1 X123.422 Y89.449 E.00199
G1 X123.47 Y89.476 E.00199
;WIDTH:0.45074
G1 X123.517 Y89.504 E.00185
;WIDTH:0.42146
G1 X128.601 Y92.439 E.18478
;WIDTH:0.45074
G1 X128.648 Y92.466 E.00185
;WIDTH:0.48002
G1 X128.696 Y92.494 E.00199
G1 X128.696 Y92.548 E.00199
;WIDTH:0.45074
G1 X128.696 Y92.603 E.00185
;WIDTH:0.42146
G1 X128.696 Y98.474 E.18478
;WIDTH:0.45074
G1 X128.696 Y98.528 E.00185
;WIDTH:0.48002
G1 X128.696 Y98.583 E.00199
G1 X128.648 Y98.61 E.00199
;WIDTH:0.45074
G1 X128.601 Y98.638 E.00185
;WIDTH:0.42146
G1 X123.517 Y101.573 E.18478
;WIDTH:0.45074
G1 X123.47 Y101.6 E.00185
;WIDTH:0.48002
G1 X123.422 Y101.628 E.00199
G1 X123.375 Y101.6 E.00199
;WIDTH:0.45074
G1 X123.328 Y101.573 E.00185
;WIDTH:0.42146
G1 X118.244 Y98.638 E.18478
;WIDTH:0.45074
G1 X118.196 Y98.61 E.00185
;WIDTH:0.48002
G1 X118.149 Y98.583 E.00199
G1 X118.149 Y98.534 E.00179
M204 S1000
G1 X117.782 Y98.313 F10800
;WIPE_START
G1 F8640
G1 X118.149 Y95.242 E-.76
;WIPE_END
G1 E-.04 F2100
G1 Z.6 F720
G1 X118.101 Y95.242 F10800
G1 X118.101 Y92.466
G1 X123.281 Y89.149
G1 X123.281 Y83.004
G1 X117.96 Y79.932
G1 X117.936 Y79.946
G1 X117.96 Y79.987
G1 Z.2 F720
G1 E.8 F2100
M204 S800
G1 F1200
G1 X118.007 Y80.015 E.00199
;WIDTH:0.45074
G1 X118.054 Y80.042 E.00185
;WIDTH:0.421459
G1 X123.138 Y82.977 E.18478
;WIDTH:0.45074
G1 X123.186 Y83.005 E.00185
;WIDTH:0.48002
G1 X123.233 Y83.032 E.00199
G1 X123.233 Y83.087 E.00199
